; [1] FLAVOR:Marlin
; [2] TIME:1855
; [3] Filament used: 1.22418m
; [4] Layer height: 0.2
; [5] MINX:3.936
; [6] MINY:3.934
; [7] MINZ:0.2
; [8] MAXX:50.936
; [9] MAXY:50.934
; [10] MAXZ:10
; [11] Generated with Cura_SteamEngine main
M82 ; [12] absolute extrusion mode
; [13] Ender 3 Custom Start G-code
G92 E0 ; [14] Reset Extruder
G28 ; [15] Home all axes
M104 S175 ; [16] Start heating up the nozzle most of the way
M190 S60 ; [17] Start heating the bed, wait until target temperature reached
M109 S200 ; [18] Finish heating the nozzle
G1 Z2.0 F3000 ; [19] Move Z Axis up little to prevent scratching of Heat Bed
G1 X0.1 Y20 Z0.3 F5000.0 ; [20] Move to start position
G1 X0.1 Y200.0 Z0.3 F1500.0 E15 ; [21] Draw the first line
G1 X0.4 Y200.0 Z0.3 F5000.0 ; [22] Move to side a little
G1 X0.4 Y20 Z0.3 F1500.0 E30 ; [23] Draw the second line
G92 E0 ; [24] Reset Extruder
G1 Z2.0 F3000 ; [25] Move Z Axis up little to prevent scratching of Heat Bed
G1 X5 Y20 Z0.3 F5000.0 ; [26] Move over to prevent blob squish
G92 E0 ; [27]
G92 E0 ; [28]
G1 F1500 E-6.5 ; [29]
; [30] LAYER_COUNT:50
; [31] LAYER:0
M107 ; [32]
;  ==== Start layer 0 ====
;  Step 0 (0 lines): Move thread to avoid layer extents -------------------------
;  Layer postamble ------
G0 F6000 X7.134 Y7.198 Z0.2 ; [33]
G0 X3.937 Y15.459 ; [34]
; [35] TYPE:SKIRT
G1 F1500 E0.0 ; [36]
G1 F1200 X3.946 Y14.794 E0.02212 ; [37]
G1 X3.999 Y13.858 E0.0533 ; [38]
G1 X4.131 Y12.929 E0.08451 ; [39]
G1 X4.342 Y12.015 E0.11571 ; [40]
G1 X4.63 Y11.123 E0.14689 ; [41]
G1 X4.993 Y10.258 E0.17809 ; [42]
G1 X5.428 Y9.427 E0.20928 ; [43]
G1 X5.932 Y8.637 E0.24045 ; [44]
G1 X6.502 Y7.892 E0.27165 ; [45]
G1 X7.134 Y7.198 E0.30287 ; [46]
G1 X7.822 Y6.561 E0.33405 ; [47]
G1 X8.562 Y5.985 E0.36524 ; [48]
G1 X9.348 Y5.473 E0.39644 ; [49]
G1 X10.175 Y5.031 E0.42763 ; [50]
G1 X11.037 Y4.661 E0.45883 ; [51]
G1 X11.927 Y4.365 E0.49003 ; [52]
G1 X12.839 Y4.147 E0.52122 ; [53]
G1 X13.766 Y4.006 E0.5524 ; [54]
G1 X14.637 Y3.947 E0.58144 ; [55]
G1 X15.266 Y3.934 E0.60236 ; [56]
G1 X24.376 Y3.935 E0.90536 ; [57]
G1 X26.207 Y3.961 E0.96627 ; [58]
G1 X28.846 Y3.961 E1.05404 ; [59]
G1 X30.139 Y3.935 E1.09706 ; [60]
G1 X39.387 Y3.935 E1.40465 ; [61]
G1 X40.085 Y3.945 E1.42786 ; [62]
G1 X41.021 Y3.999 E1.45905 ; [63]
G1 X41.949 Y4.131 E1.49022 ; [64]
G1 X42.863 Y4.343 E1.52143 ; [65]
G1 X43.755 Y4.632 E1.55262 ; [66]
G1 X44.62 Y4.995 E1.58382 ; [67]
G1 X45.45 Y5.431 E1.615 ; [68]
G1 X46.241 Y5.936 E1.64621 ; [69]
G1 X46.985 Y6.507 E1.67741 ; [70]
G1 X47.678 Y7.139 E1.7086 ; [71]
G1 X48.315 Y7.827 E1.73979 ; [72]
G1 X48.89 Y8.568 E1.77098 ; [73]
G1 X49.401 Y9.354 E1.80216 ; [74]
G1 X49.843 Y10.182 E1.83338 ; [75]
G1 X50.212 Y11.044 E1.86457 ; [76]
G1 X50.507 Y11.934 E1.89575 ; [77]
G1 X50.725 Y12.846 E1.92694 ; [78]
G1 X50.865 Y13.774 E1.95816 ; [79]
G1 X50.923 Y14.635 E1.98686 ; [80]
G1 X50.936 Y15.264 E2.00778 ; [81]
G1 X50.935 Y24.363 E2.31042 ; [82]
G1 X50.909 Y26.203 E2.37162 ; [83]
G1 X50.909 Y28.844 E2.45946 ; [84]
G1 X50.935 Y30.137 E2.50248 ; [85]
G1 X50.935 Y39.334 E2.80837 ; [86]
G1 X50.926 Y40.061 E2.83255 ; [87]
G1 X50.875 Y40.998 E2.86376 ; [88]
G1 X50.743 Y41.926 E2.89494 ; [89]
G1 X50.534 Y42.84 E2.92612 ; [90]
G1 X50.247 Y43.733 E2.95732 ; [91]
G1 X49.885 Y44.599 E2.98854 ; [92]
G1 X49.451 Y45.43 E3.01972 ; [93]
G1 X48.947 Y46.221 E3.05092 ; [94]
G1 X48.378 Y46.966 E3.08209 ; [95]
G1 X47.747 Y47.661 E3.11332 ; [96]
G1 X47.06 Y48.299 E3.1445 ; [97]
G1 X46.321 Y48.876 E3.17568 ; [98]
G1 X45.535 Y49.388 E3.20688 ; [99]
G1 X44.709 Y49.831 E3.23806 ; [100]
G1 X43.847 Y50.203 E3.26928 ; [101]
G1 X42.958 Y50.499 E3.30045 ; [102]
G1 X42.046 Y50.719 E3.33165 ; [103]
G1 X41.119 Y50.86 E3.36284 ; [104]
G1 X40.235 Y50.921 E3.39231 ; [105]
G1 X39.606 Y50.934 E3.41324 ; [106]
G1 X30.496 Y50.933 E3.71624 ; [107]
G1 X28.665 Y50.907 E3.77714 ; [108]
G1 X26.026 Y50.907 E3.86491 ; [109]
G1 X24.733 Y50.933 E3.90793 ; [110]
G1 X15.501 Y50.933 E4.21499 ; [111]
G1 X14.803 Y50.924 E4.2382 ; [112]
G1 X13.867 Y50.872 E4.26938 ; [113]
G1 X12.938 Y50.74 E4.30059 ; [114]
G1 X12.024 Y50.53 E4.33178 ; [115]
G1 X11.131 Y50.243 E4.36298 ; [116]
G1 X10.266 Y49.88 E4.39418 ; [117]
G1 X9.435 Y49.446 E4.42536 ; [118]
G1 X8.644 Y48.942 E4.45656 ; [119]
G1 X7.899 Y48.372 E4.48776 ; [120]
G1 X7.205 Y47.741 E4.51896 ; [121]
G1 X6.568 Y47.054 E4.55012 ; [122]
G1 X5.991 Y46.314 E4.58133 ; [123]
G1 X5.479 Y45.528 E4.61253 ; [124]
G1 X5.036 Y44.701 E4.64373 ; [125]
G1 X4.665 Y43.84 E4.67491 ; [126]
G1 X4.369 Y42.95 E4.70611 ; [127]
G1 X4.15 Y42.038 E4.7373 ; [128]
G1 X4.009 Y41.111 E4.76849 ; [129]
G1 X3.949 Y40.222 E4.79813 ; [130]
G1 X3.936 Y39.592 E4.81908 ; [131]
G1 X3.937 Y30.494 E5.12168 ; [132]
G1 X3.963 Y28.663 E5.18259 ; [133]
G1 X3.963 Y26.024 E5.27036 ; [134]
G1 X3.937 Y24.731 E5.31338 ; [135]
G1 X3.937 Y15.459 E5.62177 ; [136]
G0 F6000 X4.337 Y15.465 ; [137]
G1 F1200 X4.346 Y14.8 E5.64389 ; [138]
G1 X4.398 Y13.88 E5.67453 ; [139]
G1 X4.53 Y12.969 E5.70515 ; [140]
G1 X4.741 Y12.073 E5.73577 ; [141]
G1 X5.028 Y11.198 E5.76639 ; [142]
G1 X5.391 Y10.352 E5.79701 ; [143]
G1 X5.825 Y9.54 E5.82764 ; [144]
G1 X6.328 Y8.769 E5.85825 ; [145]
G1 X6.897 Y8.045 E5.88888 ; [146]
G1 X7.525 Y7.373 E5.91947 ; [147]
G1 X8.21 Y6.757 E5.95011 ; [148]
G1 X8.946 Y6.204 E5.98073 ; [149]
G1 X9.727 Y5.716 E6.01136 ; [150]
G1 X10.547 Y5.298 E6.04198 ; [151]
G1 X11.401 Y4.953 E6.07261 ; [152]
G1 X12.281 Y4.683 E6.10323 ; [153]
G1 X13.181 Y4.491 E6.13383 ; [154]
G1 X14.095 Y4.377 E6.16447 ; [155]
G1 X14.648 Y4.347 E6.18289 ; [156]
G1 X15.266 Y4.334 E6.20345 ; [157]
G1 X24.371 Y4.335 E6.50628 ; [158]
G1 X26.202 Y4.361 E6.56719 ; [159]
G1 X28.855 Y4.361 E6.65543 ; [160]
G1 X30.139 Y4.335 E6.69814 ; [161]
G1 X39.381 Y4.335 E7.00553 ; [162]
G1 X40.079 Y4.345 E7.02875 ; [163]
G1 X40.998 Y4.398 E7.05937 ; [164]
G1 X41.909 Y4.531 E7.08999 ; [165]
G1 X42.805 Y4.742 E7.1206 ; [166]
G1 X43.679 Y5.03 E7.15121 ; [167]
G1 X44.526 Y5.393 E7.18186 ; [168]
G1 X45.337 Y5.828 E7.21247 ; [169]
G1 X46.107 Y6.332 E7.24308 ; [170]
G1 X46.831 Y6.901 E7.2737 ; [171]
G1 X47.503 Y7.531 E7.30434 ; [172]
G1 X48.118 Y8.216 E7.33496 ; [173]
G1 X48.671 Y8.952 E7.36558 ; [174]
G1 X49.158 Y9.733 E7.39619 ; [175]
G1 X49.575 Y10.554 E7.42682 ; [176]
G1 X49.92 Y11.408 E7.45745 ; [177]
G1 X50.189 Y12.288 E7.48806 ; [178]
G1 X50.381 Y13.189 E7.5187 ; [179]
G1 X50.494 Y14.102 E7.5493 ; [180]
G1 X50.523 Y14.646 E7.56742 ; [181]
G1 X50.536 Y15.264 E7.58798 ; [182]
G1 X50.535 Y24.358 E7.89044 ; [183]
G1 X50.509 Y26.198 E7.95165 ; [184]
G1 X50.509 Y28.853 E8.03995 ; [185]
G1 X50.535 Y30.137 E8.08267 ; [186]
G1 X50.535 Y39.329 E8.3884 ; [187]
G1 X50.526 Y40.056 E8.41258 ; [188]
G1 X50.475 Y40.975 E8.44319 ; [189]
G1 X50.344 Y41.887 E8.47384 ; [190]
G1 X50.134 Y42.783 E8.50444 ; [191]
G1 X49.848 Y43.658 E8.53506 ; [192]
G1 X49.487 Y44.505 E8.56569 ; [193]
G1 X49.053 Y45.317 E8.59631 ; [194]
G1 X48.551 Y46.089 E8.62694 ; [195]
G1 X47.983 Y46.814 E8.65757 ; [196]
G1 X47.355 Y47.487 E8.68818 ; [197]
G1 X46.671 Y48.103 E8.7188 ; [198]
G1 X45.936 Y48.657 E8.74941 ; [199]
G1 X45.156 Y49.146 E8.78003 ; [200]
G1 X44.336 Y49.565 E8.81066 ; [201]
G1 X43.483 Y49.911 E8.84128 ; [202]
G1 X42.603 Y50.182 E8.8719 ; [203]
G1 X41.703 Y50.375 E8.90252 ; [204]
G1 X40.789 Y50.49 E8.93316 ; [205]
G1 X40.224 Y50.521 E8.95198 ; [206]
G1 X39.606 Y50.534 E8.97254 ; [207]
G1 X30.501 Y50.533 E9.27537 ; [208]
G1 X28.67 Y50.507 E9.33627 ; [209]
G1 X26.017 Y50.507 E9.42451 ; [210]
G1 X24.733 Y50.533 E9.46723 ; [211]
G1 X15.506 Y50.533 E9.77412 ; [212]
G1 X14.808 Y50.524 E9.79734 ; [213]
G1 X13.889 Y50.472 E9.82795 ; [214]
G1 X12.978 Y50.341 E9.85856 ; [215]
G1 X12.082 Y50.131 E9.88917 ; [216]
G1 X11.207 Y49.844 E9.9198 ; [217]
G1 X10.36 Y49.482 E9.95044 ; [218]
G1 X9.548 Y49.048 E9.98106 ; [219]
G1 X8.777 Y48.546 E10.01166 ; [220]
G1 X8.052 Y47.978 E10.04229 ; [221]
G1 X7.379 Y47.349 E10.07293 ; [222]
G1 X6.764 Y46.665 E10.10352 ; [223]
G1 X6.21 Y45.93 E10.13414 ; [224]
G1 X5.722 Y45.149 E10.16477 ; [225]
G1 X5.303 Y44.329 E10.19539 ; [226]
G1 X4.957 Y43.476 E10.22601 ; [227]
G1 X4.687 Y42.596 E10.25663 ; [228]
G1 X4.494 Y41.695 E10.28727 ; [229]
G1 X4.38 Y40.782 E10.31788 ; [230]
G1 X4.349 Y40.211 E10.3369 ; [231]
G1 X4.336 Y39.592 E10.35749 ; [232]
G1 X4.337 Y30.499 E10.65992 ; [233]
G1 X4.363 Y28.668 E10.72083 ; [234]
G1 X4.363 Y26.015 E10.80907 ; [235]
G1 X4.337 Y24.731 E10.85178 ; [236]
G1 X4.337 Y15.465 E11.15997 ; [237]
G0 F6000 X4.737 Y15.47 ; [238]
G1 F1200 X4.746 Y14.805 E11.18209 ; [239]
G1 X4.798 Y13.903 E11.21214 ; [240]
G1 X4.93 Y13.01 E11.24216 ; [241]
G1 X5.14 Y12.132 E11.27219 ; [242]
G1 X5.427 Y11.275 E11.30225 ; [243]
G1 X5.789 Y10.448 E11.33228 ; [244]
G1 X6.222 Y9.656 E11.3623 ; [245]
G1 X6.724 Y8.905 E11.39234 ; [246]
G1 X7.291 Y8.201 E11.42241 ; [247]
G1 X7.917 Y7.551 E11.45242 ; [248]
G1 X8.598 Y6.958 E11.48246 ; [249]
G1 X9.33 Y6.428 E11.51252 ; [250]
G1 X10.105 Y5.965 E11.54254 ; [251]
G1 X10.918 Y5.572 E11.57258 ; [252]
G1 X11.763 Y5.252 E11.60263 ; [253]
G1 X12.632 Y5.009 E11.63264 ; [254]
G1 X13.52 Y4.843 E11.66269 ; [255]
G1 X14.659 Y4.747 E11.7007 ; [256]
G1 X15.266 Y4.734 E11.7209 ; [257]
G1 X24.22 Y4.734 E12.01871 ; [258]
G1 X26.196 Y4.761 E12.08444 ; [259]
G1 X28.818 Y4.761 E12.17165 ; [260]
G1 X29.917 Y4.737 E12.20821 ; [261]
G1 X39.375 Y4.735 E12.52278 ; [262]
G1 X40.073 Y4.745 E12.546 ; [263]
G1 X40.975 Y4.798 E12.57605 ; [264]
G1 X41.868 Y4.93 E12.60608 ; [265]
G1 X42.746 Y5.141 E12.63611 ; [266]
G1 X43.602 Y5.429 E12.66615 ; [267]
G1 X44.429 Y5.791 E12.69617 ; [268]
G1 X45.221 Y6.226 E12.72623 ; [269]
G1 X45.972 Y6.728 E12.75627 ; [270]
G1 X46.675 Y7.295 E12.78631 ; [271]
G1 X47.325 Y7.922 E12.81635 ; [272]
G1 X47.917 Y8.604 E12.84639 ; [273]
G1 X48.447 Y9.335 E12.87642 ; [274]
G1 X48.909 Y10.111 E12.90646 ; [275]
G1 X49.302 Y10.924 E12.93649 ; [276]
G1 X49.62 Y11.769 E12.96652 ; [277]
G1 X49.863 Y12.639 E12.99656 ; [278]
G1 X50.028 Y13.527 E13.0266 ; [279]
G1 X50.123 Y14.657 E13.06432 ; [280]
G1 X50.136 Y15.264 E13.08451 ; [281]
G1 X50.135 Y24.352 E13.38678 ; [282]
G1 X50.109 Y26.192 E13.44799 ; [283]
G1 X50.109 Y28.816 E13.53526 ; [284]
G1 X50.133 Y29.915 E13.57182 ; [285]
G1 X50.135 Y39.324 E13.88477 ; [286]
G1 X50.126 Y40.051 E13.90895 ; [287]
G1 X50.075 Y40.953 E13.939 ; [288]
G1 X49.944 Y41.847 E13.96905 ; [289]
G1 X49.735 Y42.725 E13.99907 ; [290]
G1 X49.449 Y43.582 E14.02912 ; [291]
G1 X49.088 Y44.41 E14.05916 ; [292]
G1 X48.656 Y45.202 E14.08917 ; [293]
G1 X48.155 Y45.954 E14.11922 ; [294]
G1 X47.589 Y46.658 E14.14927 ; [295]
G1 X46.964 Y47.309 E14.17928 ; [296]
G1 X46.283 Y47.903 E14.20934 ; [297]
G1 X45.552 Y48.434 E14.23939 ; [298]
G1 X44.778 Y48.898 E14.2694 ; [299]
G1 X43.965 Y49.292 E14.29945 ; [300]
G1 X43.121 Y49.612 E14.32947 ; [301]
G1 X42.251 Y49.857 E14.35953 ; [302]
G1 X41.364 Y50.023 E14.38955 ; [303]
G1 X40.213 Y50.121 E14.42797 ; [304]
G1 X39.606 Y50.134 E14.44816 ; [305]
G1 X30.507 Y50.133 E14.7508 ; [306]
G1 X28.676 Y50.107 E14.8117 ; [307]
G1 X26.054 Y50.107 E14.89891 ; [308]
G1 X24.955 Y50.131 E14.93547 ; [309]
G1 X15.511 Y50.133 E15.24958 ; [310]
G1 X14.813 Y50.124 E15.2728 ; [311]
G1 X13.912 Y50.073 E15.30281 ; [312]
G1 X13.018 Y49.941 E15.33287 ; [313]
G1 X12.14 Y49.732 E15.36289 ; [314]
G1 X11.283 Y49.445 E15.39295 ; [315]
G1 X10.456 Y49.084 E15.42296 ; [316]
G1 X9.663 Y48.651 E15.45301 ; [317]
G1 X8.912 Y48.15 E15.48304 ; [318]
G1 X8.208 Y47.584 E15.51308 ; [319]
G1 X7.557 Y46.958 E15.54312 ; [320]
G1 X6.964 Y46.277 E15.57316 ; [321]
G1 X6.434 Y45.546 E15.60319 ; [322]
G1 X5.97 Y44.771 E15.63323 ; [323]
G1 X5.576 Y43.958 E15.66328 ; [324]
G1 X5.256 Y43.114 E15.6933 ; [325]
G1 X5.012 Y42.244 E15.72335 ; [326]
G1 X4.846 Y41.356 E15.7534 ; [327]
G1 X4.749 Y40.201 E15.79195 ; [328]
G1 X4.736 Y39.592 E15.81221 ; [329]
G1 X4.737 Y30.505 E16.11444 ; [330]
G1 X4.763 Y28.674 E16.17535 ; [331]
G1 X4.763 Y26.052 E16.26256 ; [332]
G1 X4.739 Y24.953 E16.29912 ; [333]
G1 X4.737 Y15.47 E16.61453 ; [334]
G1 F1500 E10.11453 ; [335]
; [336] MESH:Router test.3mf(3)
G0 F6000 X14.271 Y15.47 ; [337]
G0 X24.336 Y24.334 ; [338]
; [339] TYPE:WALL-INNER
G1 F1500 E16.61453 ; [340]
G1 F1200 X24.336 Y15.534 E16.90721 ; [341]
G1 X15.536 Y15.534 E17.1999 ; [342]
G1 X15.536 Y24.334 E17.49259 ; [343]
G1 X24.336 Y24.334 E17.78528 ; [344]
G0 F6000 X24.736 Y24.734 ; [345]
; [346] TYPE:WALL-OUTER
G1 F1200 X24.736 Y15.134 E18.10458 ; [347]
G1 X15.136 Y15.134 E18.42388 ; [348]
G1 X15.136 Y24.734 E18.74317 ; [349]
G1 X24.736 Y24.734 E19.06247 ; [350]
G0 F6000 X24.466 Y24.464 ; [351]
G0 X24.236 Y23.974 ; [352]
G0 X23.976 Y23.974 ; [353]
; [354] TYPE:SKIN
G1 F1200 X23.976 Y15.894 E19.33121 ; [355]
G1 X15.896 Y15.894 E19.59996 ; [356]
G1 X15.896 Y23.974 E19.8687 ; [357]
G1 X23.976 Y23.974 E20.13744 ; [358]
G0 F6000 X24.236 Y23.974 ; [359]
G0 X24.236 Y16.421 ; [360]
G0 X23.775 Y16.421 ; [361]
G1 F1200 X23.448 Y16.094 E20.15282 ; [362]
G0 F6000 X22.882 Y16.094 ; [363]
G1 F1200 X23.775 Y16.986 E20.1948 ; [364]
G0 F6000 X23.775 Y17.552 ; [365]
G1 F1200 X22.316 Y16.094 E20.2634 ; [366]
G0 F6000 X21.751 Y16.094 ; [367]
G1 F1200 X23.775 Y18.118 E20.35861 ; [368]
G0 F6000 X23.775 Y18.683 ; [369]
G1 F1200 X21.185 Y16.094 E20.48041 ; [370]
G0 F6000 X20.619 Y16.094 ; [371]
G1 F1200 X23.775 Y19.249 E20.62883 ; [372]
G0 F6000 X23.775 Y19.815 ; [373]
G1 F1200 X20.054 Y16.094 E20.80386 ; [374]
G0 F6000 X19.488 Y16.094 ; [375]
G1 F1200 X23.775 Y20.38 E21.00548 ; [376]
G0 F6000 X23.775 Y20.946 ; [377]
G1 F1200 X18.922 Y16.094 E21.23373 ; [378]
G0 F6000 X18.357 Y16.094 ; [379]
G1 F1200 X23.775 Y21.512 E21.48858 ; [380]
G0 F6000 X23.775 Y22.077 ; [381]
G1 F1200 X17.791 Y16.094 E21.77002 ; [382]
G0 F6000 X17.225 Y16.094 ; [383]
G1 F1200 X23.775 Y22.643 E22.07809 ; [384]
G0 F6000 X23.775 Y23.209 ; [385]
G1 F1200 X16.66 Y16.094 E22.41276 ; [386]
G0 F6000 X16.095 Y16.095 ; [387]
G1 F1200 X23.773 Y23.773 E22.77391 ; [388]
G0 F6000 X23.207 Y23.773 ; [389]
G1 F1200 X16.095 Y16.66 E23.10846 ; [390]
G0 F6000 X16.095 Y17.226 ; [391]
G1 F1200 X22.642 Y23.773 E23.41641 ; [392]
G0 F6000 X22.076 Y23.773 ; [393]
G1 F1200 X16.095 Y17.792 E23.69774 ; [394]
G0 F6000 X16.095 Y18.357 ; [395]
G1 F1200 X21.51 Y23.773 E23.95246 ; [396]
G0 F6000 X20.945 Y23.773 ; [397]
G1 F1200 X16.095 Y18.923 E24.18059 ; [398]
G0 F6000 X16.095 Y19.489 ; [399]
G1 F1200 X20.379 Y23.773 E24.3821 ; [400]
G0 F6000 X19.813 Y23.773 ; [401]
G1 F1200 X16.095 Y20.054 E24.55701 ; [402]
G0 F6000 X16.095 Y20.62 ; [403]
G1 F1200 X19.248 Y23.773 E24.70531 ; [404]
G0 F6000 X18.682 Y23.773 ; [405]
G1 F1200 X16.095 Y21.186 E24.827 ; [406]
G0 F6000 X16.095 Y21.752 ; [407]
G1 F1200 X18.116 Y23.773 E24.92206 ; [408]
G0 F6000 X17.551 Y23.773 ; [409]
G1 F1200 X16.095 Y22.317 E24.99055 ; [410]
G0 F6000 X16.095 Y22.883 ; [411]
G1 F1200 X16.985 Y23.773 E25.03241 ; [412]
G0 F6000 X16.419 Y23.773 ; [413]
G1 F1200 X16.095 Y23.449 E25.04765 ; [414]
G1 F1500 E18.54765 ; [415]
; [416] MESH:Router test.3mf(4)
G0 F6000 X15.636 Y23.449 ; [417]
G0 X15.708 Y24.162 ; [418]
G0 X24.516 Y24.334 ; [419]
G0 X25.601 Y24.334 ; [420]
G0 X29.271 Y24.334 ; [421]
G0 X39.336 Y24.334 ; [422]
; [423] TYPE:WALL-INNER
G1 F1500 E25.04765 ; [424]
G1 F1200 X39.336 Y15.534 E25.34034 ; [425]
G1 X30.536 Y15.534 E25.63303 ; [426]
G1 X30.536 Y24.334 E25.92572 ; [427]
G1 X39.336 Y24.334 E26.21841 ; [428]
G0 F6000 X39.736 Y24.734 ; [429]
; [430] TYPE:WALL-OUTER
G1 F1200 X39.736 Y15.134 E26.5377 ; [431]
G1 X30.136 Y15.134 E26.857 ; [432]
G1 X30.136 Y24.734 E27.1763 ; [433]
G1 X39.736 Y24.734 E27.49559 ; [434]
G0 F6000 X39.466 Y24.464 ; [435]
G0 X39.236 Y23.974 ; [436]
G0 X38.976 Y23.974 ; [437]
; [438] TYPE:SKIN
G1 F1200 X38.976 Y15.894 E27.76434 ; [439]
G1 X30.896 Y15.894 E28.03308 ; [440]
G1 X30.896 Y23.974 E28.30182 ; [441]
G1 X38.976 Y23.974 E28.57056 ; [442]
G0 F6000 X39.236 Y23.974 ; [443]
G0 X39.236 Y16.713 ; [444]
G0 X38.775 Y16.713 ; [445]
G1 F1200 X38.155 Y16.093 E28.59972 ; [446]
G0 F6000 X37.589 Y16.093 ; [447]
G1 F1200 X38.775 Y17.279 E28.65551 ; [448]
G0 F6000 X38.775 Y17.845 ; [449]
G1 F1200 X37.024 Y16.093 E28.7379 ; [450]
G0 F6000 X36.458 Y16.093 ; [451]
G1 F1200 X38.775 Y18.41 E28.84688 ; [452]
G0 F6000 X38.775 Y18.976 ; [453]
G1 F1200 X35.892 Y16.093 E28.98249 ; [454]
G0 F6000 X35.327 Y16.093 ; [455]
G1 F1200 X38.775 Y19.542 E29.14469 ; [456]
G0 F6000 X38.775 Y20.107 ; [457]
G1 F1200 X34.761 Y16.093 E29.3335 ; [458]
G0 F6000 X34.195 Y16.093 ; [459]
G1 F1200 X38.775 Y20.673 E29.54893 ; [460]
G0 F6000 X38.775 Y21.239 ; [461]
G1 F1200 X33.629 Y16.093 E29.79098 ; [462]
G0 F6000 X33.064 Y16.093 ; [463]
G1 F1200 X38.775 Y21.805 E30.05963 ; [464]
G0 F6000 X38.775 Y22.37 ; [465]
G1 F1200 X32.498 Y16.093 E30.35488 ; [466]
G0 F6000 X31.932 Y16.093 ; [467]
G1 F1200 X38.775 Y22.936 E30.67676 ; [468]
G0 F6000 X38.775 Y23.502 ; [469]
G1 F1200 X31.367 Y16.093 E31.02523 ; [470]
G0 F6000 X31.095 Y16.387 ; [471]
G1 F1200 X38.481 Y23.773 E31.37265 ; [472]
G0 F6000 X37.915 Y23.773 ; [473]
G1 F1200 X31.095 Y16.952 E31.69346 ; [474]
G0 F6000 X31.095 Y17.518 ; [475]
G1 F1200 X37.35 Y23.773 E31.98768 ; [476]
G0 F6000 X36.784 Y23.773 ; [477]
G1 F1200 X31.095 Y18.084 E32.25527 ; [478]
G0 F6000 X31.095 Y18.649 ; [479]
G1 F1200 X36.218 Y23.773 E32.49626 ; [480]
G0 F6000 X35.653 Y23.773 ; [481]
G1 F1200 X31.095 Y19.215 E32.71066 ; [482]
G0 F6000 X31.095 Y19.781 ; [483]
G1 F1200 X35.087 Y23.773 E32.89843 ; [484]
G0 F6000 X34.521 Y23.773 ; [485]
G1 F1200 X31.095 Y20.346 E33.0596 ; [486]
G0 F6000 X31.095 Y20.912 ; [487]
G1 F1200 X33.955 Y23.773 E33.19415 ; [488]
G0 F6000 X33.39 Y23.773 ; [489]
G1 F1200 X31.095 Y21.478 E33.3021 ; [490]
G0 F6000 X31.095 Y22.044 ; [491]
G1 F1200 X32.824 Y23.773 E33.38343 ; [492]
G0 F6000 X32.258 Y23.773 ; [493]
G1 F1200 X31.095 Y22.609 E33.43816 ; [494]
G0 F6000 X31.095 Y23.175 ; [495]
G1 F1200 X31.693 Y23.773 E33.46628 ; [496]
G1 F1500 E26.96628 ; [497]
; [498] MESH:Router test.3mf(2)
G0 F6000 X31.693 Y24.234 ; [499]
G0 X39.336 Y24.514 ; [500]
G0 X39.336 Y25.599 ; [501]
G0 X39.336 Y29.269 ; [502]
G0 X39.336 Y39.334 ; [503]
; [504] TYPE:WALL-INNER
G1 F1500 E33.46628 ; [505]
G1 F1200 X39.336 Y30.534 E33.75897 ; [506]
G1 X30.536 Y30.534 E34.05166 ; [507]
G1 X30.536 Y39.334 E34.34435 ; [508]
G1 X39.336 Y39.334 E34.63704 ; [509]
G0 F6000 X39.736 Y39.734 ; [510]
; [511] TYPE:WALL-OUTER
G1 F1200 X39.736 Y30.134 E34.95634 ; [512]
G1 X30.136 Y30.134 E35.27563 ; [513]
G1 X30.136 Y39.734 E35.59493 ; [514]
G1 X39.736 Y39.734 E35.91423 ; [515]
G0 F6000 X39.466 Y39.464 ; [516]
G0 X39.236 Y38.974 ; [517]
G0 X38.976 Y38.974 ; [518]
; [519] TYPE:SKIN
G1 F1200 X38.976 Y30.894 E36.18297 ; [520]
G1 X30.896 Y30.894 E36.45171 ; [521]
G1 X30.896 Y38.974 E36.72046 ; [522]
G1 X38.976 Y38.974 E36.9892 ; [523]
G0 F6000 X39.236 Y38.974 ; [524]
G0 X39.236 Y31.421 ; [525]
G0 X38.775 Y31.421 ; [526]
G1 F1200 X38.448 Y31.094 E37.00458 ; [527]
G0 F6000 X37.882 Y31.094 ; [528]
G1 F1200 X38.775 Y31.987 E37.04658 ; [529]
G0 F6000 X38.775 Y32.553 ; [530]
G1 F1200 X37.316 Y31.094 E37.11521 ; [531]
G0 F6000 X36.751 Y31.094 ; [532]
G1 F1200 X38.775 Y33.118 E37.21041 ; [533]
G0 F6000 X38.775 Y33.684 ; [534]
G1 F1200 X36.185 Y31.094 E37.33224 ; [535]
G0 F6000 X35.619 Y31.094 ; [536]
G1 F1200 X38.775 Y34.25 E37.48069 ; [537]
G0 F6000 X38.775 Y34.815 ; [538]
G1 F1200 X35.054 Y31.094 E37.65571 ; [539]
G0 F6000 X34.488 Y31.094 ; [540]
G1 F1200 X38.775 Y35.381 E37.85736 ; [541]
G0 F6000 X38.775 Y35.947 ; [542]
G1 F1200 X33.922 Y31.094 E38.08563 ; [543]
G0 F6000 X33.357 Y31.094 ; [544]
G1 F1200 X38.775 Y36.512 E38.34047 ; [545]
G0 F6000 X38.775 Y37.078 ; [546]
G1 F1200 X32.791 Y31.094 E38.62194 ; [547]
G0 F6000 X32.225 Y31.094 ; [548]
G1 F1200 X38.775 Y37.644 E38.93004 ; [549]
G0 F6000 X38.775 Y38.209 ; [550]
G1 F1200 X31.659 Y31.094 E39.26473 ; [551]
G0 F6000 X31.095 Y31.095 ; [552]
G1 F1200 X38.773 Y38.773 E39.62588 ; [553]
G0 F6000 X38.207 Y38.773 ; [554]
G1 F1200 X31.095 Y31.66 E39.96043 ; [555]
G0 F6000 X31.095 Y32.226 ; [556]
G1 F1200 X37.642 Y38.773 E40.26838 ; [557]
G0 F6000 X37.076 Y38.773 ; [558]
G1 F1200 X31.095 Y32.792 E40.5497 ; [559]
G0 F6000 X31.095 Y33.357 ; [560]
G1 F1200 X36.51 Y38.773 E40.80443 ; [561]
G0 F6000 X35.945 Y38.773 ; [562]
G1 F1200 X31.095 Y33.923 E41.03256 ; [563]
G0 F6000 X31.095 Y34.489 ; [564]
G1 F1200 X35.379 Y38.773 E41.23407 ; [565]
G0 F6000 X34.813 Y38.773 ; [566]
G1 F1200 X31.095 Y35.054 E41.40898 ; [567]
G0 F6000 X31.095 Y35.62 ; [568]
G1 F1200 X34.248 Y38.773 E41.55728 ; [569]
G0 F6000 X33.682 Y38.773 ; [570]
G1 F1200 X31.095 Y36.186 E41.67897 ; [571]
G0 F6000 X31.095 Y36.751 ; [572]
G1 F1200 X33.116 Y38.773 E41.77405 ; [573]
G0 F6000 X32.55 Y38.773 ; [574]
G1 F1200 X31.095 Y37.317 E41.84251 ; [575]
G0 F6000 X31.095 Y37.883 ; [576]
G1 F1200 X31.985 Y38.773 E41.88438 ; [577]
G0 F6000 X31.419 Y38.773 ; [578]
G1 F1200 X31.095 Y38.448 E41.89964 ; [579]
G1 F1500 E35.39964 ; [580]
; [581] MESH:Router test.3mf(1)
G0 F6000 X30.636 Y38.448 ; [582]
G0 X30.356 Y39.334 ; [583]
G0 X29.271 Y39.334 ; [584]
G0 X25.601 Y39.334 ; [585]
G0 X24.336 Y39.334 ; [586]
; [587] TYPE:WALL-INNER
G1 F1500 E41.89964 ; [588]
G1 F1200 X24.336 Y30.534 E42.19233 ; [589]
G1 X15.536 Y30.534 E42.48502 ; [590]
G1 X15.536 Y39.334 E42.77771 ; [591]
G1 X24.336 Y39.334 E43.0704 ; [592]
G0 F6000 X24.736 Y39.734 ; [593]
; [594] TYPE:WALL-OUTER
G1 F1200 X24.736 Y30.134 E43.3897 ; [595]
G1 X15.136 Y30.134 E43.70899 ; [596]
G1 X15.136 Y39.734 E44.02829 ; [597]
G1 X24.736 Y39.734 E44.34759 ; [598]
G0 F6000 X24.466 Y39.464 ; [599]
G0 X24.236 Y38.974 ; [600]
G0 X23.976 Y38.974 ; [601]
; [602] TYPE:SKIN
G1 F1200 X23.976 Y30.894 E44.61633 ; [603]
G1 X15.896 Y30.894 E44.88507 ; [604]
G1 X15.896 Y38.974 E45.15381 ; [605]
G1 X23.976 Y38.974 E45.42255 ; [606]
G0 F6000 X24.236 Y38.974 ; [607]
G0 X24.236 Y31.695 ; [608]
G0 X23.775 Y31.695 ; [609]
G1 F1200 X23.174 Y31.093 E45.45085 ; [610]
G0 F6000 X22.608 Y31.093 ; [611]
G1 F1200 X23.775 Y32.261 E45.50576 ; [612]
G0 F6000 X23.775 Y32.826 ; [613]
G1 F1200 X22.042 Y31.093 E45.58728 ; [614]
G0 F6000 X21.476 Y31.093 ; [615]
G1 F1200 X23.775 Y33.392 E45.69542 ; [616]
G0 F6000 X23.775 Y33.958 ; [617]
G1 F1200 X20.911 Y31.093 E45.83015 ; [618]
G0 F6000 X20.345 Y31.093 ; [619]
G1 F1200 X23.775 Y34.523 E45.99149 ; [620]
G0 F6000 X23.775 Y35.089 ; [621]
G1 F1200 X19.779 Y31.093 E46.17945 ; [622]
G0 F6000 X19.214 Y31.093 ; [623]
G1 F1200 X23.775 Y35.655 E46.39401 ; [624]
G0 F6000 X23.775 Y36.22 ; [625]
G1 F1200 X18.648 Y31.093 E46.63517 ; [626]
G0 F6000 X18.082 Y31.093 ; [627]
G1 F1200 X23.775 Y36.786 E46.90295 ; [628]
G0 F6000 X23.775 Y37.352 ; [629]
G1 F1200 X17.517 Y31.093 E47.19733 ; [630]
G0 F6000 X16.951 Y31.093 ; [631]
G1 F1200 X23.775 Y37.917 E47.51831 ; [632]
G0 F6000 X23.775 Y38.483 ; [633]
G1 F1200 X16.385 Y31.093 E47.86591 ; [634]
G0 F6000 X16.095 Y31.369 ; [635]
G1 F1200 X23.499 Y38.772 E48.21415 ; [636]
G0 F6000 X22.933 Y38.772 ; [637]
G1 F1200 X16.095 Y31.935 E48.53576 ; [638]
G0 F6000 X16.095 Y32.5 ; [639]
G1 F1200 X22.367 Y38.772 E48.83078 ; [640]
G0 F6000 X21.802 Y38.772 ; [641]
G1 F1200 X16.095 Y33.066 E49.0992 ; [642]
G0 F6000 X16.095 Y33.632 ; [643]
G1 F1200 X21.236 Y38.772 E49.34099 ; [644]
G0 F6000 X20.67 Y38.772 ; [645]
G1 F1200 X16.095 Y34.197 E49.55618 ; [646]
G0 F6000 X16.095 Y34.763 ; [647]
G1 F1200 X20.105 Y38.772 E49.74478 ; [648]
G0 F6000 X19.539 Y38.772 ; [649]
G1 F1200 X16.095 Y35.329 E49.90675 ; [650]
G0 F6000 X16.095 Y35.894 ; [651]
G1 F1200 X18.973 Y38.772 E50.04212 ; [652]
G0 F6000 X18.408 Y38.772 ; [653]
G1 F1200 X16.095 Y36.46 E50.1509 ; [654]
G0 F6000 X16.095 Y37.026 ; [655]
G1 F1200 X17.842 Y38.772 E50.23305 ; [656]
G0 F6000 X17.276 Y38.772 ; [657]
G1 F1200 X16.095 Y37.591 E50.2886 ; [658]
G0 F6000 X16.095 Y38.157 ; [659]
M104 S200 ; [660]
G1 F1200 X16.711 Y38.772 E50.31755 ; [661]
G1 F1500 E43.81755 ; [662]
; [663] MESH:NONMESH
;  ====== End layer 0 ====
;  ==== Start layer 1 ====
;  Step 0 (0 lines): Move thread to avoid layer extents -------------------------
;  Layer postamble ------
G0 F300 X16.711 Y38.772 Z0.4 ; [664]
G0 F6000 X16.711 Y39.234 ; [665]
G0 X24.164 Y39.162 ; [666]
G0 X24.336 Y30.354 ; [667]
G0 X24.336 Y29.269 ; [668]
G0 X24.336 Y25.599 ; [669]
G0 X24.336 Y24.334 ; [670]
; [671] TIME_ELAPSED:95.460512
; [672] LAYER:1
M106 S85 ; [673]
; [674] TYPE:WALL-INNER
; [675] MESH:Router test.3mf(3)
G1 F1500 E50.31755 ; [676]
G1 F1350 X24.336 Y15.534 E50.61024 ; [677]
G1 X15.536 Y15.534 E50.90293 ; [678]
G1 X15.536 Y24.334 E51.19562 ; [679]
G1 X24.336 Y24.334 E51.4883 ; [680]
G0 F7500 X24.736 Y24.734 ; [681]
; [682] TYPE:WALL-OUTER
G1 F1350 X24.736 Y15.134 E51.8076 ; [683]
G1 X15.136 Y15.134 E52.1269 ; [684]
G1 X15.136 Y24.734 E52.4462 ; [685]
G1 X24.736 Y24.734 E52.76549 ; [686]
G0 F7500 X24.466 Y24.464 ; [687]
G0 X24.236 Y23.974 ; [688]
G0 X23.976 Y23.974 ; [689]
; [690] TYPE:SKIN
G1 F1350 X23.976 Y15.894 E53.03424 ; [691]
G1 X15.896 Y15.894 E53.30298 ; [692]
G1 X15.896 Y23.974 E53.57172 ; [693]
G1 X23.976 Y23.974 E53.84046 ; [694]
G0 F7500 X23.178 Y23.773 ; [695]
G1 F1350 X23.775 Y23.176 E53.86854 ; [696]
G0 F7500 X23.775 Y22.611 ; [697]
G1 F1350 X22.612 Y23.773 E53.92322 ; [698]
G0 F7500 X22.046 Y23.773 ; [699]
G1 F1350 X23.775 Y22.045 E54.00453 ; [700]
G0 F7500 X23.775 Y21.479 ; [701]
G1 F1350 X21.481 Y23.773 E54.11243 ; [702]
G0 F7500 X20.915 Y23.773 ; [703]
G1 F1350 X23.775 Y20.914 E54.24693 ; [704]
G0 F7500 X23.775 Y20.348 ; [705]
G1 F1350 X20.349 Y23.773 E54.40806 ; [706]
G0 F7500 X19.784 Y23.773 ; [707]
G1 F1350 X23.775 Y19.782 E54.59578 ; [708]
G0 F7500 X23.775 Y19.217 ; [709]
G1 F1350 X19.218 Y23.773 E54.8101 ; [710]
G0 F7500 X18.652 Y23.773 ; [711]
G1 F1350 X23.775 Y18.651 E55.05105 ; [712]
G0 F7500 X23.775 Y18.085 ; [713]
G1 F1350 X18.087 Y23.773 E55.3186 ; [714]
G0 F7500 X17.521 Y23.773 ; [715]
G1 F1350 X23.775 Y17.519 E55.61277 ; [716]
G0 F7500 X23.775 Y16.954 ; [717]
G1 F1350 X16.955 Y23.773 E55.93353 ; [718]
G0 F7500 X16.39 Y23.773 ; [719]
G1 F1350 X23.775 Y16.388 E56.2809 ; [720]
G0 F7500 X23.504 Y16.093 ; [721]
G1 F1350 X16.095 Y23.502 E56.6294 ; [722]
G0 F7500 X16.095 Y22.936 ; [723]
G1 F1350 X22.938 Y16.093 E56.95127 ; [724]
G0 F7500 X22.372 Y16.093 ; [725]
G1 F1350 X16.095 Y22.37 E57.24652 ; [726]
G0 F7500 X16.095 Y21.805 ; [727]
G1 F1350 X21.807 Y16.093 E57.5152 ; [728]
G0 F7500 X21.241 Y16.093 ; [729]
G1 F1350 X16.095 Y21.239 E57.75725 ; [730]
G0 F7500 X16.095 Y20.673 ; [731]
G1 F1350 X20.675 Y16.093 E57.97268 ; [732]
G0 F7500 X20.11 Y16.093 ; [733]
G1 F1350 X16.095 Y20.107 E58.16151 ; [734]
G0 F7500 X16.095 Y19.542 ; [735]
G1 F1350 X19.544 Y16.093 E58.32374 ; [736]
G0 F7500 X18.978 Y16.093 ; [737]
G1 F1350 X16.095 Y18.976 E58.45935 ; [738]
G0 F7500 X16.095 Y18.41 ; [739]
G1 F1350 X18.413 Y16.093 E58.56835 ; [740]
G0 F7500 X17.847 Y16.093 ; [741]
G1 F1350 X16.095 Y17.845 E58.65076 ; [742]
G0 F7500 X16.095 Y17.279 ; [743]
G1 F1350 X17.281 Y16.093 E58.70655 ; [744]
G0 F7500 X16.716 Y16.093 ; [745]
G1 F1350 X16.095 Y16.713 E58.73574 ; [746]
G1 F1500 E52.23574 ; [747]
; [748] MESH:Router test.3mf(4)
G0 F7500 X15.636 Y16.713 ; [749]
G0 X15.708 Y24.162 ; [750]
G0 X24.516 Y24.334 ; [751]
G0 X25.601 Y24.334 ; [752]
G0 X29.271 Y24.334 ; [753]
G0 X39.336 Y24.334 ; [754]
; [755] TYPE:WALL-INNER
G1 F1500 E58.73574 ; [756]
G1 F1350 X39.336 Y15.534 E59.02843 ; [757]
G1 X30.536 Y15.534 E59.32111 ; [758]
G1 X30.536 Y24.334 E59.6138 ; [759]
G1 X39.336 Y24.334 E59.90649 ; [760]
G0 F7500 X39.736 Y24.734 ; [761]
; [762] TYPE:WALL-OUTER
G1 F1350 X39.736 Y15.134 E60.22579 ; [763]
G1 X30.136 Y15.134 E60.54509 ; [764]
G1 X30.136 Y24.734 E60.86438 ; [765]
G1 X39.736 Y24.734 E61.18368 ; [766]
G0 F7500 X39.466 Y24.464 ; [767]
G0 X39.236 Y23.974 ; [768]
G0 X38.976 Y23.974 ; [769]
; [770] TYPE:SKIN
G1 F1350 X38.976 Y15.894 E61.45242 ; [771]
G1 X30.896 Y15.894 E61.72117 ; [772]
G1 X30.896 Y23.974 E61.98991 ; [773]
G1 X38.976 Y23.974 E62.25865 ; [774]
G0 F7500 X38.774 Y23.45 ; [775]
G1 F1350 X38.451 Y23.773 E62.27384 ; [776]
G0 F7500 X37.886 Y23.773 ; [777]
G1 F1350 X38.774 Y22.884 E62.31563 ; [778]
G0 F7500 X38.774 Y22.319 ; [779]
G1 F1350 X37.32 Y23.773 E62.38403 ; [780]
G0 F7500 X36.754 Y23.773 ; [781]
G1 F1350 X38.774 Y21.753 E62.47904 ; [782]
G0 F7500 X38.774 Y21.187 ; [783]
G1 F1350 X36.189 Y23.773 E62.60065 ; [784]
G0 F7500 X35.623 Y23.773 ; [785]
G1 F1350 X38.774 Y20.622 E62.74887 ; [786]
G0 F7500 X38.774 Y20.056 ; [787]
G1 F1350 X35.057 Y23.773 E62.9237 ; [788]
G0 F7500 X34.491 Y23.773 ; [789]
G1 F1350 X38.774 Y19.49 E63.12516 ; [790]
G0 F7500 X38.774 Y18.925 ; [791]
G1 F1350 X33.926 Y23.773 E63.3532 ; [792]
G0 F7500 X33.36 Y23.773 ; [793]
G1 F1350 X38.774 Y18.359 E63.60786 ; [794]
G0 F7500 X38.774 Y17.793 ; [795]
G1 F1350 X32.794 Y23.773 E63.88914 ; [796]
G0 F7500 X32.229 Y23.773 ; [797]
G1 F1350 X38.774 Y17.227 E64.19702 ; [798]
G0 F7500 X38.774 Y16.662 ; [799]
G1 F1350 X31.663 Y23.773 E64.5315 ; [800]
G0 F7500 X31.097 Y23.773 ; [801]
G1 F1350 X38.774 Y16.096 E64.8926 ; [802]
G0 F7500 X38.212 Y16.093 ; [803]
G1 F1350 X31.095 Y23.21 E65.22736 ; [804]
G0 F7500 X31.095 Y22.644 ; [805]
G1 F1350 X37.646 Y16.093 E65.5355 ; [806]
G0 F7500 X37.08 Y16.093 ; [807]
G1 F1350 X31.095 Y22.078 E65.81702 ; [808]
G0 F7500 X31.095 Y21.513 ; [809]
G1 F1350 X36.514 Y16.093 E66.07193 ; [810]
G0 F7500 X35.949 Y16.093 ; [811]
G1 F1350 X31.095 Y20.947 E66.30025 ; [812]
G0 F7500 X31.095 Y20.381 ; [813]
G1 F1350 X35.383 Y16.093 E66.50195 ; [814]
G0 F7500 X34.817 Y16.093 ; [815]
G1 F1350 X31.095 Y19.815 E66.67702 ; [816]
G0 F7500 X31.095 Y19.25 ; [817]
G1 F1350 X34.252 Y16.093 E66.82551 ; [818]
G0 F7500 X33.686 Y16.093 ; [819]
G1 F1350 X31.095 Y18.684 E66.94739 ; [820]
G0 F7500 X31.095 Y18.118 ; [821]
G1 F1350 X33.12 Y16.093 E67.04263 ; [822]
G0 F7500 X32.555 Y16.093 ; [823]
G1 F1350 X31.095 Y17.553 E67.11131 ; [824]
G0 F7500 X31.095 Y16.987 ; [825]
G1 F1350 X31.989 Y16.093 E67.15336 ; [826]
G0 F7500 X31.423 Y16.093 ; [827]
G1 F1350 X31.095 Y16.421 E67.16879 ; [828]
G1 F1500 E60.66879 ; [829]
; [830] MESH:Router test.3mf(2)
G0 F7500 X30.636 Y16.421 ; [831]
G0 X30.708 Y24.162 ; [832]
G0 X39.336 Y24.514 ; [833]
G0 X39.336 Y25.599 ; [834]
G0 X39.336 Y29.269 ; [835]
G0 X39.336 Y39.334 ; [836]
; [837] TYPE:WALL-INNER
G1 F1500 E67.16879 ; [838]
G1 F1350 X39.336 Y30.534 E67.46148 ; [839]
G1 X30.536 Y30.534 E67.75417 ; [840]
G1 X30.536 Y39.334 E68.04686 ; [841]
G1 X39.336 Y39.334 E68.33954 ; [842]
G0 F7500 X39.736 Y39.734 ; [843]
; [844] TYPE:WALL-OUTER
G1 F1350 X39.736 Y30.134 E68.65884 ; [845]
G1 X30.136 Y30.134 E68.97814 ; [846]
G1 X30.136 Y39.734 E69.29744 ; [847]
G1 X39.736 Y39.734 E69.61673 ; [848]
G0 F7500 X39.466 Y39.464 ; [849]
G0 X39.236 Y38.974 ; [850]
G0 X38.976 Y38.974 ; [851]
; [852] TYPE:SKIN
G1 F1350 X38.976 Y30.894 E69.88548 ; [853]
G1 X30.896 Y30.894 E70.15422 ; [854]
G1 X30.896 Y38.974 E70.42296 ; [855]
G1 X38.976 Y38.974 E70.6917 ; [856]
G0 F7500 X38.774 Y38.158 ; [857]
G1 F1350 X38.159 Y38.774 E70.72065 ; [858]
G0 F7500 X37.593 Y38.774 ; [859]
G1 F1350 X38.774 Y37.592 E70.77623 ; [860]
G0 F7500 X38.774 Y37.026 ; [861]
G1 F1350 X37.027 Y38.774 E70.85842 ; [862]
G0 F7500 X36.461 Y38.774 ; [863]
G1 F1350 X38.774 Y36.461 E70.96722 ; [864]
G0 F7500 X38.774 Y35.895 ; [865]
G1 F1350 X35.896 Y38.774 E71.10262 ; [866]
G0 F7500 X35.33 Y38.774 ; [867]
G1 F1350 X38.774 Y35.329 E71.26463 ; [868]
G0 F7500 X38.774 Y34.764 ; [869]
G1 F1350 X34.764 Y38.774 E71.45325 ; [870]
G0 F7500 X34.199 Y38.774 ; [871]
G1 F1350 X38.774 Y34.198 E71.66847 ; [872]
G0 F7500 X38.774 Y33.632 ; [873]
G1 F1350 X33.633 Y38.774 E71.91031 ; [874]
G0 F7500 X33.067 Y38.774 ; [875]
G1 F1350 X38.774 Y33.067 E72.17875 ; [876]
G0 F7500 X38.774 Y32.501 ; [877]
G1 F1350 X32.502 Y38.774 E72.47379 ; [878]
G0 F7500 X31.936 Y38.774 ; [879]
G1 F1350 X38.774 Y31.935 E72.79545 ; [880]
G0 F7500 X38.774 Y31.37 ; [881]
G1 F1350 X31.37 Y38.774 E73.14371 ; [882]
G0 F7500 X31.095 Y38.483 ; [883]
G1 F1350 X38.485 Y31.093 E73.49132 ; [884]
G0 F7500 X37.92 Y31.093 ; [885]
G1 F1350 X31.095 Y37.917 E73.81232 ; [886]
G0 F7500 X31.095 Y37.352 ; [887]
G1 F1350 X37.354 Y31.093 E74.10672 ; [888]
G0 F7500 X36.788 Y31.093 ; [889]
G1 F1350 X31.095 Y36.786 E74.37451 ; [890]
G0 F7500 X31.095 Y36.22 ; [891]
G1 F1350 X36.222 Y31.093 E74.61566 ; [892]
G0 F7500 X35.657 Y31.093 ; [893]
G1 F1350 X31.095 Y35.655 E74.83025 ; [894]
G0 F7500 X31.095 Y35.089 ; [895]
G1 F1350 X35.091 Y31.093 E75.01821 ; [896]
G0 F7500 X34.525 Y31.093 ; [897]
G1 F1350 X31.095 Y34.523 E75.17954 ; [898]
G0 F7500 X31.095 Y33.958 ; [899]
G1 F1350 X33.96 Y31.093 E75.3143 ; [900]
G0 F7500 X33.394 Y31.093 ; [901]
G1 F1350 X31.095 Y33.392 E75.42244 ; [902]
G0 F7500 X31.095 Y32.826 ; [903]
G1 F1350 X32.828 Y31.093 E75.50396 ; [904]
G0 F7500 X32.263 Y31.093 ; [905]
G1 F1350 X31.095 Y32.261 E75.5589 ; [906]
G0 F7500 X31.095 Y31.695 ; [907]
G1 F1350 X31.697 Y31.093 E75.58721 ; [908]
G1 F1500 E69.08721 ; [909]
; [910] MESH:Router test.3mf(1)
G0 F7500 X31.697 Y30.634 ; [911]
G0 X30.708 Y30.706 ; [912]
G0 X30.356 Y39.334 ; [913]
G0 X29.271 Y39.334 ; [914]
G0 X25.601 Y39.334 ; [915]
G0 X24.336 Y39.334 ; [916]
; [917] TYPE:WALL-INNER
G1 F1500 E75.58721 ; [918]
G1 F1350 X24.336 Y30.534 E75.8799 ; [919]
G1 X15.536 Y30.534 E76.17259 ; [920]
G1 X15.536 Y39.334 E76.46528 ; [921]
G1 X24.336 Y39.334 E76.75797 ; [922]
G0 F7500 X24.736 Y39.734 ; [923]
; [924] TYPE:WALL-OUTER
G1 F1350 X24.736 Y30.134 E77.07727 ; [925]
G1 X15.136 Y30.134 E77.39656 ; [926]
G1 X15.136 Y39.734 E77.71586 ; [927]
G1 X24.736 Y39.734 E78.03516 ; [928]
G0 F7500 X24.466 Y39.464 ; [929]
G0 X24.236 Y38.974 ; [930]
G0 X23.976 Y38.974 ; [931]
; [932] TYPE:SKIN
G1 F1350 X23.976 Y30.894 E78.3039 ; [933]
G1 X15.896 Y30.894 E78.57264 ; [934]
G1 X15.896 Y38.974 E78.84138 ; [935]
G1 X23.976 Y38.974 E79.11012 ; [936]
G0 F7500 X23.451 Y38.773 ; [937]
G1 F1350 X23.775 Y38.449 E79.12536 ; [938]
G0 F7500 X23.775 Y37.883 ; [939]
G1 F1350 X22.886 Y38.773 E79.1672 ; [940]
G0 F7500 X22.32 Y38.773 ; [941]
G1 F1350 X23.775 Y37.318 E79.23564 ; [942]
G0 F7500 X23.775 Y36.752 ; [943]
G1 F1350 X21.754 Y38.773 E79.3307 ; [944]
G0 F7500 X21.189 Y38.773 ; [945]
G1 F1350 X23.775 Y36.186 E79.45237 ; [946]
G0 F7500 X23.775 Y35.621 ; [947]
G1 F1350 X20.623 Y38.773 E79.60063 ; [948]
G0 F7500 X20.057 Y38.773 ; [949]
G1 F1350 X23.775 Y35.055 E79.77551 ; [950]
G0 F7500 X23.775 Y34.489 ; [951]
G1 F1350 X19.492 Y38.773 E79.97699 ; [952]
G0 F7500 X18.926 Y38.773 ; [953]
G1 F1350 X23.775 Y33.924 E80.20507 ; [954]
G0 F7500 X23.775 Y33.358 ; [955]
G1 F1350 X18.36 Y38.773 E80.45978 ; [956]
G0 F7500 X17.795 Y38.773 ; [957]
G1 F1350 X23.775 Y32.792 E80.74108 ; [958]
G0 F7500 X23.775 Y32.227 ; [959]
G1 F1350 X17.229 Y38.773 E81.04899 ; [960]
G0 F7500 X16.663 Y38.773 ; [961]
G1 F1350 X23.775 Y31.661 E81.38351 ; [962]
G0 F7500 X23.775 Y31.095 ; [963]
G1 F1350 X16.097 Y38.773 E81.74466 ; [964]
G0 F7500 X16.095 Y38.209 ; [965]
G1 F1350 X23.212 Y31.092 E82.07943 ; [966]
G0 F7500 X22.647 Y31.092 ; [967]
G1 F1350 X16.095 Y37.644 E82.38761 ; [968]
G0 F7500 X16.095 Y37.078 ; [969]
G1 F1350 X22.081 Y31.092 E82.66917 ; [970]
G0 F7500 X21.515 Y31.092 ; [971]
G1 F1350 X16.095 Y36.512 E82.92411 ; [972]
G0 F7500 X16.095 Y35.947 ; [973]
G1 F1350 X20.95 Y31.092 E83.15248 ; [974]
G0 F7500 X20.384 Y31.092 ; [975]
G1 F1350 X16.095 Y35.381 E83.35422 ; [976]
G0 F7500 X16.095 Y34.815 ; [977]
G1 F1350 X19.818 Y31.092 E83.52934 ; [978]
G0 F7500 X19.253 Y31.092 ; [979]
G1 F1350 X16.095 Y34.25 E83.67788 ; [980]
G0 F7500 X16.095 Y33.684 ; [981]
G1 F1350 X18.687 Y31.092 E83.7998 ; [982]
G0 F7500 X18.121 Y31.092 ; [983]
G1 F1350 X16.095 Y33.118 E83.8951 ; [984]
G0 F7500 X16.095 Y32.553 ; [985]
G1 F1350 X17.556 Y31.092 E83.96382 ; [986]
G0 F7500 X16.99 Y31.092 ; [987]
G1 F1350 X16.095 Y31.987 E84.00592 ; [988]
G0 F7500 X16.095 Y31.421 ; [989]
G1 F1350 X16.424 Y31.092 E84.02139 ; [990]
G1 F1500 E77.52139 ; [991]
; [992] MESH:NONMESH
;  ====== End layer 1 ====
;  ==== Start layer 2 ====
;  Step 0 (0 lines): Move thread to avoid layer extents -------------------------
;  Layer postamble ------
G0 F300 X16.424 Y31.092 Z0.6 ; [993]
G0 F7500 X16.424 Y30.634 ; [994]
G0 X24.336 Y30.354 ; [995]
G0 X24.336 Y29.269 ; [996]
G0 X24.336 Y25.599 ; [997]
G0 X24.336 Y24.334 ; [998]
; [999] TIME_ELAPSED:155.040880
; [1000] LAYER:2
M106 S170 ; [1001]
; [1002] TYPE:WALL-INNER
; [1003] MESH:Router test.3mf(3)
G1 F1500 E84.02139 ; [1004]
G1 X24.336 Y15.534 E84.31408 ; [1005]
G1 X15.536 Y15.534 E84.60677 ; [1006]
G1 X15.536 Y24.334 E84.89946 ; [1007]
G1 X24.336 Y24.334 E85.19215 ; [1008]
G0 F9000 X24.736 Y24.734 ; [1009]
; [1010] TYPE:WALL-OUTER
G1 F1500 X24.736 Y15.134 E85.51145 ; [1011]
G1 X15.136 Y15.134 E85.83074 ; [1012]
G1 X15.136 Y24.734 E86.15004 ; [1013]
G1 X24.736 Y24.734 E86.46934 ; [1014]
G0 F9000 X24.466 Y24.464 ; [1015]
G0 X24.236 Y23.974 ; [1016]
G0 X23.976 Y23.974 ; [1017]
; [1018] TYPE:SKIN
G1 F1500 X23.976 Y15.894 E86.73808 ; [1019]
G1 X15.896 Y15.894 E87.00682 ; [1020]
G1 X15.896 Y23.974 E87.27556 ; [1021]
G1 X23.976 Y23.974 E87.54431 ; [1022]
G0 F9000 X24.236 Y23.974 ; [1023]
G0 X24.236 Y16.421 ; [1024]
G0 X23.775 Y16.421 ; [1025]
G1 F1500 X23.448 Y16.094 E87.55969 ; [1026]
G0 F9000 X22.882 Y16.094 ; [1027]
G1 F1500 X23.775 Y16.986 E87.60167 ; [1028]
G0 F9000 X23.775 Y17.552 ; [1029]
G1 F1500 X22.316 Y16.094 E87.67027 ; [1030]
G0 F9000 X21.751 Y16.094 ; [1031]
G1 F1500 X23.775 Y18.118 E87.76547 ; [1032]
G0 F9000 X23.775 Y18.683 ; [1033]
G1 F1500 X21.185 Y16.094 E87.88728 ; [1034]
G0 F9000 X20.619 Y16.094 ; [1035]
G1 F1500 X23.775 Y19.249 E88.0357 ; [1036]
G0 F9000 X23.775 Y19.815 ; [1037]
G1 F1500 X20.054 Y16.094 E88.21073 ; [1038]
G0 F9000 X19.488 Y16.094 ; [1039]
G1 F1500 X23.775 Y20.38 E88.41235 ; [1040]
G0 F9000 X23.775 Y20.946 ; [1041]
G1 F1500 X18.922 Y16.094 E88.6406 ; [1042]
G0 F9000 X18.357 Y16.094 ; [1043]
G1 F1500 X23.775 Y21.512 E88.89544 ; [1044]
G0 F9000 X23.775 Y22.077 ; [1045]
G1 F1500 X17.791 Y16.094 E89.17689 ; [1046]
G0 F9000 X17.225 Y16.094 ; [1047]
G1 F1500 X23.775 Y22.643 E89.48496 ; [1048]
G0 F9000 X23.775 Y23.209 ; [1049]
G1 F1500 X16.66 Y16.094 E89.81962 ; [1050]
G0 F9000 X16.095 Y16.095 ; [1051]
G1 F1500 X23.773 Y23.773 E90.18077 ; [1052]
G0 F9000 X23.207 Y23.773 ; [1053]
G1 F1500 X16.095 Y16.66 E90.51532 ; [1054]
G0 F9000 X16.095 Y17.226 ; [1055]
G1 F1500 X22.642 Y23.773 E90.82327 ; [1056]
G0 F9000 X22.076 Y23.773 ; [1057]
G1 F1500 X16.095 Y17.792 E91.1046 ; [1058]
G0 F9000 X16.095 Y18.357 ; [1059]
G1 F1500 X21.51 Y23.773 E91.35933 ; [1060]
G0 F9000 X20.945 Y23.773 ; [1061]
G1 F1500 X16.095 Y18.923 E91.58746 ; [1062]
G0 F9000 X16.095 Y19.489 ; [1063]
G1 F1500 X20.379 Y23.773 E91.78897 ; [1064]
G0 F9000 X19.813 Y23.773 ; [1065]
G1 F1500 X16.095 Y20.054 E91.96387 ; [1066]
G0 F9000 X16.095 Y20.62 ; [1067]
G1 F1500 X19.248 Y23.773 E92.11218 ; [1068]
G0 F9000 X18.682 Y23.773 ; [1069]
G1 F1500 X16.095 Y21.186 E92.23386 ; [1070]
G0 F9000 X16.095 Y21.752 ; [1071]
G1 F1500 X18.116 Y23.773 E92.32893 ; [1072]
G0 F9000 X17.551 Y23.773 ; [1073]
G1 F1500 X16.095 Y22.317 E92.39741 ; [1074]
G0 F9000 X16.095 Y22.883 ; [1075]
G1 F1500 X16.985 Y23.773 E92.43927 ; [1076]
G0 F9000 X16.419 Y23.773 ; [1077]
G1 F1500 X16.095 Y23.449 E92.45451 ; [1078]
G1 F1500 E85.95451 ; [1079]
; [1080] MESH:Router test.3mf(4)
G0 F9000 X15.636 Y23.449 ; [1081]
G0 X15.708 Y24.162 ; [1082]
G0 X24.516 Y24.334 ; [1083]
G0 X25.601 Y24.334 ; [1084]
G0 X29.271 Y24.334 ; [1085]
G0 X39.336 Y24.334 ; [1086]
; [1087] TYPE:WALL-INNER
G1 F1500 E92.45451 ; [1088]
G1 X39.336 Y15.534 E92.7472 ; [1089]
G1 X30.536 Y15.534 E93.03989 ; [1090]
G1 X30.536 Y24.334 E93.33258 ; [1091]
G1 X39.336 Y24.334 E93.62527 ; [1092]
G0 F9000 X39.736 Y24.734 ; [1093]
; [1094] TYPE:WALL-OUTER
G1 F1500 X39.736 Y15.134 E93.94457 ; [1095]
G1 X30.136 Y15.134 E94.26387 ; [1096]
G1 X30.136 Y24.734 E94.58316 ; [1097]
G1 X39.736 Y24.734 E94.90246 ; [1098]
G0 F9000 X39.466 Y24.464 ; [1099]
G0 X39.236 Y23.974 ; [1100]
G0 X38.976 Y23.974 ; [1101]
; [1102] TYPE:SKIN
G1 F1500 X38.976 Y15.894 E95.1712 ; [1103]
G1 X30.896 Y15.894 E95.43994 ; [1104]
G1 X30.896 Y23.974 E95.70869 ; [1105]
G1 X38.976 Y23.974 E95.97743 ; [1106]
G0 F9000 X39.236 Y23.974 ; [1107]
G0 X39.236 Y16.713 ; [1108]
G0 X38.775 Y16.713 ; [1109]
G1 F1500 X38.155 Y16.093 E96.00659 ; [1110]
G0 F9000 X37.589 Y16.093 ; [1111]
G1 F1500 X38.775 Y17.279 E96.06238 ; [1112]
G0 F9000 X38.775 Y17.845 ; [1113]
G1 F1500 X37.024 Y16.093 E96.14476 ; [1114]
G0 F9000 X36.458 Y16.093 ; [1115]
G1 F1500 X38.775 Y18.41 E96.25375 ; [1116]
G0 F9000 X38.775 Y18.976 ; [1117]
G1 F1500 X35.892 Y16.093 E96.38935 ; [1118]
G0 F9000 X35.327 Y16.093 ; [1119]
G1 F1500 X38.775 Y19.542 E96.55156 ; [1120]
G0 F9000 X38.775 Y20.107 ; [1121]
G1 F1500 X34.761 Y16.093 E96.74037 ; [1122]
G0 F9000 X34.195 Y16.093 ; [1123]
G1 F1500 X38.775 Y20.673 E96.9558 ; [1124]
G0 F9000 X38.775 Y21.239 ; [1125]
G1 F1500 X33.629 Y16.093 E97.19785 ; [1126]
G0 F9000 X33.064 Y16.093 ; [1127]
G1 F1500 X38.775 Y21.805 E97.4665 ; [1128]
G0 F9000 X38.775 Y22.37 ; [1129]
G1 F1500 X32.498 Y16.093 E97.76175 ; [1130]
G0 F9000 X31.932 Y16.093 ; [1131]
G1 F1500 X38.775 Y22.936 E98.08362 ; [1132]
G0 F9000 X38.775 Y23.502 ; [1133]
G1 F1500 X31.367 Y16.093 E98.4321 ; [1134]
G0 F9000 X31.095 Y16.387 ; [1135]
G1 F1500 X38.481 Y23.773 E98.77951 ; [1136]
G0 F9000 X37.915 Y23.773 ; [1137]
G1 F1500 X31.095 Y16.952 E99.10033 ; [1138]
G0 F9000 X31.095 Y17.518 ; [1139]
G1 F1500 X37.35 Y23.773 E99.39454 ; [1140]
G0 F9000 X36.784 Y23.773 ; [1141]
G1 F1500 X31.095 Y18.084 E99.66214 ; [1142]
G0 F9000 X31.095 Y18.649 ; [1143]
G1 F1500 X36.218 Y23.773 E99.90313 ; [1144]
G0 F9000 X35.653 Y23.773 ; [1145]
G1 F1500 X31.095 Y19.215 E100.11753 ; [1146]
G0 F9000 X31.095 Y19.781 ; [1147]
G1 F1500 X35.087 Y23.773 E100.3053 ; [1148]
G0 F9000 X34.521 Y23.773 ; [1149]
G1 F1500 X31.095 Y20.346 E100.46647 ; [1150]
G0 F9000 X31.095 Y20.912 ; [1151]
G1 F1500 X33.955 Y23.773 E100.60102 ; [1152]
G0 F9000 X33.39 Y23.773 ; [1153]
G1 F1500 X31.095 Y21.478 E100.70897 ; [1154]
G0 F9000 X31.095 Y22.044 ; [1155]
G1 F1500 X32.824 Y23.773 E100.79029 ; [1156]
G0 F9000 X32.258 Y23.773 ; [1157]
G1 F1500 X31.095 Y22.609 E100.84502 ; [1158]
G0 F9000 X31.095 Y23.175 ; [1159]
G1 F1500 X31.693 Y23.773 E100.87315 ; [1160]
G1 F1500 E94.37315 ; [1161]
; [1162] MESH:Router test.3mf(2)
G0 F9000 X31.693 Y24.234 ; [1163]
G0 X39.336 Y24.514 ; [1164]
G0 X39.336 Y25.599 ; [1165]
G0 X39.336 Y29.269 ; [1166]
G0 X39.336 Y39.334 ; [1167]
; [1168] TYPE:WALL-INNER
G1 F1500 E100.87315 ; [1169]
G1 X39.336 Y30.534 E101.16584 ; [1170]
G1 X30.536 Y30.534 E101.45853 ; [1171]
G1 X30.536 Y39.334 E101.75122 ; [1172]
G1 X39.336 Y39.334 E102.04391 ; [1173]
G0 F9000 X39.736 Y39.734 ; [1174]
; [1175] TYPE:WALL-OUTER
G1 F1500 X39.736 Y30.134 E102.3632 ; [1176]
G1 X30.136 Y30.134 E102.6825 ; [1177]
G1 X30.136 Y39.734 E103.0018 ; [1178]
G1 X39.736 Y39.734 E103.3211 ; [1179]
G0 F9000 X39.466 Y39.464 ; [1180]
G0 X39.236 Y38.974 ; [1181]
G0 X38.976 Y38.974 ; [1182]
; [1183] TYPE:SKIN
G1 F1500 X38.976 Y30.894 E103.58984 ; [1184]
G1 X30.896 Y30.894 E103.85858 ; [1185]
G1 X30.896 Y38.974 E104.12732 ; [1186]
G1 X38.976 Y38.974 E104.39606 ; [1187]
G0 F9000 X39.236 Y38.974 ; [1188]
G0 X39.236 Y31.421 ; [1189]
G0 X38.775 Y31.421 ; [1190]
G1 F1500 X38.448 Y31.094 E104.41144 ; [1191]
G0 F9000 X37.882 Y31.094 ; [1192]
G1 F1500 X38.775 Y31.987 E104.45345 ; [1193]
G0 F9000 X38.775 Y32.553 ; [1194]
G1 F1500 X37.316 Y31.094 E104.52208 ; [1195]
G0 F9000 X36.751 Y31.094 ; [1196]
G1 F1500 X38.775 Y33.118 E104.61728 ; [1197]
G0 F9000 X38.775 Y33.684 ; [1198]
G1 F1500 X36.185 Y31.094 E104.7391 ; [1199]
G0 F9000 X35.619 Y31.094 ; [1200]
G1 F1500 X38.775 Y34.25 E104.88755 ; [1201]
G0 F9000 X38.775 Y34.815 ; [1202]
G1 F1500 X35.054 Y31.094 E105.06258 ; [1203]
G0 F9000 X34.488 Y31.094 ; [1204]
G1 F1500 X38.775 Y35.381 E105.26422 ; [1205]
G0 F9000 X38.775 Y35.947 ; [1206]
G1 F1500 X33.922 Y31.094 E105.49249 ; [1207]
G0 F9000 X33.357 Y31.094 ; [1208]
G1 F1500 X38.775 Y36.512 E105.74734 ; [1209]
G0 F9000 X38.775 Y37.078 ; [1210]
G1 F1500 X32.791 Y31.094 E106.02881 ; [1211]
G0 F9000 X32.225 Y31.094 ; [1212]
G1 F1500 X38.775 Y37.644 E106.3369 ; [1213]
G0 F9000 X38.775 Y38.209 ; [1214]
G1 F1500 X31.659 Y31.094 E106.67159 ; [1215]
G0 F9000 X31.095 Y31.095 ; [1216]
G1 F1500 X38.773 Y38.773 E107.03274 ; [1217]
G0 F9000 X38.207 Y38.773 ; [1218]
G1 F1500 X31.095 Y31.66 E107.36729 ; [1219]
G0 F9000 X31.095 Y32.226 ; [1220]
G1 F1500 X37.642 Y38.773 E107.67524 ; [1221]
G0 F9000 X37.076 Y38.773 ; [1222]
G1 F1500 X31.095 Y32.792 E107.95657 ; [1223]
G0 F9000 X31.095 Y33.357 ; [1224]
G1 F1500 X36.51 Y38.773 E108.2113 ; [1225]
G0 F9000 X35.945 Y38.773 ; [1226]
G1 F1500 X31.095 Y33.923 E108.43943 ; [1227]
G0 F9000 X31.095 Y34.489 ; [1228]
G1 F1500 X35.379 Y38.773 E108.64094 ; [1229]
G0 F9000 X34.813 Y38.773 ; [1230]
G1 F1500 X31.095 Y35.054 E108.81584 ; [1231]
G0 F9000 X31.095 Y35.62 ; [1232]
G1 F1500 X34.248 Y38.773 E108.96415 ; [1233]
G0 F9000 X33.682 Y38.773 ; [1234]
G1 F1500 X31.095 Y36.186 E109.08583 ; [1235]
G0 F9000 X31.095 Y36.751 ; [1236]
G1 F1500 X33.116 Y38.773 E109.18092 ; [1237]
G0 F9000 X32.55 Y38.773 ; [1238]
G1 F1500 X31.095 Y37.317 E109.24938 ; [1239]
G0 F9000 X31.095 Y37.883 ; [1240]
G1 F1500 X31.985 Y38.773 E109.29124 ; [1241]
G0 F9000 X31.419 Y38.773 ; [1242]
G1 F1500 X31.095 Y38.448 E109.30651 ; [1243]
G1 F1500 E102.80651 ; [1244]
; [1245] MESH:Router test.3mf(1)
G0 F9000 X30.636 Y38.448 ; [1246]
G0 X30.356 Y39.334 ; [1247]
G0 X29.271 Y39.334 ; [1248]
G0 X25.601 Y39.334 ; [1249]
G0 X24.336 Y39.334 ; [1250]
; [1251] TYPE:WALL-INNER
G1 F1500 E109.30651 ; [1252]
G1 X24.336 Y30.534 E109.5992 ; [1253]
G1 X15.536 Y30.534 E109.89189 ; [1254]
G1 X15.536 Y39.334 E110.18458 ; [1255]
G1 X24.336 Y39.334 E110.47726 ; [1256]
G0 F9000 X24.736 Y39.734 ; [1257]
; [1258] TYPE:WALL-OUTER
G1 F1500 X24.736 Y30.134 E110.79656 ; [1259]
G1 X15.136 Y30.134 E111.11586 ; [1260]
G1 X15.136 Y39.734 E111.43516 ; [1261]
G1 X24.736 Y39.734 E111.75445 ; [1262]
G0 F9000 X24.466 Y39.464 ; [1263]
G0 X24.236 Y38.974 ; [1264]
G0 X23.976 Y38.974 ; [1265]
; [1266] TYPE:SKIN
G1 F1500 X23.976 Y30.894 E112.0232 ; [1267]
G1 X15.896 Y30.894 E112.29194 ; [1268]
G1 X15.896 Y38.974 E112.56068 ; [1269]
G1 X23.976 Y38.974 E112.82942 ; [1270]
G0 F9000 X24.236 Y38.974 ; [1271]
G0 X24.236 Y31.695 ; [1272]
G0 X23.775 Y31.695 ; [1273]
G1 F1500 X23.174 Y31.093 E112.85771 ; [1274]
G0 F9000 X22.608 Y31.093 ; [1275]
G1 F1500 X23.775 Y32.261 E112.91263 ; [1276]
G0 F9000 X23.775 Y32.826 ; [1277]
G1 F1500 X22.042 Y31.093 E112.99414 ; [1278]
G0 F9000 X21.476 Y31.093 ; [1279]
G1 F1500 X23.775 Y33.392 E113.10228 ; [1280]
G0 F9000 X23.775 Y33.958 ; [1281]
G1 F1500 X20.911 Y31.093 E113.23702 ; [1282]
G0 F9000 X20.345 Y31.093 ; [1283]
G1 F1500 X23.775 Y34.523 E113.39836 ; [1284]
G0 F9000 X23.775 Y35.089 ; [1285]
G1 F1500 X19.779 Y31.093 E113.58632 ; [1286]
G0 F9000 X19.214 Y31.093 ; [1287]
G1 F1500 X23.775 Y35.655 E113.80088 ; [1288]
G0 F9000 X23.775 Y36.22 ; [1289]
G1 F1500 X18.648 Y31.093 E114.04203 ; [1290]
G0 F9000 X18.082 Y31.093 ; [1291]
G1 F1500 X23.775 Y36.786 E114.30981 ; [1292]
G0 F9000 X23.775 Y37.352 ; [1293]
G1 F1500 X17.517 Y31.093 E114.6042 ; [1294]
G0 F9000 X16.951 Y31.093 ; [1295]
G1 F1500 X23.775 Y37.917 E114.92518 ; [1296]
G0 F9000 X23.775 Y38.483 ; [1297]
G1 F1500 X16.385 Y31.093 E115.27278 ; [1298]
G0 F9000 X16.095 Y31.369 ; [1299]
G1 F1500 X23.499 Y38.772 E115.62102 ; [1300]
G0 F9000 X22.933 Y38.772 ; [1301]
G1 F1500 X16.095 Y31.935 E115.94263 ; [1302]
G0 F9000 X16.095 Y32.5 ; [1303]
G1 F1500 X22.367 Y38.772 E116.23765 ; [1304]
G0 F9000 X21.802 Y38.772 ; [1305]
G1 F1500 X16.095 Y33.066 E116.50606 ; [1306]
G0 F9000 X16.095 Y33.632 ; [1307]
G1 F1500 X21.236 Y38.772 E116.74786 ; [1308]
G0 F9000 X20.67 Y38.772 ; [1309]
G1 F1500 X16.095 Y34.197 E116.96305 ; [1310]
G0 F9000 X16.095 Y34.763 ; [1311]
G1 F1500 X20.105 Y38.772 E117.15165 ; [1312]
G0 F9000 X19.539 Y38.772 ; [1313]
G1 F1500 X16.095 Y35.329 E117.31362 ; [1314]
G0 F9000 X16.095 Y35.894 ; [1315]
G1 F1500 X18.973 Y38.772 E117.44899 ; [1316]
G0 F9000 X18.408 Y38.772 ; [1317]
G1 F1500 X16.095 Y36.46 E117.55776 ; [1318]
G0 F9000 X16.095 Y37.026 ; [1319]
G1 F1500 X17.842 Y38.772 E117.63991 ; [1320]
G0 F9000 X17.276 Y38.772 ; [1321]
G1 F1500 X16.095 Y37.591 E117.69546 ; [1322]
G0 F9000 X16.095 Y38.157 ; [1323]
G1 F1500 X16.711 Y38.772 E117.72441 ; [1324]
G1 F1500 E111.22441 ; [1325]
; [1326] MESH:NONMESH
;  ====== End layer 2 ====
;  ==== Start layer 3 ====
;  Step 0 (0 lines): Move thread to avoid layer extents -------------------------
;  Layer postamble ------
G0 F300 X16.711 Y38.772 Z0.8 ; [1327]
G0 F9000 X16.711 Y39.234 ; [1328]
G0 X24.164 Y39.162 ; [1329]
G0 X24.336 Y30.354 ; [1330]
G0 X24.336 Y29.269 ; [1331]
G0 X24.336 Y25.599 ; [1332]
G0 X24.336 Y24.334 ; [1333]
; [1334] TIME_ELAPSED:211.219714
; [1335] LAYER:3
M106 S255 ; [1336]
; [1337] TYPE:WALL-INNER
; [1338] MESH:Router test.3mf(3)
G1 F1500 E117.72441 ; [1339]
G1 X24.336 Y15.534 E118.0171 ; [1340]
G1 X15.536 Y15.534 E118.30979 ; [1341]
G1 X15.536 Y24.334 E118.60248 ; [1342]
G1 X24.336 Y24.334 E118.89517 ; [1343]
G0 F9000 X24.736 Y24.734 ; [1344]
; [1345] TYPE:WALL-OUTER
G1 F1500 X24.736 Y15.134 E119.21447 ; [1346]
G1 X15.136 Y15.134 E119.53377 ; [1347]
G1 X15.136 Y24.734 E119.85306 ; [1348]
G1 X24.736 Y24.734 E120.17236 ; [1349]
G0 F9000 X24.466 Y24.464 ; [1350]
G0 X24.236 Y23.974 ; [1351]
G0 X23.976 Y23.974 ; [1352]
; [1353] TYPE:SKIN
G1 F1500 X23.976 Y15.894 E120.4411 ; [1354]
G1 X15.896 Y15.894 E120.70984 ; [1355]
G1 X15.896 Y23.974 E120.97859 ; [1356]
G1 X23.976 Y23.974 E121.24733 ; [1357]
G0 F9000 X23.178 Y23.773 ; [1358]
G1 F1500 X23.775 Y23.176 E121.27541 ; [1359]
G0 F9000 X23.775 Y22.611 ; [1360]
G1 F1500 X22.612 Y23.773 E121.33009 ; [1361]
G0 F9000 X22.046 Y23.773 ; [1362]
G1 F1500 X23.775 Y22.045 E121.41139 ; [1363]
G0 F9000 X23.775 Y21.479 ; [1364]
G1 F1500 X21.481 Y23.773 E121.5193 ; [1365]
G0 F9000 X20.915 Y23.773 ; [1366]
G1 F1500 X23.775 Y20.914 E121.6538 ; [1367]
G0 F9000 X23.775 Y20.348 ; [1368]
G1 F1500 X20.349 Y23.773 E121.81492 ; [1369]
G0 F9000 X19.784 Y23.773 ; [1370]
G1 F1500 X23.775 Y19.782 E122.00265 ; [1371]
G0 F9000 X23.775 Y19.217 ; [1372]
G1 F1500 X19.218 Y23.773 E122.21697 ; [1373]
G0 F9000 X18.652 Y23.773 ; [1374]
G1 F1500 X23.775 Y18.651 E122.45792 ; [1375]
G0 F9000 X23.775 Y18.085 ; [1376]
G1 F1500 X18.087 Y23.773 E122.72546 ; [1377]
G0 F9000 X17.521 Y23.773 ; [1378]
G1 F1500 X23.775 Y17.519 E123.01963 ; [1379]
G0 F9000 X23.775 Y16.954 ; [1380]
G1 F1500 X16.955 Y23.773 E123.3404 ; [1381]
G0 F9000 X16.39 Y23.773 ; [1382]
G1 F1500 X23.775 Y16.388 E123.68777 ; [1383]
G0 F9000 X23.504 Y16.093 ; [1384]
G1 F1500 X16.095 Y23.502 E124.03627 ; [1385]
G0 F9000 X16.095 Y22.936 ; [1386]
G1 F1500 X22.938 Y16.093 E124.35814 ; [1387]
G0 F9000 X22.372 Y16.093 ; [1388]
G1 F1500 X16.095 Y22.37 E124.65339 ; [1389]
G0 F9000 X16.095 Y21.805 ; [1390]
G1 F1500 X21.807 Y16.093 E124.92206 ; [1391]
G0 F9000 X21.241 Y16.093 ; [1392]
G1 F1500 X16.095 Y21.239 E125.16412 ; [1393]
G0 F9000 X16.095 Y20.673 ; [1394]
G1 F1500 X20.675 Y16.093 E125.37955 ; [1395]
G0 F9000 X20.11 Y16.093 ; [1396]
G1 F1500 X16.095 Y20.107 E125.56838 ; [1397]
G0 F9000 X16.095 Y19.542 ; [1398]
G1 F1500 X19.544 Y16.093 E125.73061 ; [1399]
G0 F9000 X18.978 Y16.093 ; [1400]
G1 F1500 X16.095 Y18.976 E125.86621 ; [1401]
G0 F9000 X16.095 Y18.41 ; [1402]
G1 F1500 X18.413 Y16.093 E125.97522 ; [1403]
G0 F9000 X17.847 Y16.093 ; [1404]
G1 F1500 X16.095 Y17.845 E126.05763 ; [1405]
G0 F9000 X16.095 Y17.279 ; [1406]
G1 F1500 X17.281 Y16.093 E126.11342 ; [1407]
G0 F9000 X16.716 Y16.093 ; [1408]
G1 F1500 X16.095 Y16.713 E126.1426 ; [1409]
G1 F1500 E119.6426 ; [1410]
; [1411] MESH:Router test.3mf(4)
G0 F9000 X15.636 Y16.713 ; [1412]
G0 X15.708 Y24.162 ; [1413]
G0 X24.516 Y24.334 ; [1414]
G0 X25.601 Y24.334 ; [1415]
G0 X29.271 Y24.334 ; [1416]
G0 X39.336 Y24.334 ; [1417]
; [1418] TYPE:WALL-INNER
G1 F1500 E126.1426 ; [1419]
G1 X39.336 Y15.534 E126.43529 ; [1420]
G1 X30.536 Y15.534 E126.72798 ; [1421]
G1 X30.536 Y24.334 E127.02067 ; [1422]
G1 X39.336 Y24.334 E127.31336 ; [1423]
G0 F9000 X39.736 Y24.734 ; [1424]
; [1425] TYPE:WALL-OUTER
G1 F1500 X39.736 Y15.134 E127.63266 ; [1426]
G1 X30.136 Y15.134 E127.95195 ; [1427]
G1 X30.136 Y24.734 E128.27125 ; [1428]
G1 X39.736 Y24.734 E128.59055 ; [1429]
G0 F9000 X39.466 Y24.464 ; [1430]
G0 X39.236 Y23.974 ; [1431]
G0 X38.976 Y23.974 ; [1432]
; [1433] TYPE:SKIN
G1 F1500 X38.976 Y15.894 E128.85929 ; [1434]
G1 X30.896 Y15.894 E129.12803 ; [1435]
G1 X30.896 Y23.974 E129.39677 ; [1436]
G1 X38.976 Y23.974 E129.66552 ; [1437]
G0 F9000 X38.774 Y23.45 ; [1438]
G1 F1500 X38.451 Y23.773 E129.68071 ; [1439]
G0 F9000 X37.886 Y23.773 ; [1440]
G1 F1500 X38.774 Y22.884 E129.7225 ; [1441]
G0 F9000 X38.774 Y22.319 ; [1442]
G1 F1500 X37.32 Y23.773 E129.79089 ; [1443]
G0 F9000 X36.754 Y23.773 ; [1444]
G1 F1500 X38.774 Y21.753 E129.88591 ; [1445]
G0 F9000 X38.774 Y21.187 ; [1446]
G1 F1500 X36.189 Y23.773 E130.00752 ; [1447]
G0 F9000 X35.623 Y23.773 ; [1448]
G1 F1500 X38.774 Y20.622 E130.15573 ; [1449]
G0 F9000 X38.774 Y20.056 ; [1450]
G1 F1500 X35.057 Y23.773 E130.33057 ; [1451]
G0 F9000 X34.491 Y23.773 ; [1452]
G1 F1500 X38.774 Y19.49 E130.53203 ; [1453]
G0 F9000 X38.774 Y18.925 ; [1454]
G1 F1500 X33.926 Y23.773 E130.76007 ; [1455]
G0 F9000 X33.36 Y23.773 ; [1456]
G1 F1500 X38.774 Y18.359 E131.01472 ; [1457]
G0 F9000 X38.774 Y17.793 ; [1458]
G1 F1500 X32.794 Y23.773 E131.296 ; [1459]
G0 F9000 X32.229 Y23.773 ; [1460]
G1 F1500 X38.774 Y17.227 E131.60388 ; [1461]
G0 F9000 X38.774 Y16.662 ; [1462]
G1 F1500 X31.663 Y23.773 E131.93836 ; [1463]
G0 F9000 X31.097 Y23.773 ; [1464]
G1 F1500 X38.774 Y16.096 E132.29947 ; [1465]
G0 F9000 X38.212 Y16.093 ; [1466]
G1 F1500 X31.095 Y23.21 E132.63423 ; [1467]
G0 F9000 X31.095 Y22.644 ; [1468]
G1 F1500 X37.646 Y16.093 E132.94237 ; [1469]
G0 F9000 X37.08 Y16.093 ; [1470]
G1 F1500 X31.095 Y22.078 E133.22388 ; [1471]
G0 F9000 X31.095 Y21.513 ; [1472]
G1 F1500 X36.514 Y16.093 E133.4788 ; [1473]
G0 F9000 X35.949 Y16.093 ; [1474]
G1 F1500 X31.095 Y20.947 E133.70712 ; [1475]
G0 F9000 X31.095 Y20.381 ; [1476]
G1 F1500 X35.383 Y16.093 E133.90881 ; [1477]
G0 F9000 X34.817 Y16.093 ; [1478]
G1 F1500 X31.095 Y19.815 E134.08388 ; [1479]
G0 F9000 X31.095 Y19.25 ; [1480]
G1 F1500 X34.252 Y16.093 E134.23238 ; [1481]
G0 F9000 X33.686 Y16.093 ; [1482]
G1 F1500 X31.095 Y18.684 E134.35425 ; [1483]
G0 F9000 X31.095 Y18.118 ; [1484]
G1 F1500 X33.12 Y16.093 E134.4495 ; [1485]
G0 F9000 X32.555 Y16.093 ; [1486]
G1 F1500 X31.095 Y17.553 E134.51818 ; [1487]
G0 F9000 X31.095 Y16.987 ; [1488]
G1 F1500 X31.989 Y16.093 E134.56023 ; [1489]
G0 F9000 X31.423 Y16.093 ; [1490]
G1 F1500 X31.095 Y16.421 E134.57565 ; [1491]
G1 F1500 E128.07565 ; [1492]
; [1493] MESH:Router test.3mf(2)
G0 F9000 X30.636 Y16.421 ; [1494]
G0 X30.708 Y24.162 ; [1495]
G0 X39.336 Y24.514 ; [1496]
G0 X39.336 Y25.599 ; [1497]
G0 X39.336 Y29.269 ; [1498]
G0 X39.336 Y39.334 ; [1499]
; [1500] TYPE:WALL-INNER
G1 F1500 E134.57565 ; [1501]
G1 X39.336 Y30.534 E134.86834 ; [1502]
G1 X30.536 Y30.534 E135.16103 ; [1503]
G1 X30.536 Y39.334 E135.45372 ; [1504]
G1 X39.336 Y39.334 E135.74641 ; [1505]
G0 F9000 X39.736 Y39.734 ; [1506]
; [1507] TYPE:WALL-OUTER
G1 F1500 X39.736 Y30.134 E136.06571 ; [1508]
G1 X30.136 Y30.134 E136.38501 ; [1509]
G1 X30.136 Y39.734 E136.7043 ; [1510]
G1 X39.736 Y39.734 E137.0236 ; [1511]
G0 F9000 X39.466 Y39.464 ; [1512]
G0 X39.236 Y38.974 ; [1513]
G0 X38.976 Y38.974 ; [1514]
; [1515] TYPE:SKIN
G1 F1500 X38.976 Y30.894 E137.29234 ; [1516]
G1 X30.896 Y30.894 E137.56108 ; [1517]
G1 X30.896 Y38.974 E137.82983 ; [1518]
G1 X38.976 Y38.974 E138.09857 ; [1519]
G0 F9000 X38.774 Y38.158 ; [1520]
G1 F1500 X38.159 Y38.774 E138.12752 ; [1521]
G0 F9000 X37.593 Y38.774 ; [1522]
G1 F1500 X38.774 Y37.592 E138.18309 ; [1523]
G0 F9000 X38.774 Y37.026 ; [1524]
G1 F1500 X37.027 Y38.774 E138.26529 ; [1525]
G0 F9000 X36.461 Y38.774 ; [1526]
G1 F1500 X38.774 Y36.461 E138.37409 ; [1527]
G0 F9000 X38.774 Y35.895 ; [1528]
G1 F1500 X35.896 Y38.774 E138.50948 ; [1529]
G0 F9000 X35.33 Y38.774 ; [1530]
G1 F1500 X38.774 Y35.329 E138.6715 ; [1531]
G0 F9000 X38.774 Y34.764 ; [1532]
G1 F1500 X34.764 Y38.774 E138.86012 ; [1533]
G0 F9000 X34.199 Y38.774 ; [1534]
G1 F1500 X38.774 Y34.198 E139.07534 ; [1535]
G0 F9000 X38.774 Y33.632 ; [1536]
G1 F1500 X33.633 Y38.774 E139.31718 ; [1537]
G0 F9000 X33.067 Y38.774 ; [1538]
G1 F1500 X38.774 Y33.067 E139.58562 ; [1539]
G0 F9000 X38.774 Y32.501 ; [1540]
G1 F1500 X32.502 Y38.774 E139.88066 ; [1541]
G0 F9000 X31.936 Y38.774 ; [1542]
G1 F1500 X38.774 Y31.935 E140.20232 ; [1543]
G0 F9000 X38.774 Y31.37 ; [1544]
G1 F1500 X31.37 Y38.774 E140.55058 ; [1545]
G0 F9000 X31.095 Y38.483 ; [1546]
G1 F1500 X38.485 Y31.093 E140.89818 ; [1547]
G0 F9000 X37.92 Y31.093 ; [1548]
G1 F1500 X31.095 Y37.917 E141.21919 ; [1549]
G0 F9000 X31.095 Y37.352 ; [1550]
G1 F1500 X37.354 Y31.093 E141.51359 ; [1551]
G0 F9000 X36.788 Y31.093 ; [1552]
G1 F1500 X31.095 Y36.786 E141.78137 ; [1553]
G0 F9000 X31.095 Y36.22 ; [1554]
G1 F1500 X36.222 Y31.093 E142.02253 ; [1555]
G0 F9000 X35.657 Y31.093 ; [1556]
G1 F1500 X31.095 Y35.655 E142.23711 ; [1557]
G0 F9000 X31.095 Y35.089 ; [1558]
G1 F1500 X35.091 Y31.093 E142.42507 ; [1559]
G0 F9000 X34.525 Y31.093 ; [1560]
G1 F1500 X31.095 Y34.523 E142.58641 ; [1561]
G0 F9000 X31.095 Y33.958 ; [1562]
G1 F1500 X33.96 Y31.093 E142.72117 ; [1563]
G0 F9000 X33.394 Y31.093 ; [1564]
G1 F1500 X31.095 Y33.392 E142.82931 ; [1565]
G0 F9000 X31.095 Y32.826 ; [1566]
G1 F1500 X32.828 Y31.093 E142.91082 ; [1567]
G0 F9000 X32.263 Y31.093 ; [1568]
G1 F1500 X31.095 Y32.261 E142.96576 ; [1569]
G0 F9000 X31.095 Y31.695 ; [1570]
G1 F1500 X31.697 Y31.093 E142.99408 ; [1571]
G1 F1500 E136.49408 ; [1572]
; [1573] MESH:Router test.3mf(1)
G0 F9000 X31.697 Y30.634 ; [1574]
G0 X30.708 Y30.706 ; [1575]
G0 X30.356 Y39.334 ; [1576]
G0 X29.271 Y39.334 ; [1577]
G0 X25.601 Y39.334 ; [1578]
G0 X24.336 Y39.334 ; [1579]
; [1580] TYPE:WALL-INNER
G1 F1500 E142.99408 ; [1581]
G1 X24.336 Y30.534 E143.28677 ; [1582]
G1 X15.536 Y30.534 E143.57946 ; [1583]
G1 X15.536 Y39.334 E143.87215 ; [1584]
G1 X24.336 Y39.334 E144.16483 ; [1585]
G0 F9000 X24.736 Y39.734 ; [1586]
; [1587] TYPE:WALL-OUTER
G1 F1500 X24.736 Y30.134 E144.48413 ; [1588]
G1 X15.136 Y30.134 E144.80343 ; [1589]
G1 X15.136 Y39.734 E145.12273 ; [1590]
G1 X24.736 Y39.734 E145.44202 ; [1591]
G0 F9000 X24.466 Y39.464 ; [1592]
G0 X24.236 Y38.974 ; [1593]
G0 X23.976 Y38.974 ; [1594]
; [1595] TYPE:SKIN
G1 F1500 X23.976 Y30.894 E145.71077 ; [1596]
G1 X15.896 Y30.894 E145.97951 ; [1597]
G1 X15.896 Y38.974 E146.24825 ; [1598]
G1 X23.976 Y38.974 E146.51699 ; [1599]
G0 F9000 X23.451 Y38.773 ; [1600]
G1 F1500 X23.775 Y38.449 E146.53223 ; [1601]
G0 F9000 X23.775 Y37.883 ; [1602]
G1 F1500 X22.886 Y38.773 E146.57407 ; [1603]
G0 F9000 X22.32 Y38.773 ; [1604]
G1 F1500 X23.775 Y37.318 E146.64251 ; [1605]
G0 F9000 X23.775 Y36.752 ; [1606]
G1 F1500 X21.754 Y38.773 E146.73757 ; [1607]
G0 F9000 X21.189 Y38.773 ; [1608]
G1 F1500 X23.775 Y36.186 E146.85923 ; [1609]
G0 F9000 X23.775 Y35.621 ; [1610]
G1 F1500 X20.623 Y38.773 E147.00749 ; [1611]
G0 F9000 X20.057 Y38.773 ; [1612]
G1 F1500 X23.775 Y35.055 E147.18238 ; [1613]
G0 F9000 X23.775 Y34.489 ; [1614]
G1 F1500 X19.492 Y38.773 E147.38386 ; [1615]
G0 F9000 X18.926 Y38.773 ; [1616]
G1 F1500 X23.775 Y33.924 E147.61194 ; [1617]
G0 F9000 X23.775 Y33.358 ; [1618]
G1 F1500 X18.36 Y38.773 E147.86665 ; [1619]
G0 F9000 X17.795 Y38.773 ; [1620]
G1 F1500 X23.775 Y32.792 E148.14795 ; [1621]
G0 F9000 X23.775 Y32.227 ; [1622]
G1 F1500 X17.229 Y38.773 E148.45585 ; [1623]
G0 F9000 X16.663 Y38.773 ; [1624]
G1 F1500 X23.775 Y31.661 E148.79038 ; [1625]
G0 F9000 X23.775 Y31.095 ; [1626]
G1 F1500 X16.097 Y38.773 E149.15153 ; [1627]
G0 F9000 X16.095 Y38.209 ; [1628]
G1 F1500 X23.212 Y31.092 E149.48629 ; [1629]
G0 F9000 X22.647 Y31.092 ; [1630]
G1 F1500 X16.095 Y37.644 E149.79448 ; [1631]
G0 F9000 X16.095 Y37.078 ; [1632]
G1 F1500 X22.081 Y31.092 E150.07604 ; [1633]
G0 F9000 X21.515 Y31.092 ; [1634]
G1 F1500 X16.095 Y36.512 E150.33098 ; [1635]
G0 F9000 X16.095 Y35.947 ; [1636]
G1 F1500 X20.95 Y31.092 E150.55935 ; [1637]
G0 F9000 X20.384 Y31.092 ; [1638]
G1 F1500 X16.095 Y35.381 E150.76109 ; [1639]
G0 F9000 X16.095 Y34.815 ; [1640]
G1 F1500 X19.818 Y31.092 E150.93621 ; [1641]
G0 F9000 X19.253 Y31.092 ; [1642]
G1 F1500 X16.095 Y34.25 E151.08475 ; [1643]
G0 F9000 X16.095 Y33.684 ; [1644]
G1 F1500 X18.687 Y31.092 E151.20667 ; [1645]
G0 F9000 X18.121 Y31.092 ; [1646]
G1 F1500 X16.095 Y33.118 E151.30196 ; [1647]
G0 F9000 X16.095 Y32.553 ; [1648]
G1 F1500 X17.556 Y31.092 E151.37069 ; [1649]
G0 F9000 X16.99 Y31.092 ; [1650]
G1 F1500 X16.095 Y31.987 E151.41278 ; [1651]
G0 F9000 X16.095 Y31.421 ; [1652]
G1 F1500 X16.424 Y31.092 E151.42826 ; [1653]
G1 F1500 E144.92826 ; [1654]
; [1655] MESH:NONMESH
;  ====== End layer 3 ====
;  ==== Start layer 4 ====
;  Step 0 (0 lines): Move thread to avoid layer extents -------------------------
;  Layer postamble ------
G0 F300 X16.424 Y31.092 Z1 ; [1656]
G0 F9000 X16.424 Y30.634 ; [1657]
G0 X24.336 Y30.354 ; [1658]
G0 X24.336 Y29.269 ; [1659]
G0 X24.336 Y25.599 ; [1660]
G0 X24.336 Y24.334 ; [1661]
; [1662] TIME_ELAPSED:267.034559
; [1663] LAYER:4
; [1664] TYPE:WALL-INNER
; [1665] MESH:Router test.3mf(3)
G1 F1500 E151.42826 ; [1666]
G1 X24.336 Y15.534 E151.72095 ; [1667]
G1 X15.536 Y15.534 E152.01364 ; [1668]
G1 X15.536 Y24.334 E152.30633 ; [1669]
G1 X24.336 Y24.334 E152.59902 ; [1670]
G0 F9000 X24.736 Y24.734 ; [1671]
; [1672] TYPE:WALL-OUTER
G1 F1500 X24.736 Y15.134 E152.91831 ; [1673]
G1 X15.136 Y15.134 E153.23761 ; [1674]
G1 X15.136 Y24.734 E153.55691 ; [1675]
G1 X24.736 Y24.734 E153.8762 ; [1676]
G0 F9000 X24.255 Y24.253 ; [1677]
; [1678] TYPE:FILL
G1 F3000 X15.615 Y15.613 E154.2826 ; [1679]
G0 F9000 X15.806 Y15.804 ; [1680]
G0 X15.836 Y17.465 ; [1681]
G0 X15.615 Y17.465 ; [1682]
G1 F3000 X17.467 Y15.613 E154.36972 ; [1683]
G0 F9000 X17.878 Y15.614 ; [1684]
G1 F3000 X24.255 Y21.991 E154.66967 ; [1685]
G0 F9000 X24.255 Y22.402 ; [1686]
G1 F3000 X22.403 Y24.253 E154.75676 ; [1687]
G0 F9000 X21.991 Y24.253 ; [1688]
G1 F3000 X15.615 Y17.876 E155.05669 ; [1689]
G0 F9000 X15.836 Y17.876 ; [1690]
G0 X15.836 Y19.728 ; [1691]
G0 X15.615 Y19.728 ; [1692]
G1 F3000 X19.73 Y15.613 E155.25025 ; [1693]
G0 F9000 X20.141 Y15.614 ; [1694]
G1 F3000 X24.255 Y19.728 E155.44376 ; [1695]
G0 F9000 X24.255 Y20.139 ; [1696]
G1 F3000 X20.141 Y24.253 E155.63727 ; [1697]
G0 F9000 X19.728 Y24.253 ; [1698]
G1 F3000 X15.615 Y20.139 E155.83075 ; [1699]
G0 F9000 X15.836 Y20.139 ; [1700]
G0 X15.836 Y21.99 ; [1701]
G0 X15.616 Y21.99 ; [1702]
G1 F3000 X21.993 Y15.613 E156.13071 ; [1703]
G0 F9000 X22.403 Y15.614 ; [1704]
G1 F3000 X24.255 Y17.465 E156.2178 ; [1705]
G0 F9000 X24.255 Y17.877 ; [1706]
G1 F3000 X17.878 Y24.253 E156.51773 ; [1707]
G0 F9000 X17.466 Y24.253 ; [1708]
G1 F3000 X15.615 Y22.402 E156.60479 ; [1709]
G0 F9000 X15.836 Y22.402 ; [1710]
G0 X15.806 Y24.064 ; [1711]
G0 X15.616 Y24.253 ; [1712]
G1 F3000 X24.255 Y15.614 E157.01115 ; [1713]
G0 F9000 X23.736 Y16.016 ; [1714]
G1 F1500 E150.51115 ; [1715]
; [1716] MESH:Router test.3mf(4)
G0 F9000 X24.516 Y24.064 ; [1717]
G0 X25.601 Y24.064 ; [1718]
G0 X29.271 Y24.064 ; [1719]
G0 X30.356 Y24.064 ; [1720]
G0 X39.066 Y24.064 ; [1721]
G1 F1500 E157.01115 ; [1722]
G0 F9000 X39.336 Y24.334 ; [1723]
; [1724] TYPE:WALL-INNER
G1 F1500 X39.336 Y15.534 E157.30384 ; [1725]
G1 X30.536 Y15.534 E157.59652 ; [1726]
G1 X30.536 Y24.334 E157.88921 ; [1727]
G1 X39.336 Y24.334 E158.1819 ; [1728]
G0 F9000 X39.736 Y24.734 ; [1729]
; [1730] TYPE:WALL-OUTER
G1 F1500 X39.736 Y15.134 E158.5012 ; [1731]
G1 X30.136 Y15.134 E158.8205 ; [1732]
G1 X30.136 Y24.734 E159.13979 ; [1733]
G1 X39.736 Y24.734 E159.45909 ; [1734]
G0 F9000 X39.255 Y24.253 ; [1735]
; [1736] TYPE:FILL
G1 F3000 X30.615 Y15.613 E159.86549 ; [1737]
G0 F9000 X30.806 Y15.804 ; [1738]
G0 X30.836 Y17.464 ; [1739]
G0 X30.615 Y17.464 ; [1740]
G1 F3000 X32.466 Y15.613 E159.95256 ; [1741]
G0 F9000 X32.878 Y15.613 ; [1742]
G1 F3000 X39.255 Y21.991 E160.25253 ; [1743]
G0 F9000 X39.255 Y22.401 ; [1744]
G1 F3000 X37.403 Y24.253 E160.33965 ; [1745]
G0 F9000 X36.992 Y24.253 ; [1746]
G1 F3000 X30.614 Y17.875 E160.63965 ; [1747]
G0 F9000 X30.836 Y17.875 ; [1748]
G0 X30.836 Y19.727 ; [1749]
G0 X30.615 Y19.727 ; [1750]
G1 F3000 X34.729 Y15.613 E160.83316 ; [1751]
G0 F9000 X35.141 Y15.613 ; [1752]
G1 F3000 X39.255 Y19.728 E161.02669 ; [1753]
G0 F9000 X39.255 Y20.139 ; [1754]
G1 F3000 X35.14 Y24.253 E161.22023 ; [1755]
G0 F9000 X34.73 Y24.253 ; [1756]
G1 F3000 X30.614 Y20.138 E161.41381 ; [1757]
G0 F9000 X30.836 Y20.138 ; [1758]
G0 X30.836 Y21.99 ; [1759]
G0 X30.615 Y21.99 ; [1760]
G1 F3000 X36.992 Y15.613 E161.71376 ; [1761]
G0 F9000 X37.403 Y15.613 ; [1762]
G1 F3000 X39.255 Y17.465 E161.80087 ; [1763]
G0 F9000 X39.255 Y17.876 ; [1764]
G1 F3000 X32.877 Y24.253 E162.10085 ; [1765]
G0 F9000 X32.467 Y24.253 ; [1766]
G1 F3000 X30.614 Y22.401 E162.18799 ; [1767]
G0 F9000 X30.836 Y22.401 ; [1768]
G0 X30.806 Y24.064 ; [1769]
G0 X30.614 Y24.253 ; [1770]
G1 F3000 X39.255 Y15.613 E162.59441 ; [1771]
G0 F9000 X38.736 Y16.016 ; [1772]
G1 F1500 E156.09441 ; [1773]
; [1774] MESH:Router test.3mf(2)
G0 F9000 X39.066 Y24.514 ; [1775]
G0 X39.066 Y25.599 ; [1776]
G0 X39.066 Y29.269 ; [1777]
G0 X39.066 Y30.354 ; [1778]
G0 X39.066 Y39.064 ; [1779]
G1 F1500 E162.59441 ; [1780]
G0 F9000 X39.336 Y39.334 ; [1781]
; [1782] TYPE:WALL-INNER
G1 F1500 X39.336 Y30.534 E162.8871 ; [1783]
G1 X30.536 Y30.534 E163.17979 ; [1784]
G1 X30.536 Y39.334 E163.47248 ; [1785]
G1 X39.336 Y39.334 E163.76517 ; [1786]
G0 F9000 X39.736 Y39.734 ; [1787]
; [1788] TYPE:WALL-OUTER
G1 F1500 X39.736 Y30.134 E164.08446 ; [1789]
G1 X30.136 Y30.134 E164.40376 ; [1790]
G1 X30.136 Y39.734 E164.72306 ; [1791]
G1 X39.736 Y39.734 E165.04236 ; [1792]
G0 F9000 X39.255 Y39.253 ; [1793]
; [1794] TYPE:FILL
G1 F3000 X30.615 Y30.614 E165.44873 ; [1795]
G0 F9000 X30.806 Y30.804 ; [1796]
G0 X30.836 Y32.464 ; [1797]
G0 X30.616 Y32.464 ; [1798]
G1 F3000 X32.466 Y30.614 E165.53575 ; [1799]
G0 F9000 X32.878 Y30.614 ; [1800]
G1 F3000 X39.255 Y36.99 E165.83568 ; [1801]
G0 F9000 X39.255 Y37.402 ; [1802]
G1 F3000 X37.403 Y39.253 E165.92277 ; [1803]
G0 F9000 X36.991 Y39.252 ; [1804]
G1 F3000 X30.615 Y32.876 E166.22268 ; [1805]
G0 F9000 X30.836 Y32.876 ; [1806]
G0 X30.836 Y34.727 ; [1807]
G0 X30.616 Y34.727 ; [1808]
G1 F3000 X34.729 Y30.614 E166.41614 ; [1809]
G0 F9000 X35.141 Y30.614 ; [1810]
G1 F3000 X39.255 Y34.728 E166.60965 ; [1811]
G0 F9000 X39.255 Y35.139 ; [1812]
G1 F3000 X35.141 Y39.253 E166.80316 ; [1813]
G0 F9000 X34.728 Y39.252 ; [1814]
G1 F3000 X30.615 Y35.139 E166.99662 ; [1815]
G0 F9000 X30.836 Y35.139 ; [1816]
G0 X30.836 Y36.99 ; [1817]
G0 X30.616 Y36.99 ; [1818]
G1 F3000 X36.992 Y30.614 E167.29653 ; [1819]
G0 F9000 X37.403 Y30.614 ; [1820]
G1 F3000 X39.255 Y32.465 E167.38362 ; [1821]
G0 F9000 X39.255 Y32.876 ; [1822]
G1 F3000 X32.878 Y39.253 E167.68357 ; [1823]
G0 F9000 X32.466 Y39.252 ; [1824]
G1 F3000 X30.615 Y37.402 E167.77062 ; [1825]
G0 F9000 X30.836 Y37.402 ; [1826]
G0 X30.806 Y39.064 ; [1827]
G0 X30.616 Y39.252 ; [1828]
G1 F3000 X39.255 Y30.614 E168.17694 ; [1829]
G0 F9000 X38.736 Y31.016 ; [1830]
G1 F1500 E161.67694 ; [1831]
; [1832] MESH:Router test.3mf(1)
G0 F9000 X30.356 Y39.064 ; [1833]
G0 X29.271 Y39.064 ; [1834]
G0 X25.601 Y39.064 ; [1835]
G0 X24.516 Y39.064 ; [1836]
G0 X24.066 Y39.064 ; [1837]
G1 F1500 E168.17694 ; [1838]
G0 F9000 X24.336 Y39.334 ; [1839]
; [1840] TYPE:WALL-INNER
G1 F1500 X24.336 Y30.534 E168.46963 ; [1841]
G1 X15.536 Y30.534 E168.76232 ; [1842]
G1 X15.536 Y39.334 E169.05501 ; [1843]
G1 X24.336 Y39.334 E169.3477 ; [1844]
G0 F9000 X24.736 Y39.734 ; [1845]
; [1846] TYPE:WALL-OUTER
G1 F1500 X24.736 Y30.134 E169.667 ; [1847]
G1 X15.136 Y30.134 E169.98629 ; [1848]
G1 X15.136 Y39.734 E170.30559 ; [1849]
G1 X24.736 Y39.734 E170.62489 ; [1850]
G0 F9000 X24.255 Y39.253 ; [1851]
; [1852] TYPE:FILL
G1 F3000 X15.615 Y30.613 E171.03129 ; [1853]
G0 F9000 X15.806 Y30.804 ; [1854]
G0 X15.836 Y32.464 ; [1855]
G0 X15.615 Y32.464 ; [1856]
G1 F3000 X17.467 Y30.612 E171.1184 ; [1857]
G0 F9000 X17.878 Y30.613 ; [1858]
G1 F3000 X24.255 Y36.99 E171.41836 ; [1859]
G0 F9000 X24.255 Y37.4 ; [1860]
G1 F3000 X22.403 Y39.253 E171.50549 ; [1861]
G0 F9000 X21.992 Y39.252 ; [1862]
G1 F3000 X15.615 Y32.876 E171.80542 ; [1863]
G0 F9000 X15.836 Y32.876 ; [1864]
G0 X15.836 Y34.727 ; [1865]
G0 X15.615 Y34.727 ; [1866]
G1 F3000 X19.73 Y30.612 E171.99898 ; [1867]
G0 F9000 X20.141 Y30.613 ; [1868]
G1 F3000 X24.255 Y34.728 E172.19251 ; [1869]
G0 F9000 X24.255 Y35.138 ; [1870]
G1 F3000 X20.14 Y39.253 E172.38607 ; [1871]
G0 F9000 X19.729 Y39.252 ; [1872]
G1 F3000 X15.615 Y35.138 E172.57958 ; [1873]
G0 F9000 X15.836 Y35.138 ; [1874]
G0 X15.836 Y36.99 ; [1875]
G0 X15.615 Y36.99 ; [1876]
G1 F3000 X21.993 Y30.612 E172.87958 ; [1877]
G0 F9000 X22.403 Y30.613 ; [1878]
G1 F3000 X24.255 Y32.465 E172.96669 ; [1879]
G0 F9000 X24.255 Y32.875 ; [1880]
G1 F3000 X17.877 Y39.253 E173.2667 ; [1881]
G0 F9000 X17.466 Y39.252 ; [1882]
G1 F3000 X15.615 Y37.401 E173.35376 ; [1883]
G0 F9000 X15.836 Y37.401 ; [1884]
G0 X15.806 Y39.064 ; [1885]
G0 X15.615 Y39.252 ; [1886]
G1 F3000 X24.255 Y30.612 E173.76016 ; [1887]
G0 F9000 X23.736 Y31.016 ; [1888]
G1 F1500 E167.26016 ; [1889]
; [1890] MESH:NONMESH
;  ====== End layer 4 ====
;  ==== Start layer 5 ====
;  Step 0 (0 lines): Move thread to avoid layer extents -------------------------
;  Layer postamble ------
G0 F300 X23.736 Y31.016 Z1.2 ; [1891]
G0 F9000 X24.066 Y30.354 ; [1892]
G0 X24.066 Y29.269 ; [1893]
G0 X24.066 Y25.599 ; [1894]
G0 X24.066 Y24.514 ; [1895]
G0 X24.066 Y24.064 ; [1896]
G1 F1500 E173.76016 ; [1897]
G0 F9000 X24.336 Y24.334 ; [1898]
; [1899] TIME_ELAPSED:299.845550
; [1900] LAYER:5
; [1901] TYPE:WALL-INNER
; [1902] MESH:Router test.3mf(3)
G1 F1500 X24.336 Y15.534 E174.05285 ; [1903]
G1 X15.536 Y15.534 E174.34554 ; [1904]
G1 X15.536 Y24.334 E174.63823 ; [1905]
G1 X24.336 Y24.334 E174.93092 ; [1906]
G0 F9000 X24.736 Y24.734 ; [1907]
; [1908] TYPE:WALL-OUTER
G1 F1500 X24.736 Y15.134 E175.25021 ; [1909]
G1 X15.136 Y15.134 E175.56951 ; [1910]
G1 X15.136 Y24.734 E175.88881 ; [1911]
G1 X24.736 Y24.734 E176.20811 ; [1912]
G0 F9000 X24.255 Y24.253 ; [1913]
; [1914] TYPE:FILL
G1 F3000 X15.615 Y15.613 E176.6145 ; [1915]
G0 F9000 X15.806 Y15.804 ; [1916]
G0 X15.836 Y17.465 ; [1917]
G0 X15.615 Y17.465 ; [1918]
G1 F3000 X17.467 Y15.613 E176.70162 ; [1919]
G0 F9000 X17.878 Y15.614 ; [1920]
G1 F3000 X24.255 Y21.991 E177.00157 ; [1921]
G0 F9000 X24.255 Y22.402 ; [1922]
G1 F3000 X22.403 Y24.253 E177.08866 ; [1923]
G0 F9000 X21.991 Y24.253 ; [1924]
G1 F3000 X15.615 Y17.876 E177.38859 ; [1925]
G0 F9000 X15.836 Y17.876 ; [1926]
G0 X15.836 Y19.728 ; [1927]
G0 X15.615 Y19.728 ; [1928]
G1 F3000 X19.73 Y15.613 E177.58215 ; [1929]
G0 F9000 X20.141 Y15.614 ; [1930]
G1 F3000 X24.255 Y19.728 E177.77566 ; [1931]
G0 F9000 X24.255 Y20.139 ; [1932]
G1 F3000 X20.141 Y24.253 E177.96917 ; [1933]
G0 F9000 X19.728 Y24.253 ; [1934]
G1 F3000 X15.615 Y20.139 E178.16266 ; [1935]
G0 F9000 X15.836 Y20.139 ; [1936]
G0 X15.836 Y21.99 ; [1937]
G0 X15.616 Y21.99 ; [1938]
G1 F3000 X21.993 Y15.613 E178.46261 ; [1939]
G0 F9000 X22.403 Y15.614 ; [1940]
G1 F3000 X24.255 Y17.465 E178.5497 ; [1941]
G0 F9000 X24.255 Y17.877 ; [1942]
G1 F3000 X17.878 Y24.253 E178.84963 ; [1943]
G0 F9000 X17.466 Y24.253 ; [1944]
G1 F3000 X15.615 Y22.402 E178.93669 ; [1945]
G0 F9000 X15.836 Y22.402 ; [1946]
G0 X15.806 Y24.064 ; [1947]
G0 X15.616 Y24.253 ; [1948]
G1 F3000 X24.255 Y15.614 E179.34305 ; [1949]
G0 F9000 X23.736 Y16.016 ; [1950]
G1 F1500 E172.84305 ; [1951]
; [1952] MESH:Router test.3mf(4)
G0 F9000 X24.516 Y24.064 ; [1953]
G0 X25.601 Y24.064 ; [1954]
G0 X29.271 Y24.064 ; [1955]
G0 X30.356 Y24.064 ; [1956]
G0 X39.066 Y24.064 ; [1957]
G1 F1500 E179.34305 ; [1958]
G0 F9000 X39.336 Y24.334 ; [1959]
; [1960] TYPE:WALL-INNER
G1 F1500 X39.336 Y15.534 E179.63574 ; [1961]
G1 X30.536 Y15.534 E179.92843 ; [1962]
G1 X30.536 Y24.334 E180.22111 ; [1963]
G1 X39.336 Y24.334 E180.5138 ; [1964]
G0 F9000 X39.736 Y24.734 ; [1965]
; [1966] TYPE:WALL-OUTER
G1 F1500 X39.736 Y15.134 E180.8331 ; [1967]
G1 X30.136 Y15.134 E181.1524 ; [1968]
G1 X30.136 Y24.734 E181.4717 ; [1969]
G1 X39.736 Y24.734 E181.79099 ; [1970]
G0 F9000 X39.255 Y24.253 ; [1971]
; [1972] TYPE:FILL
G1 F3000 X30.615 Y15.613 E182.19739 ; [1973]
G0 F9000 X30.806 Y15.804 ; [1974]
G0 X30.836 Y17.464 ; [1975]
G0 X30.615 Y17.464 ; [1976]
G1 F3000 X32.466 Y15.613 E182.28446 ; [1977]
G0 F9000 X32.878 Y15.613 ; [1978]
G1 F3000 X39.255 Y21.991 E182.58444 ; [1979]
G0 F9000 X39.255 Y22.401 ; [1980]
G1 F3000 X37.403 Y24.253 E182.67155 ; [1981]
G0 F9000 X36.992 Y24.253 ; [1982]
G1 F3000 X30.614 Y17.875 E182.97155 ; [1983]
G0 F9000 X30.836 Y17.875 ; [1984]
G0 X30.836 Y19.727 ; [1985]
G0 X30.615 Y19.727 ; [1986]
G1 F3000 X34.729 Y15.613 E183.16506 ; [1987]
G0 F9000 X35.141 Y15.613 ; [1988]
G1 F3000 X39.255 Y19.728 E183.35859 ; [1989]
G0 F9000 X39.255 Y20.139 ; [1990]
G1 F3000 X35.14 Y24.253 E183.55213 ; [1991]
G0 F9000 X34.73 Y24.253 ; [1992]
G1 F3000 X30.614 Y20.138 E183.74571 ; [1993]
G0 F9000 X30.836 Y20.138 ; [1994]
G0 X30.836 Y21.99 ; [1995]
G0 X30.615 Y21.99 ; [1996]
G1 F3000 X36.992 Y15.613 E184.04566 ; [1997]
G0 F9000 X37.403 Y15.613 ; [1998]
G1 F3000 X39.255 Y17.465 E184.13277 ; [1999]
G0 F9000 X39.255 Y17.876 ; [2000]
G1 F3000 X32.877 Y24.253 E184.43275 ; [2001]
G0 F9000 X32.467 Y24.253 ; [2002]
G1 F3000 X30.614 Y22.401 E184.51989 ; [2003]
G0 F9000 X30.836 Y22.401 ; [2004]
G0 X30.806 Y24.064 ; [2005]
G0 X30.614 Y24.253 ; [2006]
G1 F3000 X39.255 Y15.613 E184.92631 ; [2007]
G0 F9000 X38.736 Y16.016 ; [2008]
G1 F1500 E178.42631 ; [2009]
; [2010] MESH:Router test.3mf(2)
G0 F9000 X39.066 Y24.514 ; [2011]
G0 X39.066 Y25.599 ; [2012]
G0 X39.066 Y29.269 ; [2013]
G0 X39.066 Y30.354 ; [2014]
G0 X39.066 Y39.064 ; [2015]
G1 F1500 E184.92631 ; [2016]
G0 F9000 X39.336 Y39.334 ; [2017]
; [2018] TYPE:WALL-INNER
G1 F1500 X39.336 Y30.534 E185.219 ; [2019]
G1 X30.536 Y30.534 E185.51169 ; [2020]
G1 X30.536 Y39.334 E185.80438 ; [2021]
G1 X39.336 Y39.334 E186.09707 ; [2022]
G0 F9000 X39.736 Y39.734 ; [2023]
; [2024] TYPE:WALL-OUTER
G1 F1500 X39.736 Y30.134 E186.41636 ; [2025]
G1 X30.136 Y30.134 E186.73566 ; [2026]
G1 X30.136 Y39.734 E187.05496 ; [2027]
G1 X39.736 Y39.734 E187.37426 ; [2028]
G0 F9000 X39.255 Y39.253 ; [2029]
; [2030] TYPE:FILL
G1 F3000 X30.615 Y30.614 E187.78063 ; [2031]
G0 F9000 X30.806 Y30.804 ; [2032]
G0 X30.836 Y32.464 ; [2033]
G0 X30.616 Y32.464 ; [2034]
G1 F3000 X32.466 Y30.614 E187.86765 ; [2035]
G0 F9000 X32.878 Y30.614 ; [2036]
G1 F3000 X39.255 Y36.99 E188.16758 ; [2037]
G0 F9000 X39.255 Y37.402 ; [2038]
G1 F3000 X37.403 Y39.253 E188.25467 ; [2039]
G0 F9000 X36.991 Y39.252 ; [2040]
G1 F3000 X30.615 Y32.876 E188.55458 ; [2041]
G0 F9000 X30.836 Y32.876 ; [2042]
G0 X30.836 Y34.727 ; [2043]
G0 X30.616 Y34.727 ; [2044]
G1 F3000 X34.729 Y30.614 E188.74804 ; [2045]
G0 F9000 X35.141 Y30.614 ; [2046]
G1 F3000 X39.255 Y34.728 E188.94155 ; [2047]
G0 F9000 X39.255 Y35.139 ; [2048]
G1 F3000 X35.141 Y39.253 E189.13506 ; [2049]
G0 F9000 X34.728 Y39.252 ; [2050]
G1 F3000 X30.615 Y35.139 E189.32852 ; [2051]
G0 F9000 X30.836 Y35.139 ; [2052]
G0 X30.836 Y36.99 ; [2053]
G0 X30.616 Y36.99 ; [2054]
G1 F3000 X36.992 Y30.614 E189.62843 ; [2055]
G0 F9000 X37.403 Y30.614 ; [2056]
G1 F3000 X39.255 Y32.465 E189.71552 ; [2057]
G0 F9000 X39.255 Y32.876 ; [2058]
G1 F3000 X32.878 Y39.253 E190.01547 ; [2059]
G0 F9000 X32.466 Y39.252 ; [2060]
G1 F3000 X30.615 Y37.402 E190.10252 ; [2061]
G0 F9000 X30.836 Y37.402 ; [2062]
G0 X30.806 Y39.064 ; [2063]
G0 X30.616 Y39.252 ; [2064]
G1 F3000 X39.255 Y30.614 E190.50884 ; [2065]
G0 F9000 X38.736 Y31.016 ; [2066]
G1 F1500 E184.00884 ; [2067]
; [2068] MESH:Router test.3mf(1)
G0 F9000 X30.356 Y39.064 ; [2069]
G0 X29.271 Y39.064 ; [2070]
G0 X25.601 Y39.064 ; [2071]
G0 X24.516 Y39.064 ; [2072]
G0 X24.066 Y39.064 ; [2073]
G1 F1500 E190.50884 ; [2074]
G0 F9000 X24.336 Y39.334 ; [2075]
; [2076] TYPE:WALL-INNER
G1 F1500 X24.336 Y30.534 E190.80153 ; [2077]
G1 X15.536 Y30.534 E191.09422 ; [2078]
G1 X15.536 Y39.334 E191.38691 ; [2079]
G1 X24.336 Y39.334 E191.6796 ; [2080]
G0 F9000 X24.736 Y39.734 ; [2081]
; [2082] TYPE:WALL-OUTER
G1 F1500 X24.736 Y30.134 E191.9989 ; [2083]
G1 X15.136 Y30.134 E192.3182 ; [2084]
G1 X15.136 Y39.734 E192.63749 ; [2085]
G1 X24.736 Y39.734 E192.95679 ; [2086]
G0 F9000 X24.255 Y39.253 ; [2087]
; [2088] TYPE:FILL
G1 F3000 X15.615 Y30.613 E193.36319 ; [2089]
G0 F9000 X15.806 Y30.804 ; [2090]
G0 X15.836 Y32.464 ; [2091]
G0 X15.615 Y32.464 ; [2092]
G1 F3000 X17.467 Y30.612 E193.4503 ; [2093]
G0 F9000 X17.878 Y30.613 ; [2094]
G1 F3000 X24.255 Y36.99 E193.75026 ; [2095]
G0 F9000 X24.255 Y37.4 ; [2096]
G1 F3000 X22.403 Y39.253 E193.83739 ; [2097]
G0 F9000 X21.992 Y39.252 ; [2098]
G1 F3000 X15.615 Y32.876 E194.13732 ; [2099]
G0 F9000 X15.836 Y32.876 ; [2100]
G0 X15.836 Y34.727 ; [2101]
G0 X15.615 Y34.727 ; [2102]
G1 F3000 X19.73 Y30.612 E194.33088 ; [2103]
G0 F9000 X20.141 Y30.613 ; [2104]
G1 F3000 X24.255 Y34.728 E194.52441 ; [2105]
G0 F9000 X24.255 Y35.138 ; [2106]
G1 F3000 X20.14 Y39.253 E194.71797 ; [2107]
G0 F9000 X19.729 Y39.252 ; [2108]
G1 F3000 X15.615 Y35.138 E194.91148 ; [2109]
G0 F9000 X15.836 Y35.138 ; [2110]
G0 X15.836 Y36.99 ; [2111]
G0 X15.615 Y36.99 ; [2112]
G1 F3000 X21.993 Y30.612 E195.21148 ; [2113]
G0 F9000 X22.403 Y30.613 ; [2114]
G1 F3000 X24.255 Y32.465 E195.29859 ; [2115]
G0 F9000 X24.255 Y32.875 ; [2116]
G1 F3000 X17.877 Y39.253 E195.5986 ; [2117]
G0 F9000 X17.466 Y39.252 ; [2118]
G1 F3000 X15.615 Y37.401 E195.68566 ; [2119]
G0 F9000 X15.836 Y37.401 ; [2120]
G0 X15.806 Y39.064 ; [2121]
G0 X15.615 Y39.252 ; [2122]
G1 F3000 X24.255 Y30.612 E196.09206 ; [2123]
G0 F9000 X23.736 Y31.016 ; [2124]
G1 F1500 E189.59206 ; [2125]
; [2126] MESH:NONMESH
;  ====== End layer 5 ====
;  ==== Start layer 6 ====
;  Step 0 (0 lines): Move thread to avoid layer extents -------------------------
;  Layer postamble ------
G0 F300 X23.736 Y31.016 Z1.4 ; [2127]
G0 F9000 X24.066 Y30.354 ; [2128]
G0 X24.066 Y29.269 ; [2129]
G0 X24.066 Y25.599 ; [2130]
G0 X24.066 Y24.514 ; [2131]
G0 X24.066 Y24.064 ; [2132]
G1 F1500 E196.09206 ; [2133]
G0 F9000 X24.336 Y24.334 ; [2134]
; [2135] TIME_ELAPSED:332.360839
; [2136] LAYER:6
; [2137] TYPE:WALL-INNER
; [2138] MESH:Router test.3mf(3)
G1 F1500 X24.336 Y15.534 E196.38475 ; [2139]
G1 X15.536 Y15.534 E196.67744 ; [2140]
G1 X15.536 Y24.334 E196.97013 ; [2141]
G1 X24.336 Y24.334 E197.26282 ; [2142]
G0 F9000 X24.736 Y24.734 ; [2143]
; [2144] TYPE:WALL-OUTER
G1 F1500 X24.736 Y15.134 E197.58211 ; [2145]
G1 X15.136 Y15.134 E197.90141 ; [2146]
G1 X15.136 Y24.734 E198.22071 ; [2147]
G1 X24.736 Y24.734 E198.54001 ; [2148]
G0 F9000 X24.255 Y24.253 ; [2149]
; [2150] TYPE:FILL
G1 F3000 X15.615 Y15.613 E198.94641 ; [2151]
G0 F9000 X15.806 Y15.804 ; [2152]
G0 X15.836 Y17.465 ; [2153]
G0 X15.615 Y17.465 ; [2154]
G1 F3000 X17.467 Y15.613 E199.03352 ; [2155]
G0 F9000 X17.878 Y15.614 ; [2156]
G1 F3000 X24.255 Y21.991 E199.33347 ; [2157]
G0 F9000 X24.255 Y22.402 ; [2158]
G1 F3000 X22.403 Y24.253 E199.42056 ; [2159]
G0 F9000 X21.991 Y24.253 ; [2160]
G1 F3000 X15.615 Y17.876 E199.72049 ; [2161]
G0 F9000 X15.836 Y17.876 ; [2162]
G0 X15.836 Y19.728 ; [2163]
G0 X15.615 Y19.728 ; [2164]
G1 F3000 X19.73 Y15.613 E199.91405 ; [2165]
G0 F9000 X20.141 Y15.614 ; [2166]
G1 F3000 X24.255 Y19.728 E200.10756 ; [2167]
G0 F9000 X24.255 Y20.139 ; [2168]
G1 F3000 X20.141 Y24.253 E200.30107 ; [2169]
G0 F9000 X19.728 Y24.253 ; [2170]
G1 F3000 X15.615 Y20.139 E200.49456 ; [2171]
G0 F9000 X15.836 Y20.139 ; [2172]
G0 X15.836 Y21.99 ; [2173]
G0 X15.616 Y21.99 ; [2174]
G1 F3000 X21.993 Y15.613 E200.79451 ; [2175]
G0 F9000 X22.403 Y15.614 ; [2176]
G1 F3000 X24.255 Y17.465 E200.8816 ; [2177]
G0 F9000 X24.255 Y17.877 ; [2178]
G1 F3000 X17.878 Y24.253 E201.18153 ; [2179]
G0 F9000 X17.466 Y24.253 ; [2180]
G1 F3000 X15.615 Y22.402 E201.2686 ; [2181]
G0 F9000 X15.836 Y22.402 ; [2182]
G0 X15.806 Y24.064 ; [2183]
G0 X15.616 Y24.253 ; [2184]
G1 F3000 X24.255 Y15.614 E201.67495 ; [2185]
G0 F9000 X23.736 Y16.016 ; [2186]
G1 F1500 E195.17495 ; [2187]
; [2188] MESH:Router test.3mf(4)
G0 F9000 X24.516 Y24.064 ; [2189]
G0 X25.601 Y24.064 ; [2190]
G0 X29.271 Y24.064 ; [2191]
G0 X30.356 Y24.064 ; [2192]
G0 X39.066 Y24.064 ; [2193]
G1 F1500 E201.67495 ; [2194]
G0 F9000 X39.336 Y24.334 ; [2195]
; [2196] TYPE:WALL-INNER
G1 F1500 X39.336 Y15.534 E201.96764 ; [2197]
G1 X30.536 Y15.534 E202.26033 ; [2198]
G1 X30.536 Y24.334 E202.55302 ; [2199]
G1 X39.336 Y24.334 E202.8457 ; [2200]
G0 F9000 X39.736 Y24.734 ; [2201]
; [2202] TYPE:WALL-OUTER
G1 F1500 X39.736 Y15.134 E203.165 ; [2203]
G1 X30.136 Y15.134 E203.4843 ; [2204]
G1 X30.136 Y24.734 E203.8036 ; [2205]
G1 X39.736 Y24.734 E204.12289 ; [2206]
G0 F9000 X39.255 Y24.253 ; [2207]
; [2208] TYPE:FILL
G1 F3000 X30.615 Y15.613 E204.52929 ; [2209]
G0 F9000 X30.806 Y15.804 ; [2210]
G0 X30.836 Y17.464 ; [2211]
G0 X30.615 Y17.464 ; [2212]
G1 F3000 X32.466 Y15.613 E204.61636 ; [2213]
G0 F9000 X32.878 Y15.613 ; [2214]
G1 F3000 X39.255 Y21.991 E204.91634 ; [2215]
G0 F9000 X39.255 Y22.401 ; [2216]
G1 F3000 X37.403 Y24.253 E205.00345 ; [2217]
G0 F9000 X36.992 Y24.253 ; [2218]
G1 F3000 X30.614 Y17.875 E205.30345 ; [2219]
G0 F9000 X30.836 Y17.875 ; [2220]
G0 X30.836 Y19.727 ; [2221]
G0 X30.615 Y19.727 ; [2222]
G1 F3000 X34.729 Y15.613 E205.49696 ; [2223]
G0 F9000 X35.141 Y15.613 ; [2224]
G1 F3000 X39.255 Y19.728 E205.69049 ; [2225]
G0 F9000 X39.255 Y20.139 ; [2226]
G1 F3000 X35.14 Y24.253 E205.88403 ; [2227]
G0 F9000 X34.73 Y24.253 ; [2228]
G1 F3000 X30.614 Y20.138 E206.07761 ; [2229]
G0 F9000 X30.836 Y20.138 ; [2230]
G0 X30.836 Y21.99 ; [2231]
G0 X30.615 Y21.99 ; [2232]
G1 F3000 X36.992 Y15.613 E206.37756 ; [2233]
G0 F9000 X37.403 Y15.613 ; [2234]
G1 F3000 X39.255 Y17.465 E206.46467 ; [2235]
G0 F9000 X39.255 Y17.876 ; [2236]
G1 F3000 X32.877 Y24.253 E206.76465 ; [2237]
G0 F9000 X32.467 Y24.253 ; [2238]
G1 F3000 X30.614 Y22.401 E206.85179 ; [2239]
G0 F9000 X30.836 Y22.401 ; [2240]
G0 X30.806 Y24.064 ; [2241]
G0 X30.614 Y24.253 ; [2242]
G1 F3000 X39.255 Y15.613 E207.25821 ; [2243]
G0 F9000 X38.736 Y16.016 ; [2244]
G1 F1500 E200.75821 ; [2245]
; [2246] MESH:Router test.3mf(2)
G0 F9000 X39.066 Y24.514 ; [2247]
G0 X39.066 Y25.599 ; [2248]
G0 X39.066 Y29.269 ; [2249]
G0 X39.066 Y30.354 ; [2250]
G0 X39.066 Y39.064 ; [2251]
G1 F1500 E207.25821 ; [2252]
G0 F9000 X39.336 Y39.334 ; [2253]
; [2254] TYPE:WALL-INNER
G1 F1500 X39.336 Y30.534 E207.5509 ; [2255]
G1 X30.536 Y30.534 E207.84359 ; [2256]
G1 X30.536 Y39.334 E208.13628 ; [2257]
G1 X39.336 Y39.334 E208.42897 ; [2258]
G0 F9000 X39.736 Y39.734 ; [2259]
; [2260] TYPE:WALL-OUTER
G1 F1500 X39.736 Y30.134 E208.74827 ; [2261]
G1 X30.136 Y30.134 E209.06756 ; [2262]
G1 X30.136 Y39.734 E209.38686 ; [2263]
G1 X39.736 Y39.734 E209.70616 ; [2264]
G0 F9000 X39.255 Y39.253 ; [2265]
; [2266] TYPE:FILL
G1 F3000 X30.615 Y30.614 E210.11253 ; [2267]
G0 F9000 X30.806 Y30.804 ; [2268]
G0 X30.836 Y32.464 ; [2269]
G0 X30.616 Y32.464 ; [2270]
G1 F3000 X32.466 Y30.614 E210.19955 ; [2271]
G0 F9000 X32.878 Y30.614 ; [2272]
G1 F3000 X39.255 Y36.99 E210.49948 ; [2273]
G0 F9000 X39.255 Y37.402 ; [2274]
G1 F3000 X37.403 Y39.253 E210.58657 ; [2275]
G0 F9000 X36.991 Y39.252 ; [2276]
G1 F3000 X30.615 Y32.876 E210.88648 ; [2277]
G0 F9000 X30.836 Y32.876 ; [2278]
G0 X30.836 Y34.727 ; [2279]
G0 X30.616 Y34.727 ; [2280]
G1 F3000 X34.729 Y30.614 E211.07994 ; [2281]
G0 F9000 X35.141 Y30.614 ; [2282]
G1 F3000 X39.255 Y34.728 E211.27345 ; [2283]
G0 F9000 X39.255 Y35.139 ; [2284]
G1 F3000 X35.141 Y39.253 E211.46696 ; [2285]
G0 F9000 X34.728 Y39.252 ; [2286]
G1 F3000 X30.615 Y35.139 E211.66042 ; [2287]
G0 F9000 X30.836 Y35.139 ; [2288]
G0 X30.836 Y36.99 ; [2289]
G0 X30.616 Y36.99 ; [2290]
G1 F3000 X36.992 Y30.614 E211.96033 ; [2291]
G0 F9000 X37.403 Y30.614 ; [2292]
G1 F3000 X39.255 Y32.465 E212.04742 ; [2293]
G0 F9000 X39.255 Y32.876 ; [2294]
G1 F3000 X32.878 Y39.253 E212.34738 ; [2295]
G0 F9000 X32.466 Y39.252 ; [2296]
G1 F3000 X30.615 Y37.402 E212.43442 ; [2297]
G0 F9000 X30.836 Y37.402 ; [2298]
G0 X30.806 Y39.064 ; [2299]
G0 X30.616 Y39.252 ; [2300]
G1 F3000 X39.255 Y30.614 E212.84075 ; [2301]
G0 F9000 X38.736 Y31.016 ; [2302]
G1 F1500 E206.34075 ; [2303]
; [2304] MESH:Router test.3mf(1)
G0 F9000 X30.356 Y39.064 ; [2305]
G0 X29.271 Y39.064 ; [2306]
G0 X25.601 Y39.064 ; [2307]
G0 X24.516 Y39.064 ; [2308]
G0 X24.066 Y39.064 ; [2309]
G1 F1500 E212.84075 ; [2310]
G0 F9000 X24.336 Y39.334 ; [2311]
; [2312] TYPE:WALL-INNER
G1 F1500 X24.336 Y30.534 E213.13343 ; [2313]
G1 X15.536 Y30.534 E213.42612 ; [2314]
G1 X15.536 Y39.334 E213.71881 ; [2315]
G1 X24.336 Y39.334 E214.0115 ; [2316]
G0 F9000 X24.736 Y39.734 ; [2317]
; [2318] TYPE:WALL-OUTER
G1 F1500 X24.736 Y30.134 E214.3308 ; [2319]
G1 X15.136 Y30.134 E214.6501 ; [2320]
G1 X15.136 Y39.734 E214.96939 ; [2321]
G1 X24.736 Y39.734 E215.28869 ; [2322]
G0 F9000 X24.255 Y39.253 ; [2323]
; [2324] TYPE:FILL
G1 F3000 X15.615 Y30.613 E215.69509 ; [2325]
G0 F9000 X15.806 Y30.804 ; [2326]
G0 X15.836 Y32.464 ; [2327]
G0 X15.615 Y32.464 ; [2328]
G1 F3000 X17.467 Y30.612 E215.7822 ; [2329]
G0 F9000 X17.878 Y30.613 ; [2330]
G1 F3000 X24.255 Y36.99 E216.08216 ; [2331]
G0 F9000 X24.255 Y37.4 ; [2332]
G1 F3000 X22.403 Y39.253 E216.16929 ; [2333]
G0 F9000 X21.992 Y39.252 ; [2334]
G1 F3000 X15.615 Y32.876 E216.46922 ; [2335]
G0 F9000 X15.836 Y32.876 ; [2336]
G0 X15.836 Y34.727 ; [2337]
G0 X15.615 Y34.727 ; [2338]
G1 F3000 X19.73 Y30.612 E216.66278 ; [2339]
G0 F9000 X20.141 Y30.613 ; [2340]
G1 F3000 X24.255 Y34.728 E216.85631 ; [2341]
G0 F9000 X24.255 Y35.138 ; [2342]
G1 F3000 X20.14 Y39.253 E217.04987 ; [2343]
G0 F9000 X19.729 Y39.252 ; [2344]
G1 F3000 X15.615 Y35.138 E217.24338 ; [2345]
G0 F9000 X15.836 Y35.138 ; [2346]
G0 X15.836 Y36.99 ; [2347]
G0 X15.615 Y36.99 ; [2348]
G1 F3000 X21.993 Y30.612 E217.54338 ; [2349]
G0 F9000 X22.403 Y30.613 ; [2350]
G1 F3000 X24.255 Y32.465 E217.6305 ; [2351]
G0 F9000 X24.255 Y32.875 ; [2352]
G1 F3000 X17.877 Y39.253 E217.9305 ; [2353]
G0 F9000 X17.466 Y39.252 ; [2354]
G1 F3000 X15.615 Y37.401 E218.01756 ; [2355]
G0 F9000 X15.836 Y37.401 ; [2356]
G0 X15.806 Y39.064 ; [2357]
G0 X15.615 Y39.252 ; [2358]
G1 F3000 X24.255 Y30.612 E218.42396 ; [2359]
G0 F9000 X23.736 Y31.016 ; [2360]
G1 F1500 E211.92396 ; [2361]
; [2362] MESH:NONMESH
;  ====== End layer 6 ====
;  ==== Start layer 7 ====
;  Step 0 (0 lines): Move thread to avoid layer extents -------------------------
;  Layer postamble ------
G0 F300 X23.736 Y31.016 Z1.6 ; [2363]
G0 F9000 X24.066 Y30.354 ; [2364]
G0 X24.066 Y29.269 ; [2365]
G0 X24.066 Y25.599 ; [2366]
G0 X24.066 Y24.514 ; [2367]
G0 X24.066 Y24.064 ; [2368]
G1 F1500 E218.42396 ; [2369]
G0 F9000 X24.336 Y24.334 ; [2370]
; [2371] TIME_ELAPSED:364.876129
; [2372] LAYER:7
; [2373] TYPE:WALL-INNER
; [2374] MESH:Router test.3mf(3)
G1 F1500 X24.336 Y15.534 E218.71665 ; [2375]
G1 X15.536 Y15.534 E219.00934 ; [2376]
G1 X15.536 Y24.334 E219.30203 ; [2377]
G1 X24.336 Y24.334 E219.59472 ; [2378]
G0 F9000 X24.736 Y24.734 ; [2379]
; [2380] TYPE:WALL-OUTER
G1 F1500 X24.736 Y15.134 E219.91402 ; [2381]
G1 X15.136 Y15.134 E220.23331 ; [2382]
G1 X15.136 Y24.734 E220.55261 ; [2383]
G1 X24.736 Y24.734 E220.87191 ; [2384]
G0 F9000 X24.255 Y24.253 ; [2385]
; [2386] TYPE:FILL
G1 F3000 X15.615 Y15.613 E221.27831 ; [2387]
G0 F9000 X15.806 Y15.804 ; [2388]
G0 X15.836 Y17.465 ; [2389]
G0 X15.615 Y17.465 ; [2390]
G1 F3000 X17.467 Y15.613 E221.36542 ; [2391]
G0 F9000 X17.878 Y15.614 ; [2392]
G1 F3000 X24.255 Y21.991 E221.66537 ; [2393]
G0 F9000 X24.255 Y22.402 ; [2394]
G1 F3000 X22.403 Y24.253 E221.75246 ; [2395]
G0 F9000 X21.991 Y24.253 ; [2396]
G1 F3000 X15.615 Y17.876 E222.05239 ; [2397]
G0 F9000 X15.836 Y17.876 ; [2398]
G0 X15.836 Y19.728 ; [2399]
G0 X15.615 Y19.728 ; [2400]
G1 F3000 X19.73 Y15.613 E222.24595 ; [2401]
G0 F9000 X20.141 Y15.614 ; [2402]
G1 F3000 X24.255 Y19.728 E222.43946 ; [2403]
G0 F9000 X24.255 Y20.139 ; [2404]
G1 F3000 X20.141 Y24.253 E222.63297 ; [2405]
G0 F9000 X19.728 Y24.253 ; [2406]
G1 F3000 X15.615 Y20.139 E222.82646 ; [2407]
G0 F9000 X15.836 Y20.139 ; [2408]
G0 X15.836 Y21.99 ; [2409]
G0 X15.616 Y21.99 ; [2410]
G1 F3000 X21.993 Y15.613 E223.12641 ; [2411]
G0 F9000 X22.403 Y15.614 ; [2412]
G1 F3000 X24.255 Y17.465 E223.2135 ; [2413]
G0 F9000 X24.255 Y17.877 ; [2414]
G1 F3000 X17.878 Y24.253 E223.51343 ; [2415]
G0 F9000 X17.466 Y24.253 ; [2416]
G1 F3000 X15.615 Y22.402 E223.6005 ; [2417]
G0 F9000 X15.836 Y22.402 ; [2418]
G0 X15.806 Y24.064 ; [2419]
G0 X15.616 Y24.253 ; [2420]
G1 F3000 X24.255 Y15.614 E224.00685 ; [2421]
G0 F9000 X23.736 Y16.016 ; [2422]
G1 F1500 E217.50685 ; [2423]
; [2424] MESH:Router test.3mf(4)
G0 F9000 X24.516 Y24.064 ; [2425]
G0 X25.601 Y24.064 ; [2426]
G0 X29.271 Y24.064 ; [2427]
G0 X30.356 Y24.064 ; [2428]
G0 X39.066 Y24.064 ; [2429]
G1 F1500 E224.00685 ; [2430]
G0 F9000 X39.336 Y24.334 ; [2431]
; [2432] TYPE:WALL-INNER
G1 F1500 X39.336 Y15.534 E224.29954 ; [2433]
G1 X30.536 Y15.534 E224.59223 ; [2434]
G1 X30.536 Y24.334 E224.88492 ; [2435]
G1 X39.336 Y24.334 E225.17761 ; [2436]
G0 F9000 X39.736 Y24.734 ; [2437]
; [2438] TYPE:WALL-OUTER
G1 F1500 X39.736 Y15.134 E225.4969 ; [2439]
G1 X30.136 Y15.134 E225.8162 ; [2440]
G1 X30.136 Y24.734 E226.1355 ; [2441]
G1 X39.736 Y24.734 E226.45479 ; [2442]
G0 F9000 X39.255 Y24.253 ; [2443]
; [2444] TYPE:FILL
G1 F3000 X30.615 Y15.613 E226.86119 ; [2445]
G0 F9000 X30.806 Y15.804 ; [2446]
G0 X30.836 Y17.464 ; [2447]
G0 X30.615 Y17.464 ; [2448]
G1 F3000 X32.466 Y15.613 E226.94826 ; [2449]
G0 F9000 X32.878 Y15.613 ; [2450]
G1 F3000 X39.255 Y21.991 E227.24824 ; [2451]
G0 F9000 X39.255 Y22.401 ; [2452]
G1 F3000 X37.403 Y24.253 E227.33535 ; [2453]
G0 F9000 X36.992 Y24.253 ; [2454]
G1 F3000 X30.614 Y17.875 E227.63535 ; [2455]
G0 F9000 X30.836 Y17.875 ; [2456]
G0 X30.836 Y19.727 ; [2457]
G0 X30.615 Y19.727 ; [2458]
G1 F3000 X34.729 Y15.613 E227.82886 ; [2459]
G0 F9000 X35.141 Y15.613 ; [2460]
G1 F3000 X39.255 Y19.728 E228.02239 ; [2461]
G0 F9000 X39.255 Y20.139 ; [2462]
G1 F3000 X35.14 Y24.253 E228.21593 ; [2463]
G0 F9000 X34.73 Y24.253 ; [2464]
G1 F3000 X30.614 Y20.138 E228.40951 ; [2465]
G0 F9000 X30.836 Y20.138 ; [2466]
G0 X30.836 Y21.99 ; [2467]
G0 X30.615 Y21.99 ; [2468]
G1 F3000 X36.992 Y15.613 E228.70946 ; [2469]
G0 F9000 X37.403 Y15.613 ; [2470]
G1 F3000 X39.255 Y17.465 E228.79658 ; [2471]
G0 F9000 X39.255 Y17.876 ; [2472]
G1 F3000 X32.877 Y24.253 E229.09655 ; [2473]
G0 F9000 X32.467 Y24.253 ; [2474]
G1 F3000 X30.614 Y22.401 E229.18369 ; [2475]
G0 F9000 X30.836 Y22.401 ; [2476]
G0 X30.806 Y24.064 ; [2477]
G0 X30.614 Y24.253 ; [2478]
G1 F3000 X39.255 Y15.613 E229.59011 ; [2479]
G0 F9000 X38.736 Y16.016 ; [2480]
G1 F1500 E223.09011 ; [2481]
; [2482] MESH:Router test.3mf(2)
G0 F9000 X39.066 Y24.514 ; [2483]
G0 X39.066 Y25.599 ; [2484]
G0 X39.066 Y29.269 ; [2485]
G0 X39.066 Y30.354 ; [2486]
G0 X39.066 Y39.064 ; [2487]
G1 F1500 E229.59011 ; [2488]
G0 F9000 X39.336 Y39.334 ; [2489]
; [2490] TYPE:WALL-INNER
G1 F1500 X39.336 Y30.534 E229.8828 ; [2491]
G1 X30.536 Y30.534 E230.17549 ; [2492]
G1 X30.536 Y39.334 E230.46818 ; [2493]
G1 X39.336 Y39.334 E230.76087 ; [2494]
G0 F9000 X39.736 Y39.734 ; [2495]
; [2496] TYPE:WALL-OUTER
G1 F1500 X39.736 Y30.134 E231.08017 ; [2497]
G1 X30.136 Y30.134 E231.39946 ; [2498]
G1 X30.136 Y39.734 E231.71876 ; [2499]
G1 X39.736 Y39.734 E232.03806 ; [2500]
G0 F9000 X39.255 Y39.253 ; [2501]
; [2502] TYPE:FILL
G1 F3000 X30.615 Y30.614 E232.44443 ; [2503]
G0 F9000 X30.806 Y30.804 ; [2504]
G0 X30.836 Y32.464 ; [2505]
G0 X30.616 Y32.464 ; [2506]
G1 F3000 X32.466 Y30.614 E232.53145 ; [2507]
G0 F9000 X32.878 Y30.614 ; [2508]
G1 F3000 X39.255 Y36.99 E232.83138 ; [2509]
G0 F9000 X39.255 Y37.402 ; [2510]
G1 F3000 X37.403 Y39.253 E232.91847 ; [2511]
G0 F9000 X36.991 Y39.252 ; [2512]
G1 F3000 X30.615 Y32.876 E233.21838 ; [2513]
G0 F9000 X30.836 Y32.876 ; [2514]
G0 X30.836 Y34.727 ; [2515]
G0 X30.616 Y34.727 ; [2516]
G1 F3000 X34.729 Y30.614 E233.41184 ; [2517]
G0 F9000 X35.141 Y30.614 ; [2518]
G1 F3000 X39.255 Y34.728 E233.60535 ; [2519]
G0 F9000 X39.255 Y35.139 ; [2520]
G1 F3000 X35.141 Y39.253 E233.79886 ; [2521]
G0 F9000 X34.728 Y39.252 ; [2522]
G1 F3000 X30.615 Y35.139 E233.99233 ; [2523]
G0 F9000 X30.836 Y35.139 ; [2524]
G0 X30.836 Y36.99 ; [2525]
G0 X30.616 Y36.99 ; [2526]
G1 F3000 X36.992 Y30.614 E234.29223 ; [2527]
G0 F9000 X37.403 Y30.614 ; [2528]
G1 F3000 X39.255 Y32.465 E234.37932 ; [2529]
G0 F9000 X39.255 Y32.876 ; [2530]
G1 F3000 X32.878 Y39.253 E234.67928 ; [2531]
G0 F9000 X32.466 Y39.252 ; [2532]
G1 F3000 X30.615 Y37.402 E234.76632 ; [2533]
G0 F9000 X30.836 Y37.402 ; [2534]
G0 X30.806 Y39.064 ; [2535]
G0 X30.616 Y39.252 ; [2536]
G1 F3000 X39.255 Y30.614 E235.17265 ; [2537]
G0 F9000 X38.736 Y31.016 ; [2538]
G1 F1500 E228.67265 ; [2539]
; [2540] MESH:Router test.3mf(1)
G0 F9000 X30.356 Y39.064 ; [2541]
G0 X29.271 Y39.064 ; [2542]
G0 X25.601 Y39.064 ; [2543]
G0 X24.516 Y39.064 ; [2544]
G0 X24.066 Y39.064 ; [2545]
G1 F1500 E235.17265 ; [2546]
G0 F9000 X24.336 Y39.334 ; [2547]
; [2548] TYPE:WALL-INNER
G1 F1500 X24.336 Y30.534 E235.46534 ; [2549]
G1 X15.536 Y30.534 E235.75802 ; [2550]
G1 X15.536 Y39.334 E236.05071 ; [2551]
G1 X24.336 Y39.334 E236.3434 ; [2552]
G0 F9000 X24.736 Y39.734 ; [2553]
; [2554] TYPE:WALL-OUTER
G1 F1500 X24.736 Y30.134 E236.6627 ; [2555]
G1 X15.136 Y30.134 E236.982 ; [2556]
G1 X15.136 Y39.734 E237.3013 ; [2557]
G1 X24.736 Y39.734 E237.62059 ; [2558]
G0 F9000 X24.255 Y39.253 ; [2559]
; [2560] TYPE:FILL
G1 F3000 X15.615 Y30.613 E238.02699 ; [2561]
G0 F9000 X15.806 Y30.804 ; [2562]
G0 X15.836 Y32.464 ; [2563]
G0 X15.615 Y32.464 ; [2564]
G1 F3000 X17.467 Y30.612 E238.1141 ; [2565]
G0 F9000 X17.878 Y30.613 ; [2566]
G1 F3000 X24.255 Y36.99 E238.41406 ; [2567]
G0 F9000 X24.255 Y37.4 ; [2568]
G1 F3000 X22.403 Y39.253 E238.50119 ; [2569]
G0 F9000 X21.992 Y39.252 ; [2570]
G1 F3000 X15.615 Y32.876 E238.80113 ; [2571]
G0 F9000 X15.836 Y32.876 ; [2572]
G0 X15.836 Y34.727 ; [2573]
G0 X15.615 Y34.727 ; [2574]
G1 F3000 X19.73 Y30.612 E238.99468 ; [2575]
G0 F9000 X20.141 Y30.613 ; [2576]
G1 F3000 X24.255 Y34.728 E239.18822 ; [2577]
G0 F9000 X24.255 Y35.138 ; [2578]
G1 F3000 X20.14 Y39.253 E239.38177 ; [2579]
G0 F9000 X19.729 Y39.252 ; [2580]
G1 F3000 X15.615 Y35.138 E239.57528 ; [2581]
G0 F9000 X15.836 Y35.138 ; [2582]
G0 X15.836 Y36.99 ; [2583]
G0 X15.615 Y36.99 ; [2584]
G1 F3000 X21.993 Y30.612 E239.87528 ; [2585]
G0 F9000 X22.403 Y30.613 ; [2586]
G1 F3000 X24.255 Y32.465 E239.9624 ; [2587]
G0 F9000 X24.255 Y32.875 ; [2588]
G1 F3000 X17.877 Y39.253 E240.2624 ; [2589]
G0 F9000 X17.466 Y39.252 ; [2590]
G1 F3000 X15.615 Y37.401 E240.34946 ; [2591]
G0 F9000 X15.836 Y37.401 ; [2592]
G0 X15.806 Y39.064 ; [2593]
G0 X15.615 Y39.252 ; [2594]
G1 F3000 X24.255 Y30.612 E240.75586 ; [2595]
G0 F9000 X23.736 Y31.016 ; [2596]
G1 F1500 E234.25586 ; [2597]
; [2598] MESH:NONMESH
;  ====== End layer 7 ====
;  ==== Start layer 8 ====
;  Step 0 (0 lines): Move thread to avoid layer extents -------------------------
;  Layer postamble ------
G0 F300 X23.736 Y31.016 Z1.8 ; [2599]
G0 F9000 X24.066 Y30.354 ; [2600]
G0 X24.066 Y29.269 ; [2601]
G0 X24.066 Y25.599 ; [2602]
G0 X24.066 Y24.514 ; [2603]
G0 X24.066 Y24.064 ; [2604]
G1 F1500 E240.75586 ; [2605]
G0 F9000 X24.336 Y24.334 ; [2606]
; [2607] TIME_ELAPSED:397.391418
; [2608] LAYER:8
; [2609] TYPE:WALL-INNER
; [2610] MESH:Router test.3mf(3)
G1 F1500 X24.336 Y15.534 E241.04855 ; [2611]
G1 X15.536 Y15.534 E241.34124 ; [2612]
G1 X15.536 Y24.334 E241.63393 ; [2613]
G1 X24.336 Y24.334 E241.92662 ; [2614]
G0 F9000 X24.736 Y24.734 ; [2615]
; [2616] TYPE:WALL-OUTER
G1 F1500 X24.736 Y15.134 E242.24592 ; [2617]
G1 X15.136 Y15.134 E242.56521 ; [2618]
G1 X15.136 Y24.734 E242.88451 ; [2619]
G1 X24.736 Y24.734 E243.20381 ; [2620]
G0 F9000 X24.255 Y24.253 ; [2621]
; [2622] TYPE:FILL
G1 F3000 X15.615 Y15.613 E243.61021 ; [2623]
G0 F9000 X15.806 Y15.804 ; [2624]
G0 X15.836 Y17.465 ; [2625]
G0 X15.615 Y17.465 ; [2626]
G1 F3000 X17.467 Y15.613 E243.69732 ; [2627]
G0 F9000 X17.878 Y15.614 ; [2628]
G1 F3000 X24.255 Y21.991 E243.99727 ; [2629]
G0 F9000 X24.255 Y22.402 ; [2630]
G1 F3000 X22.403 Y24.253 E244.08436 ; [2631]
G0 F9000 X21.991 Y24.253 ; [2632]
G1 F3000 X15.615 Y17.876 E244.38429 ; [2633]
G0 F9000 X15.836 Y17.876 ; [2634]
G0 X15.836 Y19.728 ; [2635]
G0 X15.615 Y19.728 ; [2636]
G1 F3000 X19.73 Y15.613 E244.57785 ; [2637]
G0 F9000 X20.141 Y15.614 ; [2638]
G1 F3000 X24.255 Y19.728 E244.77136 ; [2639]
G0 F9000 X24.255 Y20.139 ; [2640]
G1 F3000 X20.141 Y24.253 E244.96487 ; [2641]
G0 F9000 X19.728 Y24.253 ; [2642]
G1 F3000 X15.615 Y20.139 E245.15836 ; [2643]
G0 F9000 X15.836 Y20.139 ; [2644]
G0 X15.836 Y21.99 ; [2645]
G0 X15.616 Y21.99 ; [2646]
G1 F3000 X21.993 Y15.613 E245.45831 ; [2647]
G0 F9000 X22.403 Y15.614 ; [2648]
G1 F3000 X24.255 Y17.465 E245.5454 ; [2649]
G0 F9000 X24.255 Y17.877 ; [2650]
G1 F3000 X17.878 Y24.253 E245.84533 ; [2651]
G0 F9000 X17.466 Y24.253 ; [2652]
G1 F3000 X15.615 Y22.402 E245.9324 ; [2653]
G0 F9000 X15.836 Y22.402 ; [2654]
G0 X15.806 Y24.064 ; [2655]
G0 X15.616 Y24.253 ; [2656]
G1 F3000 X24.255 Y15.614 E246.33875 ; [2657]
G0 F9000 X23.736 Y16.016 ; [2658]
G1 F1500 E239.83875 ; [2659]
; [2660] MESH:Router test.3mf(4)
G0 F9000 X24.516 Y24.064 ; [2661]
G0 X25.601 Y24.064 ; [2662]
G0 X29.271 Y24.064 ; [2663]
G0 X30.356 Y24.064 ; [2664]
G0 X39.066 Y24.064 ; [2665]
G1 F1500 E246.33875 ; [2666]
G0 F9000 X39.336 Y24.334 ; [2667]
; [2668] TYPE:WALL-INNER
G1 F1500 X39.336 Y15.534 E246.63144 ; [2669]
G1 X30.536 Y15.534 E246.92413 ; [2670]
G1 X30.536 Y24.334 E247.21682 ; [2671]
G1 X39.336 Y24.334 E247.50951 ; [2672]
G0 F9000 X39.736 Y24.734 ; [2673]
; [2674] TYPE:WALL-OUTER
G1 F1500 X39.736 Y15.134 E247.8288 ; [2675]
G1 X30.136 Y15.134 E248.1481 ; [2676]
G1 X30.136 Y24.734 E248.4674 ; [2677]
G1 X39.736 Y24.734 E248.7867 ; [2678]
G0 F9000 X39.255 Y24.253 ; [2679]
; [2680] TYPE:FILL
G1 F3000 X30.615 Y15.613 E249.19309 ; [2681]
G0 F9000 X30.806 Y15.804 ; [2682]
G0 X30.836 Y17.464 ; [2683]
G0 X30.615 Y17.464 ; [2684]
G1 F3000 X32.466 Y15.613 E249.28016 ; [2685]
G0 F9000 X32.878 Y15.613 ; [2686]
G1 F3000 X39.255 Y21.991 E249.58014 ; [2687]
G0 F9000 X39.255 Y22.401 ; [2688]
G1 F3000 X37.403 Y24.253 E249.66725 ; [2689]
G0 F9000 X36.992 Y24.253 ; [2690]
G1 F3000 X30.614 Y17.875 E249.96725 ; [2691]
G0 F9000 X30.836 Y17.875 ; [2692]
G0 X30.836 Y19.727 ; [2693]
G0 X30.615 Y19.727 ; [2694]
G1 F3000 X34.729 Y15.613 E250.16076 ; [2695]
G0 F9000 X35.141 Y15.613 ; [2696]
G1 F3000 X39.255 Y19.728 E250.3543 ; [2697]
G0 F9000 X39.255 Y20.139 ; [2698]
G1 F3000 X35.14 Y24.253 E250.54783 ; [2699]
G0 F9000 X34.73 Y24.253 ; [2700]
G1 F3000 X30.614 Y20.138 E250.74141 ; [2701]
G0 F9000 X30.836 Y20.138 ; [2702]
G0 X30.836 Y21.99 ; [2703]
G0 X30.615 Y21.99 ; [2704]
G1 F3000 X36.992 Y15.613 E251.04136 ; [2705]
G0 F9000 X37.403 Y15.613 ; [2706]
G1 F3000 X39.255 Y17.465 E251.12848 ; [2707]
G0 F9000 X39.255 Y17.876 ; [2708]
G1 F3000 X32.877 Y24.253 E251.42845 ; [2709]
G0 F9000 X32.467 Y24.253 ; [2710]
G1 F3000 X30.614 Y22.401 E251.51559 ; [2711]
G0 F9000 X30.836 Y22.401 ; [2712]
G0 X30.806 Y24.064 ; [2713]
G0 X30.614 Y24.253 ; [2714]
G1 F3000 X39.255 Y15.613 E251.92201 ; [2715]
G0 F9000 X38.736 Y16.016 ; [2716]
G1 F1500 E245.42201 ; [2717]
; [2718] MESH:Router test.3mf(2)
G0 F9000 X39.066 Y24.514 ; [2719]
G0 X39.066 Y25.599 ; [2720]
G0 X39.066 Y29.269 ; [2721]
G0 X39.066 Y30.354 ; [2722]
G0 X39.066 Y39.064 ; [2723]
G1 F1500 E251.92201 ; [2724]
G0 F9000 X39.336 Y39.334 ; [2725]
; [2726] TYPE:WALL-INNER
G1 F1500 X39.336 Y30.534 E252.2147 ; [2727]
G1 X30.536 Y30.534 E252.50739 ; [2728]
G1 X30.536 Y39.334 E252.80008 ; [2729]
G1 X39.336 Y39.334 E253.09277 ; [2730]
G0 F9000 X39.736 Y39.734 ; [2731]
; [2732] TYPE:WALL-OUTER
G1 F1500 X39.736 Y30.134 E253.41207 ; [2733]
G1 X30.136 Y30.134 E253.73136 ; [2734]
G1 X30.136 Y39.734 E254.05066 ; [2735]
G1 X39.736 Y39.734 E254.36996 ; [2736]
G0 F9000 X39.255 Y39.253 ; [2737]
; [2738] TYPE:FILL
G1 F3000 X30.615 Y30.614 E254.77633 ; [2739]
G0 F9000 X30.806 Y30.804 ; [2740]
G0 X30.836 Y32.464 ; [2741]
G0 X30.616 Y32.464 ; [2742]
G1 F3000 X32.466 Y30.614 E254.86335 ; [2743]
G0 F9000 X32.878 Y30.614 ; [2744]
G1 F3000 X39.255 Y36.99 E255.16328 ; [2745]
G0 F9000 X39.255 Y37.402 ; [2746]
G1 F3000 X37.403 Y39.253 E255.25037 ; [2747]
G0 F9000 X36.991 Y39.252 ; [2748]
G1 F3000 X30.615 Y32.876 E255.55028 ; [2749]
G0 F9000 X30.836 Y32.876 ; [2750]
G0 X30.836 Y34.727 ; [2751]
G0 X30.616 Y34.727 ; [2752]
G1 F3000 X34.729 Y30.614 E255.74374 ; [2753]
G0 F9000 X35.141 Y30.614 ; [2754]
G1 F3000 X39.255 Y34.728 E255.93725 ; [2755]
G0 F9000 X39.255 Y35.139 ; [2756]
