;FLAVOR:Marlin
;TIME:3434
;Filament used: 2.03724m
;Layer height: 0.2
;MINX:24
;MINY:34.01
;MINZ:0.2
;MAXX:81
;MAXY:120.99
;MAXZ:15
;Generated with Cura_SteamEngine main
M82 ;absolute extrusion mode
; Ender 3 Custom Start G-code
G92 E0 ; Reset Extruder
G28 ; Home all axes
M104 S175 ; Start heating up the nozzle most of the way
M190 S60 ; Start heating the bed, wait until target temperature reached
M109 S200 ; Finish heating the nozzle
G1 Z2.0 F3000 ; Move Z Axis up little to prevent scratching of Heat Bed
G1 X0.1 Y20 Z0.3 F5000.0 ; Move to start position
G1 X100 Y20 Z0.3 F1500.0 E12 ; Draw the first line
G1 X100 Y20.3 Z0.3 F5000.0 ; Move to side a little
G1 X0.1 Y20.3 Z0.3 F1500.0 E24 ; Draw the second line
G92 E0 ; Reset Extruder
G1 Z2.0 F3000 ; Move Z Axis up little to prevent scratching of Heat Bed
G1 X5 Y20 Z0.3 F5000.0 ; Move over to prevent blob squish
G92 E0
G92 E0
G1 F2100 E-6.5
;LAYER_COUNT:75
;LAYER:0
M107
G0 F6000 X42.405 Y38.171 Z0.2
;TYPE:SKIRT
G1 F2100 E0
G1 F1200 X42.889 Y37.7 E0.02246
G1 X43.564 Y37.099 E0.05252
G1 X44.289 Y36.561 E0.08255
G1 X45.059 Y36.089 E0.11259
G1 X45.867 Y35.686 E0.14262
G1 X46.708 Y35.357 E0.17266
G1 X47.575 Y35.103 E0.2027
G1 X48.461 Y34.927 E0.23275
G1 X49.358 Y34.83 E0.26276
G1 X50.088 Y34.81 E0.28705
G1 X53.213 Y34.836 E0.39099
G1 X54.828 Y34.811 E0.44471
G1 X55.731 Y34.837 E0.47476
G1 X56.628 Y34.943 E0.5048
G1 X57.512 Y35.128 E0.53484
G1 X58.376 Y35.39 E0.56487
G1 X59.213 Y35.727 E0.59488
G1 X60.018 Y36.138 E0.62494
G1 X60.783 Y36.617 E0.65496
G1 X61.503 Y37.163 E0.68501
G1 X62.061 Y37.663 E0.70993
G1 X62.71 Y38.288 E0.7399
G1 X76.829 Y52.406 E1.40399
G1 X77.299 Y52.889 E1.42641
G1 X77.9 Y53.563 E1.45644
G1 X78.438 Y54.288 E1.48647
G1 X78.911 Y55.058 E1.51653
G1 X79.313 Y55.866 E1.54654
G1 X79.642 Y56.707 E1.57658
G1 X79.896 Y57.574 E1.60663
G1 X80.072 Y58.46 E1.63667
G1 X80.169 Y59.358 E1.66671
G1 X80.183 Y60.358 E1.69998
G1 X80.087 Y63.107 E1.79146
G1 X80.07 Y65.644 E1.87585
G1 X80.125 Y68.197 E1.96078
G1 X80.166 Y69.059 E1.98948
G1 X80.2 Y70.33 E2.03177
G1 X80.199 Y84.415 E2.50024
G1 X80.181 Y85.426 E2.53387
G1 X80.152 Y86.109 E2.55661
G1 X80.078 Y88.737 E2.64405
G1 X80.078 Y91.271 E2.72833
G1 X80.151 Y93.854 E2.81428
G1 X80.181 Y94.546 E2.83731
G1 X80.179 Y95.449 E2.86735
G1 X80.099 Y96.349 E2.8974
G1 X79.938 Y97.237 E2.92742
G1 X79.7 Y98.108 E2.95745
G1 X79.386 Y98.955 E2.98749
G1 X78.998 Y99.771 E3.01755
G1 X78.54 Y100.549 E3.04757
G1 X78.014 Y101.283 E3.07761
G1 X77.335 Y102.063 E3.112
G1 X76.701 Y102.721 E3.14239
G1 X62.597 Y116.827 E3.80585
G1 X62.104 Y117.306 E3.82871
G1 X61.429 Y117.906 E3.85875
G1 X60.704 Y118.444 E3.88878
G1 X59.933 Y118.915 E3.91883
G1 X59.125 Y119.317 E3.94884
G1 X58.283 Y119.646 E3.97891
G1 X57.416 Y119.899 E4.00895
G1 X56.531 Y120.074 E4.03896
G1 X55.633 Y120.17 E4.06899
G1 X54.911 Y120.19 E4.09302
G1 X51.787 Y120.164 E4.19692
G1 X50.172 Y120.189 E4.25065
G1 X49.269 Y120.163 E4.28069
G1 X48.372 Y120.057 E4.31073
G1 X47.488 Y119.872 E4.34077
G1 X46.624 Y119.61 E4.3708
G1 X45.787 Y119.273 E4.40081
G1 X44.982 Y118.862 E4.43088
G1 X44.217 Y118.383 E4.4609
G1 X43.497 Y117.837 E4.49095
G1 X42.937 Y117.335 E4.51596
G1 X42.279 Y116.701 E4.54635
G1 X28.163 Y102.587 E5.21028
G1 X27.693 Y102.103 E5.23272
G1 X27.094 Y101.428 E5.26274
G1 X26.556 Y100.702 E5.29279
G1 X26.084 Y99.932 E5.32283
G1 X25.683 Y99.123 E5.35286
G1 X25.354 Y98.282 E5.3829
G1 X25.102 Y97.415 E5.41293
G1 X24.927 Y96.529 E5.44296
G1 X24.831 Y95.631 E5.473
G1 X24.817 Y94.641 E5.50593
G1 X24.913 Y91.893 E5.59739
G1 X24.93 Y89.357 E5.68174
G1 X24.875 Y86.803 E5.7667
G1 X24.834 Y85.941 E5.79541
G1 X24.8 Y84.67 E5.83769
G1 X24.801 Y70.565 E6.30683
G1 X24.819 Y69.555 E6.34043
G1 X24.848 Y68.867 E6.36333
G1 X24.922 Y66.263 E6.44997
G1 X24.922 Y63.729 E6.53426
G1 X24.847 Y61.083 E6.6223
G1 X24.82 Y60.455 E6.6432
G1 X24.82 Y59.552 E6.67324
G1 X24.901 Y58.652 E6.70329
G1 X25.061 Y57.763 E6.73334
G1 X25.299 Y56.892 E6.76337
G1 X25.614 Y56.045 E6.79342
G1 X26.002 Y55.23 E6.82345
G1 X26.46 Y54.452 E6.85347
G1 X26.986 Y53.717 E6.88354
G1 X27.665 Y52.937 E6.91793
G1 X28.299 Y52.279 E6.94832
G1 X42.405 Y38.171 E7.61187
G0 F6000 X42.126 Y37.884
G1 F1200 X42.623 Y37.401 E7.63492
G1 X43.298 Y36.8 E7.66498
G1 X44.08 Y36.22 E7.69736
G1 X44.88 Y35.731 E7.72855
G1 X45.721 Y35.313 E7.75979
G1 X46.562 Y34.984 E7.78982
G1 X47.463 Y34.719 E7.82106
G1 X48.418 Y34.529 E7.85345
G1 X49.347 Y34.43 E7.88452
G1 X50.091 Y34.41 E7.90927
G1 X53.21 Y34.436 E8.01302
G1 X54.84 Y34.411 E8.06724
G1 X55.743 Y34.437 E8.09728
G1 X56.71 Y34.551 E8.12967
G1 X57.594 Y34.736 E8.15971
G1 X58.492 Y35.007 E8.1909
G1 X59.395 Y35.371 E8.22329
G1 X60.23 Y35.799 E8.25449
G1 X61.025 Y36.298 E8.28571
G1 X61.745 Y36.844 E8.31577
G1 X62.338 Y37.375 E8.34224
G1 X62.993 Y38.005 E8.37247
G1 X77.116 Y52.127 E9.03675
G1 X77.598 Y52.623 E9.05975
G1 X78.199 Y53.297 E9.08979
G1 X78.779 Y54.079 E9.12217
G1 X79.252 Y54.849 E9.15223
G1 X79.686 Y55.72 E9.18459
G1 X80.015 Y56.561 E9.21463
G1 X80.28 Y57.462 E9.24587
G1 X80.47 Y58.417 E9.27825
G1 X80.567 Y59.315 E9.30829
G1 X80.583 Y60.372 E9.34345
G1 X80.487 Y63.121 E9.43494
G1 X80.47 Y65.647 E9.51896
G1 X80.525 Y68.178 E9.60316
G1 X80.566 Y69.048 E9.63213
G1 X80.6 Y70.33 E9.67478
G1 X80.599 Y84.422 E10.14348
G1 X80.581 Y85.443 E10.17745
G1 X80.552 Y86.126 E10.20018
G1 X80.478 Y88.748 E10.28743
G1 X80.478 Y91.271 E10.37134
G1 X80.551 Y93.837 E10.45672
G1 X80.581 Y94.547 E10.48036
G1 X80.579 Y95.45 E10.51039
G1 X80.493 Y96.42 E10.54278
G1 X80.332 Y97.308 E10.5728
G1 X80.075 Y98.247 E10.60518
G1 X79.747 Y99.127 E10.63641
G1 X79.343 Y99.974 E10.66763
G1 X78.885 Y100.752 E10.69765
G1 X78.316 Y101.546 E10.73014
G1 X77.623 Y102.341 E10.76522
G1 X76.984 Y103.004 E10.79585
G1 X62.876 Y117.114 E11.45949
G1 X62.37 Y117.605 E11.48294
G1 X61.695 Y118.205 E11.51298
G1 X60.913 Y118.785 E11.54536
G1 X60.142 Y119.256 E11.57541
G1 X59.271 Y119.69 E11.60778
G1 X58.429 Y120.019 E11.63784
G1 X57.528 Y120.283 E11.66907
G1 X56.574 Y120.472 E11.70142
G1 X55.676 Y120.568 E11.73146
G1 X54.908 Y120.59 E11.75701
G1 X51.79 Y120.564 E11.86072
G1 X50.16 Y120.589 E11.91494
G1 X49.257 Y120.563 E11.94499
G1 X48.29 Y120.449 E11.97737
G1 X47.406 Y120.264 E12.00741
G1 X46.508 Y119.993 E12.03861
G1 X45.605 Y119.629 E12.07099
G1 X44.77 Y119.201 E12.1022
G1 X43.975 Y118.702 E12.13342
G1 X43.255 Y118.156 E12.16347
G1 X42.659 Y117.623 E12.19007
G1 X41.996 Y116.984 E12.22069
G1 X27.876 Y102.866 E12.88481
G1 X27.406 Y102.382 E12.90725
G1 X26.773 Y101.666 E12.93903
G1 X26.215 Y100.911 E12.97026
G1 X25.726 Y100.11 E13.00147
G1 X25.31 Y99.269 E13.03268
G1 X24.981 Y98.428 E13.06271
G1 X24.718 Y97.527 E13.09393
G1 X24.529 Y96.572 E13.12631
G1 X24.433 Y95.674 E13.15635
G1 X24.417 Y94.627 E13.19118
G1 X24.513 Y91.879 E13.28263
G1 X24.53 Y89.354 E13.36661
G1 X24.475 Y86.812 E13.45118
G1 X24.434 Y85.952 E13.47982
G1 X24.4 Y84.67 E13.52247
G1 X24.401 Y70.558 E13.99184
G1 X24.419 Y69.538 E14.02577
G1 X24.448 Y68.85 E14.04867
G1 X24.522 Y66.252 E14.13512
G1 X24.522 Y63.729 E14.21903
G1 X24.447 Y61.094 E14.30671
G1 X24.42 Y60.472 E14.32742
G1 X24.42 Y59.552 E14.35802
G1 X24.507 Y58.581 E14.39044
G1 X24.667 Y57.692 E14.42048
G1 X24.924 Y56.753 E14.45286
G1 X25.253 Y55.873 E14.48411
G1 X25.657 Y55.027 E14.51529
G1 X26.115 Y54.249 E14.54532
G1 X26.684 Y53.454 E14.57784
G1 X27.377 Y52.659 E14.61292
G1 X28.016 Y51.996 E14.64354
G1 X42.126 Y37.884 E15.30728
G0 F6000 X41.847 Y37.597
G1 F1200 X42.357 Y37.102 E15.33092
G1 X43.032 Y36.501 E15.36098
G1 X43.871 Y35.879 E15.39572
G1 X44.671 Y35.39 E15.4269
G1 X45.575 Y34.94 E15.46049
G1 X46.416 Y34.611 E15.49052
G1 X47.35 Y34.335 E15.52292
G1 X48.376 Y34.131 E15.55771
G1 X49.336 Y34.03 E15.58981
G1 X50.094 Y34.01 E15.61503
G1 X53.207 Y34.036 E15.71858
G1 X54.852 Y34.011 E15.7733
G1 X55.755 Y34.037 E15.80334
G1 X56.792 Y34.159 E15.83807
G1 X57.676 Y34.344 E15.86811
G1 X58.642 Y34.636 E15.90168
G1 X59.545 Y35 E15.93406
G1 X60.443 Y35.46 E15.96762
G1 X61.267 Y35.979 E16.00001
G1 X61.987 Y36.525 E16.03006
G1 X62.615 Y37.087 E16.05809
G1 X63.276 Y37.722 E16.08858
G1 X77.403 Y51.848 E16.75304
G1 X77.897 Y52.357 E16.77663
G1 X78.498 Y53.031 E16.80667
G1 X79.12 Y53.87 E16.84141
G1 X79.593 Y54.64 E16.87146
G1 X80.059 Y55.574 E16.90618
G1 X80.388 Y56.415 E16.93622
G1 X80.664 Y57.349 E16.96861
G1 X80.868 Y58.374 E17.00337
G1 X80.965 Y59.272 E17.03341
G1 X80.983 Y60.386 E17.07047
G1 X80.887 Y63.135 E17.16196
G1 X80.87 Y65.65 E17.24561
G1 X80.925 Y68.159 E17.32908
G1 X80.966 Y69.037 E17.35831
G1 X81 Y70.33 E17.40133
G1 X80.999 Y84.429 E17.87027
G1 X80.981 Y85.46 E17.90456
G1 X80.952 Y86.143 E17.9273
G1 X80.878 Y88.759 E18.01434
G1 X80.878 Y91.271 E18.09789
G1 X80.951 Y93.82 E18.18271
G1 X80.981 Y94.548 E18.20694
G1 X80.979 Y95.451 E18.23697
G1 X80.887 Y96.491 E18.2717
G1 X80.718 Y97.414 E18.30291
G1 X80.45 Y98.387 E18.33648
G1 X80.122 Y99.267 E18.36771
G1 X79.688 Y100.177 E18.40125
G1 X79.23 Y100.955 E18.43127
G1 X78.618 Y101.809 E18.46622
G1 X77.911 Y102.619 E18.50198
G1 X77.267 Y103.287 E18.53284
G1 X63.155 Y117.401 E19.19667
G1 X62.636 Y117.904 E19.22071
G1 X61.961 Y118.504 E19.25075
G1 X61.122 Y119.126 E19.28548
G1 X60.351 Y119.597 E19.31553
G1 X59.417 Y120.063 E19.35025
G1 X58.575 Y120.392 E19.38032
G1 X57.64 Y120.667 E19.41273
G1 X56.617 Y120.87 E19.44742
G1 X55.687 Y120.968 E19.47853
G1 X54.905 Y120.99 E19.50455
G1 X51.793 Y120.964 E19.60805
G1 X50.148 Y120.989 E19.66277
G1 X49.245 Y120.963 E19.69282
G1 X48.208 Y120.841 E19.72755
G1 X47.324 Y120.656 E19.75759
G1 X46.358 Y120.364 E19.79115
G1 X45.455 Y120 E19.82354
G1 X44.557 Y119.54 E19.85709
G1 X43.733 Y119.021 E19.88948
G1 X43.013 Y118.475 E19.91954
G1 X42.381 Y117.911 E19.94771
G1 X41.713 Y117.267 E19.97857
G1 X27.589 Y103.145 E20.64287
G1 X27.106 Y102.647 E20.66595
G1 X26.451 Y101.904 E20.69889
G1 X25.893 Y101.149 E20.73012
G1 X25.367 Y100.287 E20.7637
G1 X24.937 Y99.415 E20.79604
G1 X24.608 Y98.574 E20.82608
G1 X24.334 Y97.639 E20.85848
G1 X24.131 Y96.615 E20.89321
G1 X24.035 Y95.717 E20.92324
G1 X24.017 Y94.613 E20.95997
G1 X24.113 Y91.865 E21.05142
G1 X24.13 Y89.351 E21.13504
G1 X24.075 Y86.821 E21.21921
G1 X24.034 Y85.963 E21.24778
G1 X24 Y84.67 E21.2908
G1 X24.001 Y70.551 E21.7604
G1 X24.019 Y69.521 E21.79466
G1 X24.048 Y68.833 E21.81756
G1 X24.122 Y66.241 E21.90381
G1 X24.122 Y63.729 E21.98736
G1 X24.047 Y61.105 E22.07467
G1 X24.02 Y60.489 E22.09518
G1 X24.02 Y59.552 E22.12634
G1 X24.113 Y58.51 E22.16114
G1 X24.281 Y57.586 E22.19237
G1 X24.549 Y56.613 E22.22594
G1 X24.878 Y55.733 E22.25719
G1 X25.312 Y54.824 E22.29069
G1 X25.77 Y54.046 E22.32072
G1 X26.382 Y53.191 E22.35569
G1 X27.089 Y52.381 E22.39145
G1 X27.733 Y51.713 E22.42231
G1 X41.847 Y37.597 E23.08624
G1 F2100 E16.58624
;MESH:Decoration v5.3mf(4)
G0 F6000 X48.834 Y45.226
G0 X36.452 Y59.4
;TYPE:WALL-INNER
G1 F2100 E23.08624
G1 F1200 X49.4 Y59.4 E23.51689
G1 X49.4 Y46.452 E23.94754
G1 X36.452 Y59.4 E24.55658
G0 F6000 X36.929 Y59.066
G0 X36.058 Y59.562
G0 X35.486 Y59.8
;TYPE:WALL-OUTER
G1 F1200 X49.8 Y59.8 E25.03266
G1 X49.8 Y45.486 E25.50875
G1 X35.486 Y59.8 E26.18203
G0 F6000 X36.058 Y59.562
G0 X37.14 Y58.855
G0 X37.325 Y59.04
;TYPE:SKIN
G1 F1200 X49.04 Y47.325 E26.73307
G1 X49.04 Y59.04 E27.12271
G1 X37.325 Y59.04 E27.51236
G0 F6000 X38.141 Y58.506
G1 F1200 X38.474 Y58.839 E27.52802
G0 F6000 X39.04 Y58.839
G1 F1200 X38.424 Y58.223 E27.55699
G0 F6000 X38.707 Y57.94
G1 F1200 X39.605 Y58.839 E27.59926
G0 F6000 X40.171 Y58.839
G1 F1200 X38.989 Y57.657 E27.65485
G0 F6000 X39.272 Y57.374
G1 F1200 X40.737 Y58.839 E27.72376
G0 F6000 X41.302 Y58.839
G1 F1200 X39.555 Y57.091 E27.80596
G0 F6000 X39.838 Y56.808
G1 F1200 X41.868 Y58.839 E27.90147
G0 F6000 X42.434 Y58.839
G1 F1200 X40.121 Y56.526 E28.01027
G0 F6000 X40.404 Y56.243
G1 F1200 X42.999 Y58.839 E28.13235
G0 F6000 X43.565 Y58.839
G1 F1200 X40.686 Y55.96 E28.26777
G0 F6000 X40.969 Y55.677
G1 F1200 X44.131 Y58.839 E28.4165
G0 F6000 X44.696 Y58.839
G1 F1200 X41.252 Y55.394 E28.57852
G0 F6000 X41.535 Y55.111
G1 F1200 X45.262 Y58.839 E28.75385
G0 F6000 X45.828 Y58.839
G1 F1200 X41.818 Y54.829 E28.94247
G0 F6000 X42.101 Y54.546
G1 F1200 X46.393 Y58.839 E29.14437
G0 F6000 X46.959 Y58.839
G1 F1200 X42.383 Y54.263 E29.35961
G0 F6000 X42.666 Y53.98
G1 F1200 X47.525 Y58.839 E29.58817
G0 F6000 X48.091 Y58.839
G1 F1200 X42.949 Y53.697 E29.83003
G0 F6000 X43.232 Y53.414
G1 F1200 X48.656 Y58.839 E30.08518
G0 F6000 X48.839 Y58.456
G1 F1200 X43.515 Y53.132 E30.33561
G0 F6000 X43.798 Y52.849
G1 F1200 X48.839 Y57.89 E30.57272
G0 F6000 X48.839 Y57.325
G1 F1200 X44.081 Y52.566 E30.79655
G0 F6000 X44.363 Y52.283
G1 F1200 X48.839 Y56.759 E31.00708
G0 F6000 X48.839 Y56.193
G1 F1200 X44.646 Y52 E31.20431
G0 F6000 X44.929 Y51.717
G1 F1200 X48.839 Y55.628 E31.38825
G0 F6000 X48.839 Y55.062
G1 F1200 X45.212 Y51.434 E31.55887
G0 F6000 X45.495 Y51.152
G1 F1200 X48.839 Y54.496 E31.71616
G0 F6000 X48.839 Y53.931
G1 F1200 X45.778 Y50.869 E31.86017
G0 F6000 X46.06 Y50.586
G1 F1200 X48.839 Y53.365 E31.99088
G0 F6000 X48.839 Y52.799
G1 F1200 X46.343 Y50.303 E32.10829
G0 F6000 X46.626 Y50.02
G1 F1200 X48.839 Y52.233 E32.21238
G0 F6000 X48.839 Y51.668
G1 F1200 X46.909 Y49.737 E32.30319
G0 F6000 X47.192 Y49.455
G1 F1200 X48.839 Y51.102 E32.38065
G0 F6000 X48.839 Y50.536
G1 F1200 X47.475 Y49.172 E32.44481
G0 F6000 X47.757 Y48.889
G1 F1200 X48.839 Y49.971 E32.49571
G0 F6000 X48.839 Y49.405
G1 F1200 X48.04 Y48.606 E32.53329
G0 F6000 X48.323 Y48.323
G1 F1200 X48.839 Y48.839 E32.55756
G0 F6000 X48.839 Y48.274
G1 F1200 X48.606 Y48.04 E32.56854
G1 F2100 E26.06854
;MESH:Decoration v5.3mf(1)
G0 F6000 X48.281 Y47.714
G0 X49.215 Y46.899
G0 X49.58 Y59.067
G0 X50.665 Y59.067
G0 X54.335 Y59.067
G0 X55.42 Y59.067
G0 X55.791 Y59.114
G0 X68.032 Y59.185
G0 X68.546 Y59.399
;TYPE:WALL-INNER
G1 F2100 E32.56854
G1 F1200 X55.601 Y46.452 E33.17748
G1 X55.601 Y59.399 E33.6081
G1 X68.546 Y59.399 E34.03866
G0 F6000 X68.072 Y59.067
G0 X68.942 Y59.562
G0 X69.511 Y59.799
;TYPE:WALL-OUTER
G1 F1200 X55.201 Y45.486 E34.71182
G1 X55.201 Y59.799 E35.18788
G1 X69.511 Y59.799 E35.66383
G0 F6000 X68.942 Y59.562
G0 X67.67 Y59.299
G0 X67.67 Y59.038
;TYPE:SKIN
G1 F1200 X55.962 Y59.038 E36.05324
G1 X55.962 Y47.325 E36.44282
G1 X67.67 Y59.038 E36.99364
G0 F6000 X67.67 Y59.299
G0 X56.574 Y59.299
G0 X56.574 Y58.837
G1 F1200 X56.161 Y58.423 E37.01309
G0 F6000 X56.161 Y57.858
G1 F1200 X57.14 Y58.837 E37.05914
G0 F6000 X57.706 Y58.837
G1 F1200 X56.161 Y57.292 E37.13181
G0 F6000 X56.161 Y56.726
G1 F1200 X58.271 Y58.837 E37.23108
G0 F6000 X58.837 Y58.837
G1 F1200 X56.161 Y56.161 E37.35695
G0 F6000 X56.161 Y55.595
G1 F1200 X59.403 Y58.837 E37.50945
G0 F6000 X59.969 Y58.837
G1 F1200 X56.161 Y55.029 E37.68856
G0 F6000 X56.161 Y54.464
G1 F1200 X60.534 Y58.837 E37.89426
G0 F6000 X61.1 Y58.837
G1 F1200 X56.161 Y53.898 E38.12657
G0 F6000 X56.161 Y53.332
G1 F1200 X61.666 Y58.837 E38.38551
G0 F6000 X62.231 Y58.837
G1 F1200 X56.161 Y52.767 E38.67103
G0 F6000 X56.161 Y52.201
G1 F1200 X62.797 Y58.837 E38.98316
G0 F6000 X63.363 Y58.837
G1 F1200 X56.161 Y51.635 E39.32192
G0 F6000 X56.161 Y51.07
G1 F1200 X63.928 Y58.837 E39.68726
G0 F6000 X64.494 Y58.837
G1 F1200 X56.161 Y50.504 E40.07922
G0 F6000 X56.161 Y49.938
G1 F1200 X65.06 Y58.837 E40.4978
G0 F6000 X65.625 Y58.837
G1 F1200 X56.161 Y49.373 E40.94296
G0 F6000 X56.161 Y48.807
G1 F1200 X66.191 Y58.837 E41.41474
G0 F6000 X66.757 Y58.837
G1 F1200 X56.161 Y48.241 E41.91314
G1 F2100 E35.41314
;MESH:Decoration v5.3mf
G0 F6000 X55.701 Y48.241
G0 X55.6 Y59.58
G0 X55.6 Y60.665
G0 X55.6 Y69.335
G0 X55.6 Y84.4
;TYPE:WALL-INNER
G1 F2100 E41.91314
G1 F1200 X69.4 Y84.4 E42.37213
G1 X69.4 Y70.6 E42.83112
G1 X55.6 Y70.6 E43.29011
G1 X55.6 Y84.4 E43.7491
G0 F6000 X55.2 Y84.8
;TYPE:WALL-OUTER
G1 F1200 X69.8 Y84.8 E44.2347
G1 X69.8 Y70.2 E44.7203
G1 X55.2 Y70.2 E45.20589
G1 X55.2 Y84.8 E45.69149
G0 F6000 X55.47 Y84.53
G0 X55.7 Y84.04
G0 X55.96 Y84.04
;TYPE:SKIN
G1 F1200 X55.96 Y70.96 E46.12653
G1 X69.04 Y70.96 E46.56158
G1 X69.04 Y84.04 E46.99662
G1 X55.96 Y84.04 E47.43166
G0 F6000 X56.685 Y83.838
G1 F1200 X56.159 Y83.312 E47.4564
G0 F6000 X56.159 Y82.747
G1 F1200 X57.251 Y83.838 E47.50774
