; generated by PrusaSlicer 2.7.3+MacOS-arm64 on 2024-03-29 at 00:22:42 UTC















; external perimeters extrusion width = 0.45mm
; perimeters extrusion width = 0.45mm
; infill extrusion width = 0.45mm
; solid infill extrusion width = 0.45mm
; top infill extrusion width = 0.42mm
; first layer extrusion width = 0.50mm

; external perimeters extrusion width = 0.45mm
; perimeters extrusion width = 0.45mm
; infill extrusion width = 0.45mm
; solid infill extrusion width = 0.45mm
; top infill extrusion width = 0.42mm
; first layer extrusion width = 0.50mm

; external perimeters extrusion width = 0.45mm
; perimeters extrusion width = 0.45mm
; infill extrusion width = 0.45mm
; solid infill extrusion width = 0.45mm
; top infill extrusion width = 0.42mm
; first layer extrusion width = 0.50mm

M73 P0 R3
M201 X4000 Y4000 Z400 E5000 ; sets maximum accelerations, mm/sec^2
M203 X400 Y400 Z12 E80 ; sets maximum feedrates, mm / sec
M204 P4000 R1250 T4000 ; sets acceleration (P, T) and retract acceleration (R), mm/sec^2
M205 X8.0 Y8.0 Z2.0 E10.0 ; sets the jerk limits, mm/sec
M205 S0 T0 ; sets the minimum extruding and travel feed rate, mm/sec

M486 S0
M486 ABody2
M486 S-1
M486 S1
M486 ABody3
M486 S-1
M486 S2
M486 ABody1
M486 S-1

; TYPE:Custom
M862.3 P "MINI" ; printer model check
M862.1 P0.4 ; nozzle diameter check
M862.5 P2 ; g-code level check
M862.6 P"Input shaper" ; FW feature check
M115 U5.1.2+13478
G90 ; use absolute coordinates
M83 ; extruder relative mode
M104 S170 ; set extruder temp for bed leveling
M140 S60 ; set bed temp
M109 R170 ; wait for bed leveling temp
; --- Printer state ---
; Bed(0, 0, { 45.00,   0.00,   0.00})
; Print head: {  0.00,   0.00,   0.00}
M190 S60 ; wait for bed temp
M569 S1 X Y ; set stealthchop for X Y
M204 T1250 ; set travel acceleration
G28 X Y Z ; Home only X, Y, and Z axes, but avoid trying to home A
G29 ; mesh bed leveling
M104 S230 ; set extruder temp
G92 E0

G1 X0 Y-2 Z3 F2400

M109 S230 ; wait for extruder temp
; --- Printer state ---
; Bed(0, 0, { 45.00,   0.00,   0.00})
; Print head: {  0.00,  -2.00,   3.00}

; intro line
G1 X10 Z0.2 F1000
G1 X70 E8 F900
G1 X140 E10 F700
M73 P2 R3
G92 E0

M569 S0 X Y ; set spreadcycle for X Y
M204 T4000 ; restore travel acceleration
M572 W0.06 ; set smooth time
M221 S95 ; set flow
G21 ; set units to millimeters
G90 ; use absolute coordinates
M83 ; use relative distances for extrusion
M572 S0.27
M107
; ==== Start layer 0 ====
; ::: Layer 0 postamble :::
; LAYER_CHANGE
; Z:0.2
; HEIGHT:0.2
G1 E-2.5 F4200
M73 P4 R3
G1 Z0.4 F720
M486 S2
G1 X105.103 Y57.046 F24000
G1 Z0.2 F720
G1 E0.0 F2400
M204 P500
; TYPE:Perimeter
; WIDTH:0.499999
G1 F1800
G1 X94.218 Y57.046 E0.4137
G1 X94.218 Y46.16 E0.41374
M73 P5 R3
G1 X105.103 Y46.16 E0.4137
G1 X105.103 Y51.603 E0.20687
G1 X105.103 Y56.986 E0.20459
M204 P2000
M204 T4000
G1 X105.103 Y56.986 F24000
G1 X105.56 Y57.503
M204 P500
; TYPE:External perimeter
G1 F1800
G1 X93.76 Y57.503 E0.44847
G1 X93.76 Y45.703 E0.44847
G1 X105.56 Y45.703 E0.44847
G1 X105.56 Y51.603 E0.22424
M73 P6 R3
G1 X105.56 Y57.443 E0.22196
M204 P2000
G1 X105.165 Y57.502 F24000
G1 E0.94421 F4200
G1 Z0.4 F720
G1 X104.921 Y47.287 F24000
G1 Z0.2 F720
G1 E3.44421 F2400
M204 P500
; TYPE:Solid infill
; WIDTH:0.50987
G1 F1800
G1 X104.181 Y46.548 E0.04061
G1 X103.521 Y46.548 E0.02563
G1 X104.715 Y47.742 E0.06556
G1 X104.715 Y48.402 E0.02563
G1 X102.861 Y46.548 E0.1018
G1 X102.2 Y46.548 E0.02566
G1 X104.715 Y49.063 E0.1381
G1 X104.715 Y49.723 E0.02563
G1 X101.54 Y46.548 E0.17434
G1 X100.879 Y46.548 E0.02566
G1 X104.715 Y50.384 E0.21063
G1 X104.715 Y51.044 E0.02563
G1 X100.219 Y46.548 E0.24687
G1 X99.559 Y46.548 E0.02563
G1 X104.715 Y51.704 E0.28311
G1 X104.715 Y52.365 E0.02566
M73 P7 R3
G1 X98.898 Y46.548 E0.31941
G1 X98.238 Y46.548 E0.02563
G1 X104.715 Y53.025 E0.35565
G1 X104.715 Y53.685 E0.02563
G1 X97.578 Y46.548 E0.39189
G1 X96.917 Y46.548 E0.02566
G1 X104.715 Y54.346 E0.42819
G1 X104.715 Y55.006 E0.02563
G1 X96.257 Y46.548 E0.46443
G1 X95.597 Y46.548 E0.02563
G1 X104.715 Y55.667 E0.50069
G1 X104.715 Y56.327 E0.02563
M73 P8 R3
G1 X94.936 Y46.548 E0.53696
G1 X94.606 Y46.548 E0.01281
G1 X94.606 Y46.878 E0.01281
G1 X104.385 Y56.657 E0.53696
G1 X103.724 Y56.657 E0.02566
G1 X94.606 Y47.539 E0.50067
G1 X94.606 Y48.199 E0.02563
G1 X103.064 Y56.657 E0.46443
G1 X102.404 Y56.657 E0.02563
M73 P9 R3
G1 X94.606 Y48.86 E0.42816
G1 X94.606 Y49.52 E0.02563
G1 X101.743 Y56.657 E0.39189
G1 X101.083 Y56.657 E0.02563
G1 X94.606 Y50.18 E0.35565
G1 X94.606 Y50.841 E0.02566
G1 X100.422 Y56.657 E0.31936
G1 X99.762 Y56.657 E0.02563
G1 X94.606 Y51.501 E0.28311
G1 X94.606 Y52.161 E0.02563
G1 X99.102 Y56.657 E0.24687
G1 X98.441 Y56.657 E0.02566
G1 X94.606 Y52.822 E0.21058
G1 X94.606 Y53.482 E0.02563
M73 P10 R3
G1 X97.781 Y56.657 E0.17434
G1 X97.121 Y56.657 E0.02563
G1 X94.606 Y54.142 E0.1381
G1 X94.606 Y54.803 E0.02566
G1 X96.46 Y56.657 E0.1018
G1 X95.8 Y56.657 E0.02563
G1 X94.606 Y55.463 E0.06556
G1 X94.606 Y56.124 E0.02566
G1 X95.345 Y56.863 E0.04058
M204 P2000
G1 E10.20404 F4200
G1 X95.345 Y56.863 Z0.4 F24000
M486 S-1
M486 S0
G1 X96.32 Y83.409
G1 Z0.2 F720
G1 E12.70404 F2400
M204 P500
; TYPE:Perimeter
; WIDTH:0.499999
G1 F1800
G1 X95.727 Y83.548 E0.02315
G1 X95.124 Y83.632 E0.02314
G1 X94.516 Y83.66 E0.02313
G1 X93.907 Y83.632 E0.02317
G1 X93.304 Y83.548 E0.02314
G1 X92.712 Y83.409 E0.02311
G1 X92.134 Y83.215 E0.02317
G1 X91.577 Y82.969 E0.02314
G1 X91.052 Y82.677 E0.02283
G1 X90.299 Y82.135 E0.03526
G1 X89.854 Y81.73 E0.02287
G1 X89.444 Y81.28 E0.02314
G1 X89.082 Y80.8 E0.02285
G1 X88.612 Y79.999 E0.0353
G1 X88.369 Y79.45 E0.02282
G1 X88.175 Y78.872 E0.02317
G1 X88.036 Y78.28 E0.02311
G1 X87.952 Y77.677 E0.02314
G1 X87.924 Y77.068 E0.02317
G1 X87.952 Y76.46 E0.02313
G1 X88.036 Y75.857 E0.02314
G1 X88.175 Y75.264 E0.02315
G1 X88.369 Y74.687 E0.02314
G1 X88.615 Y74.13 E0.02314
G1 X88.907 Y73.605 E0.02283
G1 X89.45 Y72.851 E0.03531
G1 X89.854 Y72.407 E0.02281
G1 X90.314 Y71.989 E0.02362
G1 X90.784 Y71.635 E0.02236
G1 X91.585 Y71.164 E0.03532
G1 X92.134 Y70.921 E0.02282
G1 X92.712 Y70.728 E0.02316
G1 X93.304 Y70.588 E0.02312
G1 X93.907 Y70.504 E0.02314
G1 X94.528 Y70.476 E0.02363
G1 X95.116 Y70.504 E0.02237
G1 X95.703 Y70.6 E0.02261
G1 X96.354 Y70.745 E0.02535
G1 X96.908 Y70.933 E0.02223
G1 X97.458 Y71.177 E0.02287
G1 X97.986 Y71.472 E0.02299
G1 X98.487 Y71.815 E0.02308
G1 X98.954 Y72.204 E0.0231
G1 X99.383 Y72.633 E0.02306
G1 X99.772 Y73.101 E0.02313
G1 X100.115 Y73.603 E0.02311
G1 X100.411 Y74.134 E0.02311
M73 P11 R3
G1 X100.656 Y74.69 E0.02309
G1 X100.85 Y75.267 E0.02314
G1 X100.989 Y75.859 E0.02311
G1 X101.073 Y76.462 E0.02314
G1 X101.101 Y77.068 E0.02306
G1 X101.101 Y77.373 E0.01159
G1 X101.045 Y77.979 E0.02313
G1 X100.933 Y78.578 E0.02316
G1 X100.766 Y79.163 E0.02312
G1 X100.546 Y79.731 E0.02315
G1 X100.275 Y80.276 E0.02313
G1 X99.954 Y80.794 E0.02316
G1 X99.587 Y81.28 E0.02315
G1 X99.177 Y81.73 E0.02314
G1 X98.727 Y82.14 E0.02314
G1 X98.241 Y82.507 E0.02315
G1 X97.73 Y82.823 E0.02283
G1 X96.89 Y83.218 E0.03528
G1 X96.377 Y83.39 E0.02056
M204 P2000
G1 X96.377 Y83.39 F24000
G1 X96.445 Y83.849
M204 P500
; TYPE:External perimeter
G1 F1800
G1 X95.811 Y83.998 E0.02475
G1 X95.166 Y84.088 E0.02475
G1 X94.516 Y84.118 E0.02473
G1 X93.865 Y84.088 E0.02477
G1 X93.22 Y83.998 E0.02475
G1 X92.587 Y83.849 E0.02472
G1 X91.969 Y83.642 E0.02477
G1 X91.373 Y83.379 E0.02476
G1 X90.807 Y83.063 E0.02464
G1 X90.01 Y82.49 E0.03731
G1 X89.531 Y82.053 E0.02464
G1 X89.092 Y81.572 E0.02475
G1 X88.701 Y81.054 E0.02467
G1 X88.204 Y80.208 E0.03729
G1 X87.942 Y79.615 E0.02464
G1 X87.735 Y78.998 E0.02473
G1 X87.586 Y78.364 E0.02475
G1 X87.496 Y77.719 E0.02475
G1 X87.466 Y77.068 E0.02477
G1 X87.496 Y76.418 E0.02473
G1 X87.586 Y75.773 E0.02475
G1 X87.735 Y75.139 E0.02475
G1 X87.942 Y74.522 E0.02473
G1 X88.205 Y73.926 E0.02476
G1 X88.521 Y73.359 E0.02467
G1 X89.094 Y72.563 E0.03728
G1 X89.531 Y72.083 E0.02467
G1 X90.022 Y71.637 E0.02521
G1 X90.53 Y71.254 E0.02418
G1 X91.376 Y70.757 E0.03729
G1 X91.969 Y70.495 E0.02464
G1 X92.587 Y70.288 E0.02477
G1 X93.22 Y70.139 E0.02472
G1 X93.865 Y70.049 E0.02475
G1 X94.528 Y70.019 E0.02522
G1 X95.164 Y70.049 E0.0242
G1 X95.777 Y70.149 E0.02361
G1 X96.479 Y70.305 E0.02733
G1 X97.073 Y70.507 E0.02385
G1 X97.662 Y70.768 E0.02449
G1 X98.227 Y71.084 E0.0246
G1 X98.762 Y71.45 E0.02464
G1 X99.262 Y71.866 E0.02472
G1 X99.721 Y72.325 E0.02467
G1 X100.136 Y72.826 E0.02473
G1 X100.504 Y73.362 E0.02471
G1 X100.82 Y73.93 E0.0247
G1 X101.083 Y74.525 E0.02472
G1 X101.289 Y75.142 E0.02472
G1 X101.438 Y75.775 E0.02472
G1 X101.528 Y76.42 E0.02475
G1 X101.558 Y77.068 E0.02465
G1 X101.558 Y77.394 E0.01239
G1 X101.498 Y78.042 E0.02473
G1 X101.378 Y78.682 E0.02475
G1 X101.2 Y79.309 E0.02477
G1 X100.965 Y79.916 E0.02474
G1 X100.675 Y80.499 E0.02475
G1 X100.332 Y81.052 E0.02473
G1 X99.939 Y81.572 E0.02477
G1 X99.501 Y82.053 E0.02472
G1 X99.019 Y82.492 E0.02478
G1 X98.5 Y82.884 E0.02472
G1 X97.948 Y83.226 E0.02468
G1 X97.06 Y83.643 E0.03729
G1 X96.502 Y83.83 E0.02237
M204 P2000
G1 X96.114 Y83.926 F24000
G1 E13.45497 F4200
G1 Z0.4 F720
G1 X97.775 Y71.556 F24000
G1 Z0.2 F720
G1 E15.95497 F2400
M204 P500
; TYPE:Solid infill
; WIDTH:0.502346
G1 F1800
G1 X98.916 Y72.698 E0.06167
G1 X99.288 Y73.105 E0.02106
M73 P12 R3
G1 X99.633 Y73.563 E0.0219
G1 X99.935 Y74.05 E0.02189
G1 X100.19 Y74.563 E0.02188
G1 X100.228 Y74.659 E0.00394
G1 X96.925 Y71.357 E0.17842
G1 X96.487 Y71.187 E0.01795
G1 X95.954 Y71.035 E0.02117
G1 X100.549 Y75.63 E0.24824
G1 X100.659 Y76.211 E0.02259
G1 X100.678 Y76.408 E0.00756
G1 X95.177 Y70.908 E0.29716
G1 X95.076 Y70.891 E0.00391
G1 X94.487 Y70.867 E0.02252
G1 X100.712 Y77.093 E0.33633
G1 X100.712 Y77.355 E0.01001
G1 X100.679 Y77.709 E0.01358
G1 X93.872 Y70.902 E0.36775
G1 X93.307 Y70.987 E0.02183
G1 X100.594 Y78.274 E0.39368
G1 X100.554 Y78.489 E0.00835
G1 X100.467 Y78.796 E0.01219
G1 X92.784 Y71.113 E0.41507
G1 X92.297 Y71.277 E0.01963
M73 P13 R3
G1 X100.303 Y79.282 E0.4325
G1 X100.19 Y79.574 E0.01196
G1 X100.109 Y79.738 E0.00699
G1 X91.845 Y71.474 E0.44646
G1 X91.762 Y71.51 E0.00346
G1 X91.428 Y71.707 E0.01481
G1 X99.887 Y80.165 E0.45697
G1 X99.638 Y80.566 E0.01803
G1 X91.019 Y71.947 E0.46564
G1 X90.647 Y72.225 E0.01774
G1 X99.359 Y80.937 E0.47067
G1 X99.288 Y81.031 E0.0045
M73 P14 R3
G1 X99.057 Y81.285 E0.01312
G1 X90.3 Y72.527 E0.47312
G1 X90.129 Y72.682 E0.00882
G1 X89.974 Y72.852 E0.00879
G1 X98.732 Y81.61 E0.47315
G1 X98.479 Y81.841 E0.01309
G1 X98.384 Y81.912 E0.00453
G1 X89.675 Y73.203 E0.4705
G1 X89.403 Y73.58 E0.01776
G1 X98.014 Y82.191 E0.46521
G1 X97.612 Y82.439 E0.01804
G1 X89.147 Y73.973 E0.45735
G1 X88.921 Y74.398 E0.01839
M73 P15 R3
G1 X97.177 Y82.654 E0.44603
G1 X96.734 Y82.86 E0.01866
G1 X88.724 Y74.85 E0.43274
G1 X88.561 Y75.337 E0.01962
G1 X96.247 Y83.023 E0.41524
G1 X95.724 Y83.15 E0.02056
G1 X88.434 Y75.86 E0.39384
G1 X88.349 Y76.424 E0.02179
G1 X95.16 Y83.235 E0.36796
G1 X94.545 Y83.27 E0.02353
G1 X88.314 Y77.039 E0.33663
G1 X88.351 Y77.726 E0.02628
M73 P16 R3
G1 X93.858 Y83.233 E0.29752
G1 X93.376 Y83.166 E0.01859
G1 X93.069 Y83.094 E0.01205
G1 X88.49 Y78.515 E0.24738
G1 X88.549 Y78.766 E0.00985
G1 X88.731 Y79.309 E0.02188
G1 X88.808 Y79.482 E0.00723
G1 X92.102 Y82.776 E0.17796
G1 X91.751 Y82.621 E0.01466
G1 X91.261 Y82.348 E0.02143
G1 X90.544 Y81.832 E0.03375
G1 X90.144 Y81.468 E0.02066
G1 X89.035 Y80.359 E0.05991
M204 P2000
G1 E24.2826 F4200
G1 X89.035 Y80.359 Z0.4 F24000
M486 S-1
M486 S1
G1 X68.626 Y91.999
G1 Z0.2 F720
G1 E26.7826 F2400
M204 P500
; TYPE:Perimeter
; WIDTH:0.499999
G1 F1800
G1 X75.23 Y87.162 E0.31112
G1 X77.649 Y90.464 E0.15557
G1 X80.067 Y93.766 E0.15555
G1 X73.463 Y98.603 E0.31112
G1 X68.662 Y92.048 E0.30881
M73 P17 R3
M204 P2000
G1 X68.662 Y92.048 F24000
G1 X67.988 Y91.9
M204 P500
; TYPE:External perimeter
G1 F1800
G1 X75.329 Y86.524 E0.34582
G1 X78.018 Y90.194 E0.17292
G1 X80.706 Y93.865 E0.17292
G1 X73.365 Y99.242 E0.34584
G1 X68.023 Y91.949 E0.34358
M204 P2000
G1 X68.307 Y91.667 F24000
G1 E26.90585 F4200
G1 Z0.4 F720
G1 X77.833 Y91.025 F24000
G1 Z0.2 F720
G1 E29.40585 F2400
M204 P500
; TYPE:Solid infill
; WIDTH:0.515261
G1 F1800
G1 X74.781 Y87.973 E0.16952
G1 X74.395 Y88.256 E0.0188
G1 X78.708 Y92.568 E0.23953
G1 X79.524 Y93.683 E0.05427
M73 P18 R3
G1 X79.311 Y93.839 E0.01037
G1 X74.01 Y88.538 E0.29444
G1 X73.624 Y88.82 E0.01878
G1 X78.925 Y94.121 E0.29444
G1 X78.54 Y94.404 E0.01877
G1 X73.239 Y89.103 E0.29444
G1 X72.853 Y89.385 E0.01878
G1 X78.154 Y94.686 E0.29444
G1 X77.768 Y94.969 E0.0188
G1 X72.468 Y89.668 E0.29441
G1 X72.082 Y89.95 E0.01878
G1 X77.383 Y95.251 E0.29444
G1 X76.997 Y95.533 E0.01878
G1 X71.696 Y90.232 E0.29444
G1 X71.311 Y90.515 E0.01877
G1 X76.612 Y95.816 E0.29444
M73 P19 R3
G1 X76.226 Y96.098 E0.01878
G1 X70.925 Y90.797 E0.29444
G1 X70.54 Y91.08 E0.01877
G1 X75.841 Y96.381 E0.29444
G1 X75.455 Y96.663 E0.01878
G1 X70.154 Y91.362 E0.29444
G1 X69.768 Y91.644 E0.01878
G1 X75.069 Y96.945 E0.29444
G1 X74.684 Y97.228 E0.01877
G1 X69.383 Y91.927 E0.29444
G1 X69.169 Y92.083 E0.0104
G1 X69.986 Y93.198 E0.05429
G1 X74.298 Y97.51 E0.2395
G1 X73.913 Y97.793 E0.01877
G1 X70.861 Y94.741 E0.16952
M204 P2000
M106 S84.15
; ::: End layer 0 postamble :::
; ====== End layer 0 ====
; ==== Start layer 1 ====
; ::: Layer 1 postamble :::
; LAYER_CHANGE
; Z:0.4
; HEIGHT:0.2
; BEFORE_LAYER_CHANGE
G92 E0.0
; 0.4
M201 X3999.76 Y3999.76
M74 W0.10273

G1 E-2.5 F4200
G1 Z0.4 F720
M73 P20 R3
; AFTER_LAYER_CHANGE
; 0.4
M104 S220 ; set temperature
G1 X70.861 Y94.741 Z0.6 F24000
M486 S-1
M486 S2
G1 X105.378 Y57.321
G1 Z0.4 F720
G1 E0.0 F2400
; TYPE:Perimeter
; WIDTH:0.449999
G1 F3828.202
G1 X93.943 Y57.321 E0.38706
G1 X93.943 Y45.885 E0.38709
G1 X105.378 Y45.885 E0.38706
G1 F4711.669
G1 X105.378 Y51.603 E0.19355
G1 X105.378 Y57.261 E0.19152
G1 X105.378 Y57.261 F24000
G1 X105.785 Y57.728
M204 P1500
; TYPE:External perimeter
G1 F2459.717
G1 X93.535 Y57.728 E0.41465
G1 X93.535 Y45.478 E0.41465
G1 X105.785 Y45.478 E0.41465
G1 F2494.406
G1 X105.785 Y46.153 E0.02285
G1 F2675.48
G1 X105.785 Y50.928 E0.16163
G1 F2700
G1 X105.785 Y51.603 E0.02285
G1 X105.785 Y52.278 E0.02285
M73 P21 R3
G1 F2675.481
G1 X105.785 Y57.053 E0.16163
G1 F2494.407
G1 X105.785 Y57.668 E0.02082
M204 P2000
G1 X105.39 Y57.727 F24000
G1 E0.70286 F4200
G1 Z0.6 F720
G1 X94.399 Y46.264 F24000
G1 Z0.4 F720
G1 E3.20286 F2400
M204 P3000
; TYPE:Solid infill
; WIDTH:0.548766
G1 F8302.922
G1 X94.354 Y46.219 E0.00268
G1 X94.293 Y46.235 E0.00265
G1 X94.277 Y46.296 E0.00265
G1 X94.322 Y46.341 E0.00268
G1 X94.383 Y46.325 E0.00265
M204 P2000
G1 X94.383 Y46.325 F24000
G1 X94.156 Y47.12
M204 P3000
; WIDTH:0.38292
G1 F8400
G1 X94.085 Y47.101 E0.00208
G1 X94.104 Y47.172 E0.00208
G1 X94.145 Y47.161 E0.0012
; WIDTH:0.41646
G1 X94.217 Y47.068 E0.00365
; WIDTH:0.449999
G1 X94.289 Y46.975 E0.00398
G1 X95.033 Y46.231 E0.03561
G1 X95.126 Y46.159 E0.00398
; WIDTH:0.41646
G1 X95.219 Y46.087 E0.00365
; WIDTH:0.38292
G1 X95.178 Y46.098 E0.0012
G1 X95.159 Y46.027 E0.00208
G1 X95.23 Y46.046 E0.00208
; WIDTH:0.449999
G1 X95.609 Y46.231 E0.01428
G1 X94.289 Y47.551 E0.06319
G1 X94.289 Y48.126 E0.01946
G1 X96.184 Y46.231 E0.09071
G1 X96.76 Y46.231 E0.0195
G1 X94.289 Y48.702 E0.11829
G1 X94.289 Y49.278 E0.0195
G1 X97.336 Y46.231 E0.14586
G1 X97.911 Y46.231 E0.01946
G1 X94.289 Y49.854 E0.17341
G1 X94.289 Y50.429 E0.01946
G1 X98.487 Y46.231 E0.20096
G1 X99.063 Y46.231 E0.0195
G1 X94.289 Y51.005 E0.22853
G1 X94.289 Y51.581 E0.0195
G1 X99.638 Y46.231 E0.25608
G1 X100.214 Y46.231 E0.0195
G1 X94.289 Y52.156 E0.28363
G1 X94.289 Y52.732 E0.0195
G1 X100.79 Y46.231 E0.3112
G1 X101.366 Y46.231 E0.0195
G1 X94.289 Y53.308 E0.33877
G1 X94.289 Y53.883 E0.01946
G1 X101.941 Y46.231 E0.3663
G1 X102.517 Y46.231 E0.0195
G1 X94.289 Y54.459 E0.39387
G1 X94.289 Y55.035 E0.0195
G1 X103.093 Y46.231 E0.42144
G1 X103.668 Y46.231 E0.01946
G1 X94.289 Y55.61 E0.44897
G1 X94.289 Y56.186 E0.0195
G1 X104.244 Y46.231 E0.47654
M73 P22 R3
G1 X104.82 Y46.231 E0.0195
G1 X94.289 Y56.762 E0.50411
G1 X94.263 Y56.909 E0.00505
; WIDTH:0.41646
G1 X94.238 Y57.055 E0.0046
; WIDTH:0.38292
G1 X94.167 Y57.036 E0.00208
G1 X94.186 Y57.107 E0.00208
