;FLAVOR:Marlin
;TIME:404
;Filament used: 0.32516m
;Layer height: 0.2
;MINX:4.612
;MINY:45.453
;MINZ:0.2
;MAXX:105.81
;MAXY:176.647
;MAXZ:2
;Generated with Cura_SteamEngine 5.4.0
M82 ;absolute extrusion mode
M201 X1250 Y1250 Z400 E5000 ; sets maximum accelerations
M203 X180 Y180 Z12 E80 ; sets maximum feedrates
M205 X8.00 Y8.00 Z2.00 E10.00 ; sets the jerk limits
M221 S100 ; reset flow
G90 ; use absolute positioning
M82 ; absolute extrusion mode
M104 S170 ; set extruder temp for bed leveling
M140 S60 ; set bed temp
M109 R170 ; wait for extruder temp
M190 S60 ; wait for bed temp
G28 ; home all
G29 ; mesh bed leveling
M104 S200 ; set extruder temp
G92 E0.0
G1 Y-2 X179 F2400
G1 Z3 F720
M109 S200 ; wait for extruder temp
G92 E0.0
G1 X170 F1000
G1 Z0.2 F720
G1 X110 E8 F900
G1 X40 E18 F900
G92 E0.0
M900 K0.2 ; LA
G92 E0
G92 E0
G1 F4200 E-3.5
;LAYER_COUNT:10
;LAYER:0
M107
;MESH:manual test - prusa mini.3mf
G0 F3600 X105.41 Y57.353 Z0.2
;TYPE:WALL-INNER
G1 F4200 E0
G1 F1800 X105.41 Y45.853 E0.38249
G1 X93.91 Y45.853 E0.76498
G1 X93.91 Y57.353 E1.14747
G1 X105.41 Y57.353 E1.52997
G0 F3600 X105.81 Y57.753
;TYPE:WALL-OUTER
G1 F1800 X105.81 Y45.453 E1.93907
G1 X93.51 Y45.453 E2.34817
G1 X93.51 Y57.753 E2.75727
G1 X105.81 Y57.753 E3.16636
G0 F3600 X105.81 Y57.553
G0 X105.03 Y56.973
;TYPE:SKIN
G1 F1800 X94.29 Y56.973 E3.52358
G1 X94.29 Y46.233 E3.88079
G1 X105.03 Y46.233 E4.23801
G1 X105.03 Y56.973 E4.59522
G0 F3600 X104.829 Y46.563
G1 F1800 X104.699 Y46.433 E4.60134
G0 F3600 X104.133 Y46.433
G1 F1800 X104.829 Y47.129 E4.63407
G0 F3600 X104.829 Y47.695
G1 F1800 X103.567 Y46.433 E4.69343
G0 F3600 X103.002 Y46.433
G1 F1800 X104.829 Y48.26 E4.77937
G0 F3600 X104.829 Y48.826
G1 F1800 X102.436 Y46.433 E4.89193
G0 F3600 X101.87 Y46.433
G1 F1800 X104.829 Y49.392 E5.03111
G0 F3600 X104.829 Y49.957
G1 F1800 X101.305 Y46.433 E5.19687
G0 F3600 X100.739 Y46.433
G1 F1800 X104.829 Y50.523 E5.38925
G0 F3600 X104.829 Y51.089
G1 F1800 X100.173 Y46.433 E5.60825
G0 F3600 X99.608 Y46.433
G1 F1800 X104.829 Y51.654 E5.85383
G0 F3600 X104.829 Y52.22
G1 F1800 X99.042 Y46.433 E6.12604
G0 F3600 X98.476 Y46.433
G1 F1800 X104.829 Y52.786 E6.42486
G0 F3600 X104.829 Y53.351
G1 F1800 X97.91 Y46.433 E6.75029
G0 F3600 X97.345 Y46.433
G1 F1800 X104.829 Y53.917 E7.10231
G0 F3600 X104.829 Y54.483
G1 F1800 X96.779 Y46.433 E7.48096
G0 F3600 X96.213 Y46.433
G1 F1800 X104.829 Y55.048 E7.88621
G0 F3600 X104.829 Y55.614
G1 F1800 X95.648 Y46.433 E8.31805
G0 F3600 X95.082 Y46.433
G1 F1800 X104.829 Y56.18 E8.77652
G0 F3600 X104.829 Y56.746
G1 F1800 X94.516 Y46.433 E9.26161
G0 F3600 X94.489 Y46.971
G1 F1800 X104.29 Y56.772 E9.72262
G0 F3600 X103.724 Y56.772
G1 F1800 X94.489 Y47.537 E10.15701
G0 F3600 X94.489 Y48.103
G1 F1800 X103.159 Y56.772 E10.5648
G0 F3600 X102.593 Y56.772
G1 F1800 X94.489 Y48.668 E10.94598
G0 F3600 X94.489 Y49.234
G1 F1800 X102.027 Y56.772 E11.30055
G0 F3600 X101.462 Y56.772
G1 F1800 X94.489 Y49.8 E11.62851
G0 F3600 X94.489 Y50.365
G1 F1800 X100.896 Y56.772 E11.92988
G0 F3600 X100.33 Y56.772
G1 F1800 X94.489 Y50.931 E12.20462
G0 F3600 X94.489 Y51.497
G1 F1800 X99.764 Y56.772 E12.45274
G0 F3600 X99.199 Y56.772
G1 F1800 X94.489 Y52.062 E12.67428
G0 F3600 X94.489 Y52.628
G1 F1800 X98.633 Y56.772 E12.86921
G0 F3600 X98.067 Y56.772
G1 F1800 X94.489 Y53.194 E13.0375
G0 F3600 X94.489 Y53.759
G1 F1800 X97.502 Y56.772 E13.17923
G0 F3600 X96.936 Y56.772
G1 F1800 X94.489 Y54.325 E13.29432
G0 F3600 X94.489 Y54.891
G1 F1800 X96.37 Y56.772 E13.3828
G0 F3600 X95.805 Y56.772
G1 F1800 X94.489 Y55.456 E13.4447
G0 F3600 X94.489 Y56.022
G1 F1800 X95.239 Y56.772 E13.47998
G0 F3600 X94.673 Y56.772
G1 F1800 X94.489 Y56.588 E13.48863
G0 F3600 X94.51 Y56.588
G1 F4200 E9.98863
;MESH:manual test - prusa mini.3mf(1)
G0 F3600 X94.8 Y57.533
G0 X94.8 Y58.618
G0 X94.541 Y68.895
G0 X94.618 Y69.974
G0 X94.8 Y83.661
G0 X94.809 Y83.96
;TYPE:WALL-INNER
G1 F4200 E13.48863
G1 F1800 X95.609 Y83.879 E13.51538
G1 X96.373 Y83.711 E13.5414
G1 X97.325 Y83.385 E13.57487
G1 X98.366 Y82.811 E13.6144
G1 X99.137 Y82.189 E13.64735
G1 X99.837 Y81.481 E13.68047
G1 X100.408 Y80.655 E13.71386
G1 X100.782 Y79.955 E13.74026
G1 X101.145 Y79.031 E13.77328
G1 X101.342 Y78.063 E13.80614
G1 X101.412 Y77.261 E13.83291
G1 X101.389 Y76.478 E13.85897
G1 X101.273 Y75.686 E13.88559
G1 X101.07 Y74.918 E13.91201
G1 X100.782 Y74.182 E13.9383
G1 X100.31 Y73.297 E13.97166
G1 X99.704 Y72.522 E14.00438
G1 X99.137 Y71.947 E14.03124
G1 X98.526 Y71.455 E14.05733
G1 X97.855 Y71.032 E14.08371
G1 X97.137 Y70.689 E14.11018
G1 X96.375 Y70.426 E14.13699
G1 X95.583 Y70.253 E14.16395
G1 X94.613 Y70.157 E14.19637
G1 X93.618 Y70.228 E14.22955
G1 X92.847 Y70.375 E14.25565
G1 X92.081 Y70.614 E14.28234
G1 X91.363 Y70.934 E14.30849
G1 X90.669 Y71.343 E14.33528
G1 X90.043 Y71.817 E14.3614
G1 X89.469 Y72.366 E14.38781
G1 X88.956 Y72.986 E14.41458
G1 X88.523 Y73.653 E14.44103
G1 X88.168 Y74.365 E14.46749
G1 X87.904 Y75.101 E14.4935
G1 X87.72 Y75.887 E14.52035
G1 X87.628 Y76.676 E14.54677
G1 X87.628 Y77.459 E14.57281
G1 X87.746 Y78.461 E14.60637
G1 X88.027 Y79.41 E14.63928
G1 X88.335 Y80.134 E14.66545
G1 X88.728 Y80.823 E14.69183
G1 X89.2 Y81.463 E14.71828
G1 X89.749 Y82.054 E14.74511
G1 X90.346 Y82.565 E14.77125
G1 X91.006 Y83.007 E14.79767
G1 X91.719 Y83.375 E14.82436
G1 X92.454 Y83.651 E14.85047
G1 X93.23 Y83.845 E14.87707
G1 X94.047 Y83.951 E14.90448
G1 X94.809 Y83.96 E14.92982
G0 F3600 X94.827 Y84.36
;TYPE:WALL-OUTER
G1 F1800 X95.672 Y84.275 E14.95807
G1 X96.481 Y84.097 E14.98562
G1 X97.487 Y83.752 E15.02099
G1 X98.59 Y83.145 E15.06287
G1 X99.406 Y82.486 E15.09775
G1 X100.146 Y81.737 E15.13277
G1 X100.75 Y80.863 E15.16811
G1 X101.146 Y80.123 E15.19602
G1 X101.53 Y79.145 E15.23097
G1 X101.738 Y78.121 E15.26572
G1 X101.812 Y77.273 E15.29403
G1 X101.788 Y76.443 E15.32165
G1 X101.666 Y75.606 E15.34978
G1 X101.451 Y74.793 E15.37775
G1 X101.146 Y74.014 E15.40558
G1 X100.646 Y73.078 E15.44087
G1 X100.005 Y72.258 E15.47549
G1 X99.406 Y71.65 E15.50388
G1 X98.759 Y71.129 E15.53151
G1 X98.049 Y70.681 E15.55943
G1 X97.289 Y70.318 E15.58744
G1 X96.483 Y70.04 E15.6158
G1 X95.646 Y69.857 E15.6443
G1 X94.619 Y69.755 E15.67862
G1 X93.566 Y69.831 E15.71374
G1 X92.75 Y69.986 E15.74136
G1 X91.939 Y70.239 E15.76962
G1 X91.179 Y70.578 E15.7973
G1 X90.446 Y71.01 E15.8256
G1 X89.783 Y71.512 E15.85326
G1 X89.176 Y72.093 E15.8812
G1 X88.633 Y72.749 E15.90953
G1 X88.175 Y73.454 E15.93749
G1 X87.8 Y74.207 E15.96547
G1 X87.52 Y74.987 E15.99303
G1 X87.325 Y75.818 E16.02142
G1 X87.228 Y76.653 E16.04938
G1 X87.228 Y77.483 E16.07698
G1 X87.353 Y78.541 E16.11242
G1 X87.65 Y79.546 E16.14727
G1 X87.976 Y80.312 E16.17496
G1 X88.392 Y81.041 E16.20288
G1 X88.892 Y81.719 E16.2309
G1 X89.471 Y82.343 E16.25921
G1 X90.104 Y82.884 E16.28691
G1 X90.802 Y83.352 E16.31486
G1 X91.557 Y83.741 E16.34311
G1 X92.335 Y84.033 E16.37075
G1 X93.156 Y84.239 E16.3989
G1 X94.019 Y84.351 E16.42784
G1 X94.827 Y84.36 E16.45472
G0 F3600 X95.026 Y84.34
G0 X94.788 Y83.579
;TYPE:SKIN
G1 F1800 X94.081 Y83.571 E16.47823
G1 X93.301 Y83.47 E16.50439
G1 X92.563 Y83.284 E16.52971
G1 X91.878 Y83.028 E16.55403
G1 X91.196 Y82.677 E16.57954
G1 X90.574 Y82.261 E16.60443
G1 X90.017 Y81.781 E16.62889
G1 X89.492 Y81.216 E16.65454
G1 X89.043 Y80.609 E16.67965
G1 X88.673 Y79.961 E16.70447
G1 X88.387 Y79.284 E16.72891
G1 X88.122 Y78.387 E16.76002
G1 X88.008 Y77.432 E16.79201
G1 X88.008 Y76.704 E16.81622
G1 X88.094 Y75.958 E16.8412
G1 X88.272 Y75.203 E16.867
G1 X88.517 Y74.519 E16.89116
G1 X88.852 Y73.845 E16.9162
G1 X89.26 Y73.217 E16.94111
G1 X89.752 Y72.622 E16.96679
G1 X90.294 Y72.104 E16.99172
G1 X90.878 Y71.662 E17.01608
G1 X91.543 Y71.27 E17.04176
G1 X92.213 Y70.97 E17.06617
G1 X92.944 Y70.744 E17.09162
G1 X93.662 Y70.607 E17.11593
G1 X94.607 Y70.538 E17.14745
G1 X95.523 Y70.63 E17.17807
G1 X96.265 Y70.792 E17.20333
G1 X96.997 Y71.044 E17.22908
G1 X97.677 Y71.368 E17.25413
G1 X98.309 Y71.768 E17.27901
G1 X98.877 Y72.227 E17.3033
G1 X99.422 Y72.778 E17.32907
G1 X99.985 Y73.498 E17.35947
G1 X100.438 Y74.346 E17.39145
G1 X100.706 Y75.032 E17.41594
G1 X100.899 Y75.765 E17.44115
G1 X101.009 Y76.516 E17.4664
G1 X101.031 Y77.245 E17.49066
G1 X100.963 Y78.014 E17.51633
G1 X100.779 Y78.923 E17.54718
G1 X100.438 Y79.791 E17.5782
G1 X100.085 Y80.45 E17.60306
G1 X99.542 Y81.237 E17.63486
G1 X98.877 Y81.909 E17.66631
G1 X98.153 Y82.496 E17.69731
G1 X97.176 Y83.032 E17.73437
G1 X96.261 Y83.345 E17.76654
G1 X95.552 Y83.502 E17.79069
G1 X94.788 Y83.579 E17.81623
G0 F3600 X91.829 Y82.778
G1 F1800 X88.799 Y79.748 E17.95875
G1 X88.729 Y79.678
G0 F3600 X88.466 Y78.849
G1 F1800 X92.738 Y83.121 E18.15969
G0 F3600 X93.471 Y83.289
G1 F1800 X88.289 Y78.107 E18.40344
G0 F3600 X88.212 Y77.464
G1 F1800 X94.118 Y83.37 E18.68124
G0 F3600 X94.69 Y83.377
G1 F1800 X88.207 Y76.893 E18.9862
G0 F3600 X88.246 Y76.367
G1 F1800 X95.213 Y83.333 E19.31389
G0 F3600 X95.706 Y83.261
G1 F1800 X88.317 Y75.872 E19.66144
G0 F3600 X88.425 Y75.415
G1 F1800 X96.17 Y83.159 E20.02572
G0 F3600 X96.594 Y83.017
G1 F1800 X88.561 Y74.985 E20.40354
G0 F3600 X88.712 Y74.57
G1 F1800 X97.015 Y82.873 E20.79409
G0 F3600 X97.391 Y82.684
G1 F1800 X88.901 Y74.193 E21.19346
G0 F3600 X89.101 Y73.827
G1 F1800 X97.756 Y82.483 E21.60059
G0 F3600 X98.11 Y82.271
G1 F1800 X89.323 Y73.483 E22.01392
G0 F3600 X89.564 Y73.16
G1 F1800 X98.422 Y82.018 E22.43058
G0 F3600 X98.735 Y81.764
G1 F1800 X89.821 Y72.851 E22.84984
G0 F3600 X90.101 Y72.565
G1 F1800 X99.017 Y81.481 E23.26922
G0 F3600 X99.299 Y81.197
G1 F1800 X90.39 Y72.288 E23.68827
G0 F3600 X90.708 Y72.04
G1 F1800 X99.545 Y80.878 E24.10396
G0 F3600 X99.777 Y80.543
G1 F1800 X91.035 Y71.801 E24.51516
G0 F3600 X91.391 Y71.592
G1 F1800 X99.994 Y80.195 E24.91982
G0 F3600 X100.192 Y79.827
G1 F1800 X91.757 Y71.393 E25.31655
G0 F3600 X92.148 Y71.218
G1 F1800 X100.363 Y79.432 E25.70294
G0 F3600 X100.523 Y79.026
G1 F1800 X92.565 Y71.069 E26.07723
G0 F3600 X92.999 Y70.937
G1 F1800 X100.643 Y78.581 E26.43678
G0 F3600 X100.738 Y78.111
G1 F1800 X93.473 Y70.846 E26.77851
G0 F3600 X93.978 Y70.784
G1 F1800 X100.798 Y77.604 E27.0993
G0 F3600 X100.825 Y77.066
G1 F1800 X94.505 Y70.746 E27.39657
G0 F3600 X95.114 Y70.789
G1 F1800 X100.8 Y76.476 E27.66405
G0 F3600 X100.704 Y75.813
G1 F1800 X95.781 Y70.89 E27.89561
G1 X95.711 Y70.82
G0 F3600 X96.562 Y71.106
G1 F1800 X100.494 Y75.038 E28.08056
G1 X100.564 Y75.108
G0 F3600 X100.031 Y74.01
G1 F1800 X97.552 Y71.53 E28.19719
G1 X97.482 Y71.46
G0 F3600 X97.459 Y71.507
G1 F4200 E24.69719
;MESH:grabbers.stl
G0 F3600 X94.822 Y84.142
G0 X94.811 Y85.226
G0 X83.427 Y166.298
G0 X81.766 Y176.647
G0 X80.939 Y176.514
;TYPE:WALL-OUTER
G1 F4200 E28.19719
G1 F2080.9 X82.48 Y166.982 E28.47498
G1 F4200 E24.97498
G0 F3600 X83.307 Y167.115
G0 X83.427 Y166.298
G0 X80.317 Y165.796
G0 X78.632 Y176.141
G0 X79.459 Y176.274
G1 F4200 E28.47498
G1 F2093 X81 Y166.743 E28.75115
G1 F4200 E25.25115
G0 F3600 X80.173 Y166.61
G0 X6.56 Y149.947
G0 X6.046 Y149.286
G1 F4200 E28.75115
G1 F2099.1 X13.676 Y143.37 E29.02651
G1 F4200 E25.52651
G0 F3600 X14.19 Y144.031
G0 X14.833 Y143.518
G0 X12.903 Y141.025
G0 X4.615 Y147.441
G0 X5.129 Y148.102
G1 F4200 E29.02651
G1 F2105.3 X12.756 Y142.184 E29.30103
G1 F4200 E25.80103
;MESH:manual test - prusa mini.3mf(2)
G0 F3600 X13.417 Y141.671
G0 X71.783 Y98.969
G0 X72.657 Y98.328
G0 X73.455 Y98.655
G0 X73.398 Y99.032
;TYPE:WALL-INNER
G1 F4200 E29.30103
G1 F1800 X80.496 Y93.831 E29.59371
G1 X75.295 Y86.734 E29.88636
G1 X68.198 Y91.934 E30.17898
G1 X73.398 Y99.032 E30.47164
G0 F3600 X73.312 Y99.591
;TYPE:WALL-OUTER
G1 F1800 X81.055 Y93.917 E30.79091
G1 X75.381 Y86.175 E31.11016
G1 X67.639 Y91.848 E31.4294
G1 X73.312 Y99.591 E31.74865
G0 F3600 X73.473 Y99.473
G0 X73.482 Y98.5
;TYPE:SKIN
G1 F1800 X68.73 Y92.018 E32.01597
G1 X75.211 Y87.266 E32.28327
G1 X79.964 Y93.747 E32.55058
G1 X73.482 Y98.5 E32.81792
G0 F3600 X73.738 Y98.062
G1 F1800 X72.507 Y96.831 E32.87582
G1 X72.437 Y96.761
G0 F3600 X74.064 Y97.823
G1 F1800 X70.954 Y94.713 E33.02211
G1 X70.884 Y94.643
G0 F3600 X69.401 Y92.594
G1 F1800 X74.391 Y97.584 E33.25682
G0 F3600 X74.717 Y97.344
G1 F1800 X69.254 Y91.882 E33.51376
G0 F3600 X69.58 Y91.642
G1 F1800 X75.043 Y97.105 E33.77073
G0 F3600 X75.369 Y96.865
G1 F1800 X69.907 Y91.403 E34.02764
G0 F3600 X70.233 Y91.163
G1 F1800 X75.696 Y96.626 E34.2846
G0 F3600 X76.022 Y96.387
G1 F1800 X70.56 Y90.924 E34.54154
G0 F3600 X70.886 Y90.685
G1 F1800 X76.349 Y96.148 E34.79851
G0 F3600 X76.675 Y95.908
G1 F1800 X71.212 Y90.446 E35.05545
G0 F3600 X71.539 Y90.207
G1 F1800 X77.001 Y95.669 E35.31236
G0 F3600 X77.327 Y95.429
G1 F1800 X71.865 Y89.967 E35.56928
G0 F3600 X72.192 Y89.728
G1 F1800 X77.654 Y95.19 E35.82619
G0 F3600 X77.981 Y94.951
G1 F1800 X72.518 Y89.488 E36.08316
G0 F3600 X72.844 Y89.249
G1 F1800 X78.307 Y94.712 E36.34012
G0 F3600 X78.633 Y94.473
G1 F1800 X73.171 Y89.01 E36.59706
G0 F3600 X73.497 Y88.77
G1 F1800 X78.959 Y94.233 E36.854
G0 F3600 X79.286 Y93.994
G1 F1800 X73.824 Y88.531 E37.11094
G0 F3600 X74.15 Y88.292
G1 F1800 X79.612 Y93.754 E37.36785
G1 X79.682 Y93.824
G0 F3600 X78.466 Y92.043
G1 F1800 X74.476 Y88.053 E37.55553
G0 F3600 X74.803 Y87.814
G1 F1800 X76.911 Y89.922 E37.65468
G1 X76.981 Y89.992
G0 F3600 X75.355 Y87.8
G1 F1800 X75.129 Y87.574 E37.66531
G0 F3600 X75.14 Y87.591
M104 S200
G1 F4200 E34.16531
;MESH:NONMESH
G0 F600 X75.14 Y87.591 Z0.4
G0 F3600 X75.337 Y86.473
G0 X76.206 Y85.836
G0 X93.724 Y58.618
G0 X93.724 Y57.539
G0 X105.14 Y57.083
G0 X105.41 Y57.353
;TIME_ELAPSED:55.759869
;LAYER:1
M106 S255
;TYPE:WALL-INNER
;MESH:manual test - prusa mini.3mf
G1 F4200 E37.66531
G1 F2700 X105.41 Y45.853 E38.04781
G1 X93.91 Y45.853 E38.4303
G1 X93.91 Y57.353 E38.81279
G1 X105.41 Y57.353 E39.19528
G0 F5400 X105.81 Y57.753
;TYPE:WALL-OUTER
G1 F1800 X105.81 Y45.453 E39.60438
G1 X93.51 Y45.453 E40.01348
G1 X93.51 Y57.753 E40.42258
G1 X105.81 Y57.753 E40.83168
G0 F5400 X105.81 Y57.553
G0 X105.03 Y56.973
;TYPE:SKIN
G1 F1800 X94.29 Y56.973 E41.18889
G1 X94.29 Y46.233 E41.54611
G1 X105.03 Y46.233 E41.90332
G1 X105.03 Y56.973 E42.26053
G0 F5400 X104.829 Y56.391
G1 F1800 X104.446 Y56.773 E42.27853
G0 F5400 X103.881 Y56.773
G1 F1800 X104.829 Y55.825 E42.32312
G0 F5400 X104.829 Y55.259
G1 F1800 X103.315 Y56.773 E42.39433
G0 F5400 X102.749 Y56.773
G1 F1800 X104.829 Y54.694 E42.49214
G0 F5400 X104.829 Y54.128
G1 F1800 X102.184 Y56.773 E42.61656
G0 F5400 X101.618 Y56.773
G1 F1800 X104.829 Y53.562 E42.76759
G0 F5400 X104.829 Y52.996
G1 F1800 X101.052 Y56.773 E42.94525
G0 F5400 X100.486 Y56.773
G1 F1800 X104.829 Y52.431 E43.14951
G0 F5400 X104.829 Y51.865
G1 F1800 X99.921 Y56.773 E43.38037
G0 F5400 X99.355 Y56.773
G1 F1800 X104.829 Y51.299 E43.63785
G0 F5400 X104.829 Y50.734
G1 F1800 X98.789 Y56.773 E43.92193
G0 F5400 X98.224 Y56.773
G1 F1800 X104.829 Y50.168 E44.2326
G0 F5400 X104.829 Y49.602
G1 F1800 X97.658 Y56.773 E44.56991
G0 F5400 X97.092 Y56.773
G1 F1800 X104.829 Y49.037 E44.93381
G0 F5400 X104.829 Y48.471
G1 F1800 X96.527 Y56.773 E45.32431
G0 F5400 X95.961 Y56.773
G1 F1800 X104.829 Y47.905 E45.74143
G0 F5400 X104.829 Y47.34
G1 F1800 X95.395 Y56.773 E46.18515
G0 F5400 X94.83 Y56.773
G1 F1800 X104.829 Y46.774 E46.65548
G0 F5400 X104.605 Y46.432
G1 F1800 X94.489 Y56.548 E47.1313
G0 F5400 X94.489 Y55.983
G1 F1800 X104.039 Y46.432 E47.58053
G0 F5400 X103.473 Y46.432
G1 F1800 X94.489 Y55.417 E48.00313
G0 F5400 X94.489 Y54.851
G1 F1800 X102.908 Y46.432 E48.39914
G0 F5400 X102.342 Y46.432
G1 F1800 X94.489 Y54.286 E48.76854
G0 F5400 X94.489 Y53.72
G1 F1800 X101.776 Y46.432 E49.11132
G0 F5400 X101.211 Y46.432
G1 F1800 X94.489 Y53.154 E49.4275
G0 F5400 X94.489 Y52.588
G1 F1800 X100.645 Y46.432 E49.71706
G0 F5400 X100.079 Y46.432
G1 F1800 X94.489 Y52.023 E49.98002
G0 F5400 X94.489 Y51.457
G1 F1800 X99.513 Y46.432 E50.21636
G0 F5400 X98.948 Y46.432
G1 F1800 X94.489 Y50.891 E50.4261
G0 F5400 X94.489 Y50.326
G1 F1800 X98.382 Y46.432 E50.60924
G0 F5400 X97.816 Y46.432
G1 F1800 X94.489 Y49.76 E50.76575
G0 F5400 X94.489 Y49.194
G1 F1800 X97.251 Y46.432 E50.89567
G0 F5400 X96.685 Y46.432
G1 F1800 X94.489 Y48.629 E50.99898
G0 F5400 X94.489 Y48.063
G1 F1800 X96.119 Y46.432 E51.07568
G0 F5400 X95.554 Y46.432
