; generated by PrusaSlicer 2.7.3+MacOS-arm64 on 2024-03-31 at 07:58:15 UTC


;
;

;
;

;
;

;
;
; 

; external perimeters extrusion width = 0.45mm
; perimeters extrusion width = 0.45mm
; infill extrusion width = 0.45mm
; solid infill extrusion width = 0.45mm
; top infill extrusion width = 0.42mm
; first layer extrusion width = 0.50mm

; external perimeters extrusion width = 0.45mm
; perimeters extrusion width = 0.45mm
; infill extrusion width = 0.45mm
; solid infill extrusion width = 0.45mm
; top infill extrusion width = 0.42mm
; first layer extrusion width = 0.50mm

; external perimeters extrusion width = 0.45mm
; perimeters extrusion width = 0.45mm
; infill extrusion width = 0.45mm
; solid infill extrusion width = 0.45mm
; top infill extrusion width = 0.42mm
; first layer extrusion width = 0.50mm

; external perimeters extrusion width = 0.45mm
; perimeters extrusion width = 0.45mm
; infill extrusion width = 0.45mm
; solid infill extrusion width = 0.45mm
; top infill extrusion width = 0.42mm
; first layer extrusion width = 0.50mm

M73 P0 R4
M201 X4000 Y4000 Z400 E5000 ; sets maximum accelerations, mm/sec^2
M203 X400 Y400 Z12 E80 ; sets maximum feedrates, mm / sec
M204 P4000 R1250 T4000 ; sets acceleration (P, T) and retract acceleration (R), mm/sec^2
M205 X8.00 Y8.00 Z2.00 E10.00 ; sets the jerk limits, mm/sec
M205 S0 T0 ; sets the minimum extruding and travel feed rate, mm/sec

M486 S0
M486 ABody2
M486 S-1
M486 S1
M486 ABody3
M486 S-1
M486 S2
M486 ABody1
M486 S-1
M486 S3
M486 Agrabbers.stl
M486 S-1

;TYPE:Custom
M862.3 P "MINI" ; printer model check
M862.1 P0.4 ; nozzle diameter check
M862.5 P2 ; g-code level check
M862.6 P"Input shaper" ; FW feature check
M115 U5.1.2+13478
G90 ; use absolute coordinates
M83 ; extruder relative mode
M104 S170 ; set extruder temp for bed leveling
M140 S60 ; set bed temp
M109 R170 ; wait for bed leveling temp
M190 S60 ; wait for bed temp
M569 S1 X Y ; set stealthchop for X Y
M204 T1250 ; set travel acceleration
G28 ; home all without mesh bed level
G29 ; mesh bed leveling 
M104 S230 ; set extruder temp
G92 E0

G1 X0 Y-2 Z3 F2400

M109 S230 ; wait for extruder temp

; intro line
G1 X10 Z0.2 F1000
G1 X70 E8 F900
G1 X140 E10 F700
M73 P1 R4
G92 E0

M569 S0 X Y ; set spreadcycle for X Y
M204 T4000 ; restore travel acceleration
M572 W0.06 ; set smooth time
M221 S95 ; set flow
G21 ; set units to millimeters
G90 ; use absolute coordinates
M83 ; use relative distances for extrusion
M572 S0.27
M107
;LAYER_CHANGE
;Z:0.2
;HEIGHT:0.2
G1 E-2.5 F4200
M73 P4 R4
G1 Z.4 F720
M486 S2
G1 X105.103 Y57.046 F24000
G1 Z.2 F720
G1 E2.5 F2400
M204 P500
;TYPE:Perimeter
;WIDTH:0.499999
G1 F1800
G1 X94.218 Y57.046 E.4137
G1 X94.218 Y46.16 E.41374
M73 P4 R3
G1 X105.103 Y46.16 E.4137
G1 X105.103 Y51.603 E.20687
M73 P5 R3
G1 X105.103 Y56.986 E.20459
M204 P2000
M204 T4000
G1 X105.103 Y56.986 F24000
G1 X105.56 Y57.503
M204 P500
;TYPE:External perimeter
G1 F1800
G1 X93.76 Y57.503 E.44847
G1 X93.76 Y45.703 E.44847
G1 X105.56 Y45.703 E.44847
G1 X105.56 Y51.603 E.22424
G1 X105.56 Y57.443 E.22196
M204 P2000
G1 X105.165 Y57.502 F24000
G1 E-2.5 F4200
G1 Z.4 F720
G1 X104.921 Y47.287 F24000
G1 Z.2 F720
G1 E2.5 F2400
M204 P500
;TYPE:Solid infill
;WIDTH:0.50987
G1 F1800
G1 X104.181 Y46.548 E.04061
G1 X103.521 Y46.548 E.02563
M73 P6 R3
G1 X104.715 Y47.742 E.06556
G1 X104.715 Y48.402 E.02563
G1 X102.861 Y46.548 E.1018
G1 X102.2 Y46.548 E.02566
G1 X104.715 Y49.063 E.1381
G1 X104.715 Y49.723 E.02563
G1 X101.54 Y46.548 E.17434
G1 X100.879 Y46.548 E.02566
G1 X104.715 Y50.384 E.21063
G1 X104.715 Y51.044 E.02563
G1 X100.219 Y46.548 E.24687
G1 X99.559 Y46.548 E.02563
G1 X104.715 Y51.704 E.28311
G1 X104.715 Y52.365 E.02566
G1 X98.898 Y46.548 E.31941
G1 X98.238 Y46.548 E.02563
G1 X104.715 Y53.025 E.35565
G1 X104.715 Y53.685 E.02563
G1 X97.578 Y46.548 E.39189
G1 X96.917 Y46.548 E.02566
M73 P7 R3
G1 X104.715 Y54.346 E.42819
G1 X104.715 Y55.006 E.02563
G1 X96.257 Y46.548 E.46443
G1 X95.597 Y46.548 E.02563
G1 X104.715 Y55.667 E.50069
G1 X104.715 Y56.327 E.02563
G1 X94.936 Y46.548 E.53696
G1 X94.606 Y46.548 E.01281
G1 X94.606 Y46.878 E.01281
G1 X104.385 Y56.657 E.53696
G1 X103.724 Y56.657 E.02566
M73 P8 R3
G1 X94.606 Y47.539 E.50067
G1 X94.606 Y48.199 E.02563
G1 X103.064 Y56.657 E.46443
G1 X102.404 Y56.657 E.02563
G1 X94.606 Y48.86 E.42816
G1 X94.606 Y49.52 E.02563
G1 X101.743 Y56.657 E.39189
G1 X101.083 Y56.657 E.02563
G1 X94.606 Y50.18 E.35565
G1 X94.606 Y50.841 E.02566
G1 X100.422 Y56.657 E.31936
G1 X99.762 Y56.657 E.02563
M73 P9 R3
G1 X94.606 Y51.501 E.28311
G1 X94.606 Y52.161 E.02563
G1 X99.102 Y56.657 E.24687
G1 X98.441 Y56.657 E.02566
G1 X94.606 Y52.822 E.21058
G1 X94.606 Y53.482 E.02563
G1 X97.781 Y56.657 E.17434
G1 X97.121 Y56.657 E.02563
G1 X94.606 Y54.142 E.1381
G1 X94.606 Y54.803 E.02566
G1 X96.46 Y56.657 E.1018
G1 X95.8 Y56.657 E.02563
G1 X94.606 Y55.463 E.06556
G1 X94.606 Y56.124 E.02566
G1 X95.345 Y56.863 E.04058
M204 P2000
G1 E-2.5 F4200
G1 X95.345 Y56.863 Z.4 F24000
M486 S-1
M486 S0
G1 X96.32 Y83.409
G1 Z.2 F720
G1 E2.5 F2400
M204 P500
;TYPE:Perimeter
;WIDTH:0.499999
G1 F1800
G1 X95.727 Y83.548 E.02315
G1 X95.124 Y83.632 E.02314
G1 X94.516 Y83.66 E.02313
G1 X93.907 Y83.632 E.02317
G1 X93.304 Y83.548 E.02314
G1 X92.712 Y83.409 E.02311
G1 X92.134 Y83.215 E.02317
G1 X91.577 Y82.969 E.02314
G1 X91.052 Y82.677 E.02283
G1 X90.299 Y82.135 E.03526
G1 X89.854 Y81.73 E.02287
G1 X89.444 Y81.28 E.02314
G1 X89.082 Y80.8 E.02285
G1 X88.612 Y79.999 E.0353
M73 P10 R3
G1 X88.369 Y79.45 E.02282
G1 X88.175 Y78.872 E.02317
G1 X88.036 Y78.28 E.02311
G1 X87.952 Y77.677 E.02314
G1 X87.924 Y77.068 E.02317
G1 X87.952 Y76.46 E.02313
G1 X88.036 Y75.857 E.02314
G1 X88.175 Y75.264 E.02315
G1 X88.369 Y74.687 E.02314
G1 X88.615 Y74.13 E.02314
G1 X88.907 Y73.605 E.02283
G1 X89.45 Y72.851 E.03531
G1 X89.854 Y72.407 E.02281
G1 X90.314 Y71.989 E.02362
G1 X90.784 Y71.635 E.02236
G1 X91.585 Y71.164 E.03532
G1 X92.134 Y70.921 E.02282
G1 X92.712 Y70.728 E.02316
G1 X93.304 Y70.588 E.02312
G1 X93.907 Y70.504 E.02314
G1 X94.528 Y70.476 E.02363
G1 X95.116 Y70.504 E.02237
G1 X95.703 Y70.6 E.02261
G1 X96.354 Y70.745 E.02535
G1 X96.908 Y70.933 E.02223
G1 X97.458 Y71.177 E.02287
G1 X97.986 Y71.472 E.02299
G1 X98.487 Y71.815 E.02308
G1 X98.954 Y72.204 E.0231
G1 X99.383 Y72.633 E.02306
G1 X99.772 Y73.101 E.02313
G1 X100.115 Y73.603 E.02311
G1 X100.411 Y74.134 E.02311
G1 X100.656 Y74.69 E.02309
G1 X100.85 Y75.267 E.02314
G1 X100.989 Y75.859 E.02311
G1 X101.073 Y76.462 E.02314
G1 X101.101 Y77.068 E.02306
G1 X101.101 Y77.373 E.01159
G1 X101.045 Y77.979 E.02313
G1 X100.933 Y78.578 E.02316
G1 X100.766 Y79.163 E.02312
G1 X100.546 Y79.731 E.02315
G1 X100.275 Y80.276 E.02313
G1 X99.954 Y80.794 E.02316
G1 X99.587 Y81.28 E.02315
G1 X99.177 Y81.73 E.02314
G1 X98.727 Y82.14 E.02314
G1 X98.241 Y82.507 E.02315
G1 X97.73 Y82.823 E.02283
G1 X96.89 Y83.218 E.03528
G1 X96.377 Y83.39 E.02056
M204 P2000
G1 X96.377 Y83.39 F24000
G1 X96.445 Y83.849
M204 P500
;TYPE:External perimeter
G1 F1800
G1 X95.811 Y83.998 E.02475
G1 X95.166 Y84.088 E.02475
G1 X94.516 Y84.118 E.02473
G1 X93.865 Y84.088 E.02477
G1 X93.22 Y83.998 E.02475
G1 X92.587 Y83.849 E.02472
G1 X91.969 Y83.642 E.02477
G1 X91.373 Y83.379 E.02476
G1 X90.807 Y83.063 E.02464
G1 X90.01 Y82.49 E.03731
G1 X89.531 Y82.053 E.02464
G1 X89.092 Y81.572 E.02475
G1 X88.701 Y81.054 E.02467
G1 X88.204 Y80.208 E.03729
G1 X87.942 Y79.615 E.02464
G1 X87.735 Y78.998 E.02473
G1 X87.586 Y78.364 E.02475
G1 X87.496 Y77.719 E.02475
G1 X87.466 Y77.068 E.02477
G1 X87.496 Y76.418 E.02473
G1 X87.586 Y75.773 E.02475
G1 X87.735 Y75.139 E.02475
G1 X87.942 Y74.522 E.02473
G1 X88.205 Y73.926 E.02476
G1 X88.521 Y73.359 E.02467
G1 X89.094 Y72.563 E.03728
G1 X89.531 Y72.083 E.02467
G1 X90.022 Y71.637 E.02521
G1 X90.53 Y71.254 E.02418
G1 X91.376 Y70.757 E.03729
G1 X91.969 Y70.495 E.02464
G1 X92.587 Y70.288 E.02477
G1 X93.22 Y70.139 E.02472
G1 X93.865 Y70.049 E.02475
G1 X94.528 Y70.019 E.02522
G1 X95.164 Y70.049 E.0242
G1 X95.777 Y70.149 E.02361
G1 X96.479 Y70.305 E.02733
G1 X97.073 Y70.507 E.02385
G1 X97.662 Y70.768 E.02449
G1 X98.227 Y71.084 E.0246
G1 X98.762 Y71.45 E.02464
G1 X99.262 Y71.866 E.02472
G1 X99.721 Y72.325 E.02467
G1 X100.136 Y72.826 E.02473
G1 X100.504 Y73.362 E.02471
G1 X100.82 Y73.93 E.0247
G1 X101.083 Y74.525 E.02472
G1 X101.289 Y75.142 E.02472
G1 X101.438 Y75.775 E.02472
G1 X101.528 Y76.42 E.02475
G1 X101.558 Y77.068 E.02465
G1 X101.558 Y77.394 E.01239
G1 X101.498 Y78.042 E.02473
G1 X101.378 Y78.682 E.02475
G1 X101.2 Y79.309 E.02477
G1 X100.965 Y79.916 E.02474
G1 X100.675 Y80.499 E.02475
G1 X100.332 Y81.052 E.02473
G1 X99.939 Y81.572 E.02477
G1 X99.501 Y82.053 E.02472
G1 X99.019 Y82.492 E.02478
G1 X98.5 Y82.884 E.02472
M73 P11 R3
G1 X97.948 Y83.226 E.02468
G1 X97.06 Y83.643 E.03729
G1 X96.502 Y83.83 E.02237
M204 P2000
G1 X96.114 Y83.926 F24000
G1 E-2.5 F4200
G1 Z.4 F720
G1 X97.775 Y71.556 F24000
G1 Z.2 F720
G1 E2.5 F2400
M204 P500
;TYPE:Solid infill
;WIDTH:0.502346
G1 F1800
G1 X98.916 Y72.698 E.06167
G1 X99.288 Y73.105 E.02106
G1 X99.633 Y73.563 E.0219
G1 X99.935 Y74.05 E.02189
G1 X100.19 Y74.563 E.02188
G1 X100.228 Y74.659 E.00394
G1 X96.925 Y71.357 E.17842
G1 X96.487 Y71.187 E.01795
G1 X95.954 Y71.035 E.02117
G1 X100.549 Y75.63 E.24824
G1 X100.659 Y76.211 E.02259
G1 X100.678 Y76.408 E.00756
G1 X95.177 Y70.908 E.29716
G1 X95.076 Y70.891 E.00391
G1 X94.487 Y70.867 E.02252
G1 X100.712 Y77.093 E.33633
G1 X100.712 Y77.355 E.01001
G1 X100.679 Y77.709 E.01358
G1 X93.872 Y70.902 E.36775
G1 X93.307 Y70.987 E.02183
G1 X100.594 Y78.274 E.39368
G1 X100.554 Y78.489 E.00835
M73 P12 R3
G1 X100.467 Y78.796 E.01219
G1 X92.784 Y71.113 E.41507
G1 X92.297 Y71.277 E.01963
G1 X100.303 Y79.282 E.4325
G1 X100.19 Y79.574 E.01196
G1 X100.109 Y79.738 E.00699
G1 X91.845 Y71.474 E.44646
G1 X91.762 Y71.51 E.00346
G1 X91.428 Y71.707 E.01481
G1 X99.887 Y80.165 E.45697
G1 X99.638 Y80.566 E.01803
G1 X91.019 Y71.947 E.46564
G1 X90.647 Y72.225 E.01774
G1 X99.359 Y80.937 E.47067
G1 X99.288 Y81.031 E.0045
M73 P13 R3
G1 X99.057 Y81.285 E.01312
G1 X90.3 Y72.527 E.47312
G1 X90.129 Y72.682 E.00882
G1 X89.974 Y72.852 E.00879
G1 X98.732 Y81.61 E.47315
G1 X98.479 Y81.841 E.01309
G1 X98.384 Y81.912 E.00453
G1 X89.675 Y73.203 E.4705
G1 X89.403 Y73.58 E.01776
G1 X98.014 Y82.191 E.46521
G1 X97.612 Y82.439 E.01804
G1 X89.147 Y73.973 E.45735
G1 X88.921 Y74.398 E.01839
M73 P14 R3
G1 X97.177 Y82.654 E.44603
G1 X96.734 Y82.86 E.01866
G1 X88.724 Y74.85 E.43274
G1 X88.561 Y75.337 E.01962
G1 X96.247 Y83.023 E.41524
G1 X95.724 Y83.15 E.02056
G1 X88.434 Y75.86 E.39384
G1 X88.349 Y76.424 E.02179
G1 X95.16 Y83.235 E.36796
G1 X94.545 Y83.27 E.02353
G1 X88.314 Y77.039 E.33663
G1 X88.351 Y77.726 E.02628
M73 P15 R3
G1 X93.858 Y83.233 E.29752
G1 X93.376 Y83.166 E.01859
G1 X93.069 Y83.094 E.01205
G1 X88.49 Y78.515 E.24738
G1 X88.549 Y78.766 E.00985
G1 X88.731 Y79.309 E.02188
G1 X88.808 Y79.482 E.00723
G1 X92.102 Y82.776 E.17796
G1 X91.751 Y82.621 E.01466
G1 X91.261 Y82.348 E.02143
G1 X90.544 Y81.832 E.03375
G1 X90.144 Y81.468 E.02066
G1 X89.035 Y80.359 E.05991
M204 P2000
G1 E-2.5 F4200
G1 X89.035 Y80.359 Z.4 F24000
M486 S-1
M486 S3
G1 X170.582 Y103.763
G1 Z.2 F720
G1 E2.5 F2400
M204 P500
;TYPE:External perimeter
;WIDTH:0.38292
G1 F1800
G1 X178.002 Y109.937 E.27289
M204 P2000
G1 E-2.5 F4200
G1 X178.002 Y109.937 Z.4 F24000
G1 X169.622 Y104.916
G1 Z.2 F720
G1 E2.5 F2400
M204 P500
G1 F1800
G1 X177.043 Y111.09 E.27291
M204 P2000
G1 E-2.5 F4200
M73 P16 R3
G1 X177.043 Y111.09 Z.4 F24000
G1 X80.827 Y176.515
G1 Z.2 F720
G1 E2.5 F2400
M204 P500
G1 F1800
G1 X82.38 Y166.985 E.27298
M204 P2000
G1 E-2.5 F4200
G1 X82.38 Y166.985 Z.4 F24000
G1 X79.347 Y176.274
G1 Z.2 F720
G1 E2.5 F2400
M204 P500
G1 F1800
G1 X80.9 Y166.744 E.27298
M204 P2000
G1 E-2.5 F4200
G1 X80.9 Y166.744 Z.4 F24000
G1 X6.047 Y149.315
G1 Z.2 F720
G1 E2.5 F2400
M204 P500
G1 F1800
G1 X13.675 Y143.397 E.27294
M204 P2000
G1 E-2.5 F4200
M73 P17 R3
G1 X13.675 Y143.397 Z.4 F24000
G1 X5.127 Y148.13
G1 Z.2 F720
G1 E2.5 F2400
M204 P500
G1 F1800
G1 X12.755 Y142.212 E.27294
M204 P2000
G1 E-2.5 F4200
G1 X12.755 Y142.212 Z.4 F24000
M486 S-1
M486 S1
G1 X68.626 Y91.999
G1 Z.2 F720
G1 E2.5 F2400
M204 P500
;TYPE:Perimeter
;WIDTH:0.499999
G1 F1800
G1 X75.23 Y87.162 E.31112
G1 X77.649 Y90.464 E.15557
G1 X80.067 Y93.766 E.15555
G1 X73.463 Y98.603 E.31112
G1 X68.662 Y92.048 E.30881
M204 P2000
G1 X68.662 Y92.048 F24000
G1 X67.988 Y91.9
M204 P500
;TYPE:External perimeter
G1 F1800
G1 X75.329 Y86.524 E.34582
G1 X78.018 Y90.194 E.17292
M73 P18 R3
G1 X80.706 Y93.865 E.17292
G1 X73.365 Y99.242 E.34584
G1 X68.023 Y91.949 E.34358
M204 P2000
G1 X68.307 Y91.667 F24000
G1 E-2.5 F4200
G1 Z.4 F720
G1 X77.833 Y91.025 F24000
G1 Z.2 F720
G1 E2.5 F2400
M204 P500
;TYPE:Solid infill
;WIDTH:0.515261
G1 F1800
G1 X74.781 Y87.973 E.16952
G1 X74.395 Y88.256 E.0188
G1 X78.708 Y92.568 E.23953
G1 X79.524 Y93.683 E.05427
G1 X79.311 Y93.839 E.01037
G1 X74.01 Y88.538 E.29444
G1 X73.624 Y88.82 E.01878
G1 X78.925 Y94.121 E.29444
G1 X78.54 Y94.404 E.01877
M73 P19 R3
G1 X73.239 Y89.103 E.29444
G1 X72.853 Y89.385 E.01878
G1 X78.154 Y94.686 E.29444
G1 X77.768 Y94.969 E.0188
G1 X72.468 Y89.668 E.29441
G1 X72.082 Y89.95 E.01878
G1 X77.383 Y95.251 E.29444
G1 X76.997 Y95.533 E.01878
G1 X71.696 Y90.232 E.29444
G1 X71.311 Y90.515 E.01877
G1 X76.612 Y95.816 E.29444
G1 X76.226 Y96.098 E.01878
G1 X70.925 Y90.797 E.29444
G1 X70.54 Y91.08 E.01877
G1 X75.841 Y96.381 E.29444
G1 X75.455 Y96.663 E.01878
M73 P20 R3
G1 X70.154 Y91.362 E.29444
G1 X69.768 Y91.644 E.01878
G1 X75.069 Y96.945 E.29444
G1 X74.684 Y97.228 E.01877
G1 X69.383 Y91.927 E.29444
G1 X69.169 Y92.083 E.0104
G1 X69.986 Y93.198 E.05429
G1 X74.298 Y97.51 E.2395
G1 X73.913 Y97.793 E.01877
G1 X70.861 Y94.741 E.16952
M204 P2000
M106 S84.15
;LAYER_CHANGE
;Z:0.4
;HEIGHT:0.2
;BEFORE_LAYER_CHANGE
G92 E0.0
;0.4
M201 X3999.75 Y3999.75
M74 W0.107615

G1 E-2.5 F4200
G1 Z.4 F720
;AFTER_LAYER_CHANGE
;0.4
M104 S220 ; set temperature
G1 X70.861 Y94.741 Z.6 F24000
M486 S-1
M486 S2
G1 X105.378 Y57.321
G1 Z.4 F720
G1 E2.5 F2400
;TYPE:Perimeter
;WIDTH:0.449999
G1 F3828.202
G1 X93.943 Y57.321 E.38706
G1 X93.943 Y45.885 E.38709
G1 X105.378 Y45.885 E.38706
G1 F4711.669
M73 P21 R3
G1 X105.378 Y51.603 E.19355
G1 X105.378 Y57.261 E.19152
G1 X105.378 Y57.261 F24000
G1 X105.785 Y57.728
M204 P1500
;TYPE:External perimeter
G1 F2459.717
G1 X93.535 Y57.728 E.41465
G1 X93.535 Y45.478 E.41465
G1 X105.785 Y45.478 E.41465
G1 F2494.406
G1 X105.785 Y46.153 E.02285
G1 F2675.48
G1 X105.785 Y50.928 E.16163
G1 F2700
G1 X105.785 Y51.603 E.02285
G1 X105.785 Y52.278 E.02285
G1 F2675.481
G1 X105.785 Y57.053 E.16163
G1 F2494.407
G1 X105.785 Y57.668 E.02082
M204 P2000
G1 X105.39 Y57.727 F24000
G1 E-2.5 F4200
G1 Z.6 F720
G1 X94.399 Y46.264 F24000
G1 Z.4 F720
G1 E2.5 F2400
M204 P3000
;TYPE:Solid infill
;WIDTH:0.548766
G1 F8302.922
G1 X94.354 Y46.219 E.00268
G1 X94.293 Y46.235 E.00265
G1 X94.277 Y46.296 E.00265
G1 X94.322 Y46.341 E.00268
G1 X94.383 Y46.325 E.00265
M204 P2000
G1 X94.383 Y46.325 F24000
G1 X94.156 Y47.12
M204 P3000
;WIDTH:0.38292
G1 F8400
G1 X94.085 Y47.101 E.00208
G1 X94.104 Y47.172 E.00208
G1 X94.145 Y47.161 E.0012
;WIDTH:0.41646
G1 X94.217 Y47.068 E.00365
;WIDTH:0.449999
G1 X94.289 Y46.975 E.00398
G1 X95.033 Y46.231 E.03561
G1 X95.126 Y46.159 E.00398
;WIDTH:0.41646
G1 X95.219 Y46.087 E.00365
;WIDTH:0.38292
G1 X95.178 Y46.098 E.0012
G1 X95.159 Y46.027 E.00208
G1 X95.23 Y46.046 E.00208
;WIDTH:0.449999
G1 X95.609 Y46.231 E.01428
G1 X94.289 Y47.551 E.06319
G1 X94.289 Y48.126 E.01946
G1 X96.184 Y46.231 E.09071
G1 X96.76 Y46.231 E.0195
G1 X94.289 Y48.702 E.11829
G1 X94.289 Y49.278 E.0195
G1 X97.336 Y46.231 E.14586
G1 X97.911 Y46.231 E.01946
G1 X94.289 Y49.854 E.17341
G1 X94.289 Y50.429 E.01946
G1 X98.487 Y46.231 E.20096
G1 X99.063 Y46.231 E.0195
G1 X94.289 Y51.005 E.22853
G1 X94.289 Y51.581 E.0195
M73 P22 R3
G1 X99.638 Y46.231 E.25608
G1 X100.214 Y46.231 E.0195
G1 X94.289 Y52.156 E.28363
G1 X94.289 Y52.732 E.0195
G1 X100.79 Y46.231 E.3112
G1 X101.366 Y46.231 E.0195
G1 X94.289 Y53.308 E.33877
G1 X94.289 Y53.883 E.01946
G1 X101.941 Y46.231 E.3663
G1 X102.517 Y46.231 E.0195
