;FLAVOR:Marlin
;TIME:407
;Filament used: 0.343517m
;Layer height: 0.2
;MINX:63.774
;MINY:41.653
;MINZ:0.2
;MAXX:109.61
;MAXY:103.454
;MAXZ:2
;Generated with Cura_SteamEngine 5.4.0
M82 ;absolute extrusion mode
M201 X1250 Y1250 Z400 E5000 ; sets maximum accelerations
M203 X180 Y180 Z12 E80 ; sets maximum feedrates
M205 X8.00 Y8.00 Z2.00 E10.00 ; sets the jerk limits
M221 S100 ; reset flow
G90 ; use absolute positioning
M82 ; absolute extrusion mode
M104 S170 ; set extruder temp for bed leveling
M140 S60 ; set bed temp
M109 R170 ; wait for extruder temp
M190 S60 ; wait for bed temp
G28 ; home all
G29 ; mesh bed leveling
M104 S200 ; set extruder temp
G92 E0.0
G1 Y-2 X179 F2400
G1 Z3 F720
M109 S200 ; wait for extruder temp
G92 E0.0
G1 X170 F1000
G1 Z0.2 F720
G1 X110 E8 F900
G1 X40 E18 F900
G92 E0.0
M900 K0.2 ; LA
G92 E0
G92 E0
G1 F4200 E-3.5
;LAYER_COUNT:10
;LAYER:0
M107
G0 F3600 X90.026 Y43.808 Z0.2
;TYPE:SKIRT
G1 F4200 E0
G1 F1800 X90.296 Y43.307 E0.01893
G1 X90.642 Y42.856 E0.03784
G1 X91.055 Y42.465 E0.05675
G1 X91.524 Y42.143 E0.07567
G1 X92.037 Y41.9 E0.09455
G1 X92.589 Y41.739 E0.11368
G1 X93.317 Y41.653 E0.13806
G1 X105.355 Y41.653 E0.53844
G1 X106.053 Y41.663 E0.56166
G1 X106.65 Y41.723 E0.58162
G1 X107.2 Y41.869 E0.60055
G1 X107.664 Y42.071 E0.61738
G1 X108.145 Y42.373 E0.63627
G1 X108.618 Y42.792 E0.65728
G1 X108.973 Y43.234 E0.67614
G1 X109.256 Y43.728 E0.69508
G1 X109.457 Y44.259 E0.71396
G1 X109.572 Y44.816 E0.73288
G1 X109.609 Y45.493 E0.75543
G1 X109.61 Y57.298 E1.14806
G1 X109.6 Y57.999 E1.17138
G1 X109.537 Y58.676 E1.19399
G1 X108.53 Y62.119 E1.31331
G1 X107.843 Y64.761 E1.4041
G1 X107.231 Y67.421 E1.49489
G1 X106.693 Y70.101 E1.5858
G1 X106.236 Y72.772 E1.67593
G1 X105.852 Y75.467 E1.76647
G1 X105.489 Y78.683 E1.87412
G1 X105.342 Y79.457 E1.90032
G1 X105.182 Y80.179 E1.92492
G1 X104.662 Y81.567 E1.97421
G1 X104.051 Y82.747 E2.01841
G1 X103.529 Y83.522 E2.04949
G1 X103.099 Y84.126 E2.07415
G1 X102.399 Y84.86 E2.10788
G1 X101.882 Y85.355 E2.13169
G1 X101.331 Y85.813 E2.15552
G1 X100.755 Y86.264 E2.17985
G1 X99.855 Y86.783 E2.21441
G1 X99.195 Y87.136 E2.2393
G1 X96.477 Y88.53 E2.3409
G1 X94.111 Y89.833 E2.43074
G1 X91.732 Y91.233 E2.52255
G1 X89.441 Y92.668 E2.61246
G1 X87.174 Y94.181 E2.70311
G1 X84.925 Y95.776 E2.79481
G1 X84.151 Y96.359 E2.82704
G1 X84.054 Y96.422 E2.83089
G1 X83.08 Y97.147 E2.87128
G1 X75.937 Y102.377 E3.16573
G1 X75.326 Y102.81 E3.19063
G1 X74.834 Y103.097 E3.20958
G1 X74.365 Y103.284 E3.22637
G1 X73.813 Y103.414 E3.24523
G1 X73.181 Y103.454 E3.2663
G1 X72.616 Y103.395 E3.28519
G1 X72.066 Y103.248 E3.30413
G1 X71.603 Y103.046 E3.32093
G1 X71.071 Y102.706 E3.34193
G1 X70.649 Y102.324 E3.36086
G1 X70.179 Y101.747 E3.38561
G1 X64.858 Y94.481 E3.68515
G1 X64.42 Y93.862 E3.71037
G1 X64.131 Y93.37 E3.72935
G1 X63.944 Y92.901 E3.74614
G1 X63.806 Y92.286 E3.76711
G1 X63.774 Y91.717 E3.78606
G1 X63.833 Y91.152 E3.80496
G1 X63.979 Y90.602 E3.82388
G1 X64.181 Y90.139 E3.84068
G1 X64.565 Y89.529 E3.86466
G1 X65.481 Y88.579 E3.90855
G1 X67.385 Y86.553 E4.00102
G1 X69.173 Y84.534 E4.09072
G1 X70.957 Y82.403 E4.18316
G1 X72.619 Y80.301 E4.27228
G1 X74.263 Y78.095 E4.36379
G1 X75.819 Y75.881 E4.45379
G1 X77.36 Y73.546 E4.54685
G1 X78.768 Y71.278 E4.63563
G1 X80.125 Y68.947 E4.72534
G1 X81.455 Y66.507 E4.81777
G1 X82.688 Y64.085 E4.90817
G1 X83.838 Y61.661 E4.9974
G1 X84.945 Y59.139 E5.08901
G1 X85.968 Y56.622 E5.17937
G1 X86.933 Y54.043 E5.27096
G1 X87.807 Y51.485 E5.36087
G1 X88.615 Y48.883 E5.45149
G1 X89.362 Y46.212 E5.54374
G1 X89.838 Y44.345 E5.60782
G1 X90.026 Y43.808 E5.62674
G0 F3600 X90.38 Y43.995
G1 F1800 X90.616 Y43.548 E5.64355
G1 X90.92 Y43.144 E5.66037
G1 X91.284 Y42.793 E5.67719
G1 X91.698 Y42.503 E5.694
G1 X92.153 Y42.283 E5.71081
G1 X92.637 Y42.136 E5.72763
G1 X93.317 Y42.053 E5.75042
G1 X105.349 Y42.053 E6.1506
G1 X106.047 Y42.063 E6.17382
G1 X106.55 Y42.11 E6.19063
G1 X107.04 Y42.236 E6.20745
G1 X107.504 Y42.438 E6.22428
G1 X107.93 Y42.71 E6.2411
G1 X108.308 Y43.045 E6.25789
G1 X108.628 Y43.436 E6.2747
G1 X108.883 Y43.873 E6.29153
G1 X109.066 Y44.344 E6.30833
G1 X109.173 Y44.838 E6.32515
G1 X109.209 Y45.493 E6.34696
G1 X109.21 Y57.292 E6.7394
G1 X109.2 Y57.993 E6.76272
G1 X109.143 Y58.599 E6.78296
G1 X108.146 Y62.007 E6.90106
G1 X107.456 Y64.66 E6.99224
G1 X106.841 Y67.331 E7.0834
G1 X106.301 Y70.022 E7.17469
G1 X105.842 Y72.705 E7.26522
G1 X105.456 Y75.411 E7.35613
G1 X105.096 Y78.608 E7.46314
G1 X104.951 Y79.37 E7.48894
G1 X104.791 Y80.092 E7.51353
G1 X104.306 Y81.384 E7.55943
G1 X103.719 Y82.524 E7.60208
G1 X103.203 Y83.29 E7.6328
G1 X102.773 Y83.894 E7.65746
G1 X102.122 Y84.571 E7.6887
G1 X101.605 Y85.066 E7.71251
G1 X101.084 Y85.498 E7.73502
G1 X100.508 Y85.949 E7.75935
G1 X99.666 Y86.43 E7.7916
G1 X99.012 Y86.78 E7.81627
G1 X96.294 Y88.174 E7.91787
G1 X93.908 Y89.488 E8.00847
G1 X91.529 Y90.888 E8.10028
G1 X89.219 Y92.335 E8.19094
G1 X86.952 Y93.848 E8.28159
G1 X84.684 Y95.456 E8.37406
G1 X83.91 Y96.039 E8.40629
G1 X83.825 Y96.093 E8.40964
G1 X82.844 Y96.824 E8.45033
G1 X75.706 Y102.051 E8.74459
G1 X75.121 Y102.466 E8.76844
G1 X74.686 Y102.725 E8.78528
G1 X74.217 Y102.912 E8.80207
G1 X73.724 Y103.024 E8.81889
G1 X73.219 Y103.056 E8.83572
G1 X72.716 Y103.008 E8.85252
G1 X72.226 Y102.881 E8.86936
G1 X71.763 Y102.679 E8.88616
G1 X71.337 Y102.407 E8.90297
G1 X70.959 Y102.071 E8.91979
G1 X70.502 Y101.511 E8.94383
G1 X65.184 Y94.25 E9.24318
G1 X64.763 Y93.656 E9.2674
G1 X64.503 Y93.222 E9.28422
G1 X64.316 Y92.753 E9.30102
G1 X64.205 Y92.26 E9.31782
G1 X64.172 Y91.755 E9.33466
G1 X64.22 Y91.252 E9.35146
G1 X64.346 Y90.762 E9.36829
G1 X64.548 Y90.299 E9.38509
G1 X64.88 Y89.779 E9.40561
G1 X65.769 Y88.857 E9.44821
G1 X67.676 Y86.826 E9.54087
G1 X69.48 Y84.791 E9.63132
G1 X71.264 Y82.66 E9.72376
G1 X72.933 Y80.549 E9.81326
G1 X74.584 Y78.334 E9.90515
G1 X76.146 Y76.111 E9.99551
G1 X77.694 Y73.766 E10.08897
G1 X79.108 Y71.489 E10.17812
G1 X80.471 Y69.148 E10.26822
G1 X81.806 Y66.698 E10.36101
G1 X83.044 Y64.267 E10.45175
G1 X84.204 Y61.822 E10.54176
G1 X85.316 Y59.29 E10.63374
G1 X86.339 Y56.773 E10.7241
G1 X87.307 Y54.183 E10.81607
G1 X88.189 Y51.604 E10.90672
G1 X88.997 Y49.002 E10.99734
G1 X89.75 Y46.311 E11.09028
G1 X90.217 Y44.474 E11.15333
G1 X90.38 Y43.995 E11.17016
G1 F4200 E7.67016
;MESH:manual test - prusa mini.3mf
G0 F3600 X92.645 Y45.667
G0 X93.724 Y45.667
G0 X105.14 Y57.083
G0 X105.41 Y57.353
;TYPE:WALL-INNER
G1 F4200 E11.17016
G1 F1800 X105.41 Y45.853 E11.55265
G1 X93.91 Y45.853 E11.93514
G1 X93.91 Y57.353 E12.31763
G1 X105.41 Y57.353 E12.70012
G0 F3600 X105.81 Y57.753
;TYPE:WALL-OUTER
G1 F1800 X105.81 Y45.453 E13.10922
G1 X93.51 Y45.453 E13.51832
G1 X93.51 Y57.753 E13.92742
G1 X105.81 Y57.753 E14.33652
G0 F3600 X105.81 Y57.553
G0 X105.03 Y56.973
;TYPE:SKIN
G1 F1800 X94.29 Y56.973 E14.69373
G1 X94.29 Y46.233 E15.05095
G1 X105.03 Y46.233 E15.40816
G1 X105.03 Y56.973 E15.76538
G0 F3600 X104.829 Y46.563
G1 F1800 X104.699 Y46.433 E15.77149
G0 F3600 X104.133 Y46.433
G1 F1800 X104.829 Y47.129 E15.80423
G0 F3600 X104.829 Y47.695
G1 F1800 X103.567 Y46.433 E15.86359
G0 F3600 X103.002 Y46.433
G1 F1800 X104.829 Y48.26 E15.94953
G0 F3600 X104.829 Y48.826
G1 F1800 X102.436 Y46.433 E16.06208
G0 F3600 X101.87 Y46.433
G1 F1800 X104.829 Y49.392 E16.20127
G0 F3600 X104.829 Y49.957
G1 F1800 X101.305 Y46.433 E16.36703
G0 F3600 X100.739 Y46.433
G1 F1800 X104.829 Y50.523 E16.55941
G0 F3600 X104.829 Y51.089
G1 F1800 X100.173 Y46.433 E16.77841
G0 F3600 X99.608 Y46.433
G1 F1800 X104.829 Y51.654 E17.02399
G0 F3600 X104.829 Y52.22
G1 F1800 X99.042 Y46.433 E17.29619
G0 F3600 X98.476 Y46.433
G1 F1800 X104.829 Y52.786 E17.59502
G0 F3600 X104.829 Y53.351
G1 F1800 X97.91 Y46.433 E17.92044
G0 F3600 X97.345 Y46.433
G1 F1800 X104.829 Y53.917 E18.27247
G0 F3600 X104.829 Y54.483
G1 F1800 X96.779 Y46.433 E18.65112
G0 F3600 X96.213 Y46.433
G1 F1800 X104.829 Y55.048 E19.05636
G0 F3600 X104.829 Y55.614
G1 F1800 X95.648 Y46.433 E19.48821
G0 F3600 X95.082 Y46.433
G1 F1800 X104.829 Y56.18 E19.94668
G0 F3600 X104.829 Y56.746
G1 F1800 X94.516 Y46.433 E20.43177
G0 F3600 X94.489 Y46.971
G1 F1800 X104.29 Y56.772 E20.89278
G0 F3600 X103.724 Y56.772
G1 F1800 X94.489 Y47.537 E21.32716
G0 F3600 X94.489 Y48.103
G1 F1800 X103.159 Y56.772 E21.73495
G0 F3600 X102.593 Y56.772
G1 F1800 X94.489 Y48.668 E22.11614
G0 F3600 X94.489 Y49.234
G1 F1800 X102.027 Y56.772 E22.4707
G0 F3600 X101.462 Y56.772
G1 F1800 X94.489 Y49.8 E22.79867
G0 F3600 X94.489 Y50.365
G1 F1800 X100.896 Y56.772 E23.10003
G0 F3600 X100.33 Y56.772
G1 F1800 X94.489 Y50.931 E23.37478
G0 F3600 X94.489 Y51.497
G1 F1800 X99.764 Y56.772 E23.6229
G0 F3600 X99.199 Y56.772
G1 F1800 X94.489 Y52.062 E23.84444
G0 F3600 X94.489 Y52.628
G1 F1800 X98.633 Y56.772 E24.03936
G0 F3600 X98.067 Y56.772
G1 F1800 X94.489 Y53.194 E24.20766
G0 F3600 X94.489 Y53.759
G1 F1800 X97.502 Y56.772 E24.34938
G0 F3600 X96.936 Y56.772
G1 F1800 X94.489 Y54.325 E24.46448
G0 F3600 X94.489 Y54.891
G1 F1800 X96.37 Y56.772 E24.55296
G0 F3600 X95.805 Y56.772
G1 F1800 X94.489 Y55.456 E24.61486
G0 F3600 X94.489 Y56.022
G1 F1800 X95.239 Y56.772 E24.65014
G0 F3600 X94.673 Y56.772
G1 F1800 X94.489 Y56.588 E24.65879
G0 F3600 X94.51 Y56.588
G1 F4200 E21.15879
;MESH:manual test - prusa mini.3mf(1)
G0 F3600 X94.8 Y57.533
G0 X94.8 Y58.618
G0 X94.541 Y68.895
G0 X94.618 Y69.974
G0 X94.8 Y83.661
G0 X94.809 Y83.96
;TYPE:WALL-INNER
G1 F4200 E24.65879
G1 F1800 X95.609 Y83.879 E24.68553
G1 X96.373 Y83.711 E24.71155
G1 X97.325 Y83.385 E24.74502
G1 X98.366 Y82.811 E24.78456
G1 X99.137 Y82.189 E24.81751
G1 X99.837 Y81.481 E24.85062
G1 X100.408 Y80.655 E24.88402
G1 X100.782 Y79.955 E24.91042
G1 X101.145 Y79.031 E24.94344
G1 X101.342 Y78.063 E24.97629
G1 X101.412 Y77.261 E25.00307
G1 X101.389 Y76.478 E25.02912
G1 X101.273 Y75.686 E25.05574
G1 X101.07 Y74.918 E25.08217
G1 X100.782 Y74.182 E25.10845
G1 X100.31 Y73.297 E25.14181
G1 X99.704 Y72.522 E25.17453
G1 X99.137 Y71.947 E25.20139
G1 X98.526 Y71.455 E25.22748
G1 X97.855 Y71.032 E25.25387
G1 X97.137 Y70.689 E25.28033
G1 X96.375 Y70.426 E25.30714
G1 X95.583 Y70.253 E25.33411
G1 X94.613 Y70.157 E25.36653
G1 X93.618 Y70.228 E25.3997
G1 X92.847 Y70.375 E25.42581
G1 X92.081 Y70.614 E25.4525
G1 X91.363 Y70.934 E25.47864
G1 X90.669 Y71.343 E25.50544
G1 X90.043 Y71.817 E25.53155
G1 X89.469 Y72.366 E25.55797
G1 X88.956 Y72.986 E25.58473
G1 X88.523 Y73.653 E25.61118
G1 X88.168 Y74.365 E25.63765
G1 X87.904 Y75.101 E25.66365
G1 X87.72 Y75.887 E25.6905
G1 X87.628 Y76.676 E25.71692
G1 X87.628 Y77.459 E25.74296
G1 X87.746 Y78.461 E25.77652
G1 X88.027 Y79.41 E25.80944
G1 X88.335 Y80.134 E25.83561
G1 X88.728 Y80.823 E25.86199
G1 X89.2 Y81.463 E25.88844
G1 X89.749 Y82.054 E25.91527
G1 X90.346 Y82.565 E25.94141
G1 X91.006 Y83.007 E25.96783
G1 X91.719 Y83.375 E25.99451
G1 X92.454 Y83.651 E26.02063
G1 X93.23 Y83.845 E26.04723
G1 X94.047 Y83.951 E26.07463
G1 X94.809 Y83.96 E26.09998
G0 F3600 X94.827 Y84.36
;TYPE:WALL-OUTER
G1 F1800 X95.672 Y84.275 E26.12822
G1 X96.481 Y84.097 E26.15577
G1 X97.487 Y83.752 E26.19115
G1 X98.59 Y83.145 E26.23302
G1 X99.406 Y82.486 E26.26791
G1 X100.146 Y81.737 E26.30293
G1 X100.75 Y80.863 E26.33826
G1 X101.146 Y80.123 E26.36618
G1 X101.53 Y79.145 E26.40112
G1 X101.738 Y78.121 E26.43588
G1 X101.812 Y77.273 E26.46419
G1 X101.788 Y76.443 E26.49181
G1 X101.666 Y75.606 E26.51994
G1 X101.451 Y74.793 E26.54791
G1 X101.146 Y74.014 E26.57573
G1 X100.646 Y73.078 E26.61103
G1 X100.005 Y72.258 E26.64565
G1 X99.406 Y71.65 E26.67403
G1 X98.759 Y71.129 E26.70166
G1 X98.049 Y70.681 E26.72959
G1 X97.289 Y70.318 E26.7576
G1 X96.483 Y70.04 E26.78596
G1 X95.646 Y69.857 E26.81445
G1 X94.619 Y69.755 E26.84878
G1 X93.566 Y69.831 E26.88389
G1 X92.75 Y69.986 E26.91152
G1 X91.939 Y70.239 E26.93977
G1 X91.179 Y70.578 E26.96745
G1 X90.446 Y71.01 E26.99575
G1 X89.783 Y71.512 E27.02341
G1 X89.176 Y72.093 E27.05136
G1 X88.633 Y72.749 E27.07968
G1 X88.175 Y73.454 E27.10764
G1 X87.8 Y74.207 E27.13562
G1 X87.52 Y74.987 E27.16319
G1 X87.325 Y75.818 E27.19158
G1 X87.228 Y76.653 E27.21953
G1 X87.228 Y77.483 E27.24714
G1 X87.353 Y78.541 E27.28257
G1 X87.65 Y79.546 E27.31743
G1 X87.976 Y80.312 E27.34512
G1 X88.392 Y81.041 E27.37303
G1 X88.892 Y81.719 E27.40105
G1 X89.471 Y82.343 E27.42937
G1 X90.104 Y82.884 E27.45706
G1 X90.802 Y83.352 E27.48501
G1 X91.557 Y83.741 E27.51326
G1 X92.335 Y84.033 E27.5409
G1 X93.156 Y84.239 E27.56905
G1 X94.019 Y84.351 E27.598
G1 X94.827 Y84.36 E27.62487
G0 F3600 X95.026 Y84.34
G0 X94.788 Y83.579
;TYPE:SKIN
G1 F1800 X94.081 Y83.571 E27.64839
G1 X93.301 Y83.47 E27.67455
G1 X92.563 Y83.284 E27.69986
G1 X91.878 Y83.028 E27.72419
G1 X91.196 Y82.677 E27.7497
G1 X90.574 Y82.261 E27.77458
G1 X90.017 Y81.781 E27.79904
G1 X89.492 Y81.216 E27.82469
G1 X89.043 Y80.609 E27.8498
G1 X88.673 Y79.961 E27.87462
G1 X88.387 Y79.284 E27.89907
G1 X88.122 Y78.387 E27.93018
G1 X88.008 Y77.432 E27.96217
G1 X88.008 Y76.704 E27.98638
G1 X88.094 Y75.958 E28.01136
G1 X88.272 Y75.203 E28.03715
G1 X88.517 Y74.519 E28.06132
G1 X88.852 Y73.845 E28.08635
G1 X89.26 Y73.217 E28.11126
G1 X89.752 Y72.622 E28.13694
G1 X90.294 Y72.104 E28.16188
G1 X90.878 Y71.662 E28.18624
G1 X91.543 Y71.27 E28.21191
G1 X92.213 Y70.97 E28.23633
G1 X92.944 Y70.744 E28.26178
G1 X93.662 Y70.607 E28.28609
G1 X94.607 Y70.538 E28.3176
G1 X95.523 Y70.63 E28.34822
G1 X96.265 Y70.792 E28.37348
G1 X96.997 Y71.044 E28.39923
G1 X97.677 Y71.368 E28.42428
G1 X98.309 Y71.768 E28.44916
G1 X98.877 Y72.227 E28.47345
G1 X99.422 Y72.778 E28.49923
G1 X99.985 Y73.498 E28.52963
G1 X100.438 Y74.346 E28.5616
G1 X100.706 Y75.032 E28.5861
G1 X100.899 Y75.765 E28.61131
G1 X101.009 Y76.516 E28.63655
G1 X101.031 Y77.245 E28.66081
G1 X100.963 Y78.014 E28.68649
G1 X100.779 Y78.923 E28.71734
G1 X100.438 Y79.791 E28.74835
G1 X100.085 Y80.45 E28.77322
G1 X99.542 Y81.237 E28.80502
G1 X98.877 Y81.909 E28.83646
G1 X98.153 Y82.496 E28.86747
G1 X97.176 Y83.032 E28.90453
G1 X96.261 Y83.345 E28.93669
G1 X95.552 Y83.502 E28.96085
G1 X94.788 Y83.579 E28.98639
G0 F3600 X91.829 Y82.778
G1 F1800 X88.799 Y79.748 E29.12891
G1 X88.729 Y79.678
G0 F3600 X88.466 Y78.849
G1 F1800 X92.738 Y83.121 E29.32985
G0 F3600 X93.471 Y83.289
G1 F1800 X88.289 Y78.107 E29.57359
G0 F3600 X88.212 Y77.464
G1 F1800 X94.118 Y83.37 E29.8514
G0 F3600 X94.69 Y83.377
G1 F1800 X88.207 Y76.893 E30.15636
G0 F3600 X88.246 Y76.367
G1 F1800 X95.213 Y83.333 E30.48404
G0 F3600 X95.706 Y83.261
G1 F1800 X88.317 Y75.872 E30.8316
G0 F3600 X88.425 Y75.415
G1 F1800 X96.17 Y83.159 E31.19588
G0 F3600 X96.594 Y83.017
G1 F1800 X88.561 Y74.985 E31.5737
G0 F3600 X88.712 Y74.57
G1 F1800 X97.015 Y82.873 E31.96425
G0 F3600 X97.391 Y82.684
G1 F1800 X88.901 Y74.193 E32.36361
G0 F3600 X89.101 Y73.827
G1 F1800 X97.756 Y82.483 E32.77074
G0 F3600 X98.11 Y82.271
G1 F1800 X89.323 Y73.483 E33.18408
G0 F3600 X89.564 Y73.16
G1 F1800 X98.422 Y82.018 E33.60073
G0 F3600 X98.735 Y81.764
G1 F1800 X89.821 Y72.851 E34.02
G0 F3600 X90.101 Y72.565
G1 F1800 X99.017 Y81.481 E34.43938
G0 F3600 X99.299 Y81.197
G1 F1800 X90.39 Y72.288 E34.85843
G0 F3600 X90.708 Y72.04
G1 F1800 X99.545 Y80.878 E35.27412
G0 F3600 X99.777 Y80.543
G1 F1800 X91.035 Y71.801 E35.68532
G0 F3600 X91.391 Y71.592
G1 F1800 X99.994 Y80.195 E36.08997
G0 F3600 X100.192 Y79.827
G1 F1800 X91.757 Y71.393 E36.48671
G0 F3600 X92.148 Y71.218
G1 F1800 X100.363 Y79.432 E36.87309
G0 F3600 X100.523 Y79.026
G1 F1800 X92.565 Y71.069 E37.24739
G0 F3600 X92.999 Y70.937
G1 F1800 X100.643 Y78.581 E37.60694
G0 F3600 X100.738 Y78.111
G1 F1800 X93.473 Y70.846 E37.94866
G0 F3600 X93.978 Y70.784
G1 F1800 X100.798 Y77.604 E38.26945
G0 F3600 X100.825 Y77.066
G1 F1800 X94.505 Y70.746 E38.56673
G0 F3600 X95.114 Y70.789
G1 F1800 X100.8 Y76.476 E38.8342
G0 F3600 X100.704 Y75.813
G1 F1800 X95.781 Y70.89 E39.06577
G1 X95.711 Y70.82
G0 F3600 X96.562 Y71.106
G1 F1800 X100.494 Y75.038 E39.25072
G1 X100.564 Y75.108
G0 F3600 X100.031 Y74.01
G1 F1800 X97.552 Y71.53 E39.36734
G1 X97.482 Y71.46
G0 F3600 X97.459 Y71.507
G1 F4200 E35.86734
;MESH:manual test - prusa mini.3mf(2)
G0 F3600 X89.617 Y82.18
G0 X88.823 Y82.918
G0 X79.146 Y89.849
G0 X78.287 Y90.478
G0 X73.455 Y98.655
G0 X73.398 Y99.032
