;FLAVOR:Marlin
;TIME:1691
;Filament used: 1.11008m
;Layer height: 0.2
;MINX:3.936
;MINY:3.934
;MINZ:0.2
;MAXX:50.936
;MAXY:50.934
;MAXZ:10
;Generated with Cura_SteamEngine 5.2.2
M82 ;absolute extrusion mode
; Ender 3 Custom Start G-code
G92 E0 ; Reset Extruder
G28 ; Home all axes
M104 S175 ; Start heating up the nozzle most of the way
M190 S60 ; Start heating the bed, wait until target temperature reached
M109 S200 ; Finish heating the nozzle
G1 Z2.0 F3000 ; Move Z Axis up little to prevent scratching of Heat Bed
G1 X0.1 Y20 Z0.3 F5000.0 ; Move to start position
G1 X0.1 Y200.0 Z0.3 F1500.0 E15 ; Draw the first line
G1 X0.4 Y200.0 Z0.3 F5000.0 ; Move to side a little
G1 X0.4 Y20 Z0.3 F1500.0 E30 ; Draw the second line
G92 E0 ; Reset Extruder
G1 Z2.0 F3000 ; Move Z Axis up little to prevent scratching of Heat Bed
G1 X5 Y20 Z0.3 F5000.0 ; Move over to prevent blob squish
G92 E0
G92 E0
G1 F1500 E-6.5
;LAYER_COUNT:50
;LAYER:0
M107
G0 F6000 X7.134 Y7.198 Z0.2
;TYPE:SKIRT
G1 F1500 E0
G1 F1200 X7.822 Y6.561 E0.03119
G1 X8.562 Y5.985 E0.06237
G1 X9.348 Y5.473 E0.09357
G1 X10.175 Y5.031 E0.12476
G1 X11.037 Y4.661 E0.15596
G1 X11.927 Y4.365 E0.18716
G1 X12.839 Y4.147 E0.21835
G1 X13.766 Y4.006 E0.24953
G1 X14.637 Y3.947 E0.27857
G1 X15.266 Y3.934 E0.29949
G1 X24.376 Y3.935 E0.60249
G1 X26.207 Y3.961 E0.6634
G1 X28.846 Y3.961 E0.75117
G1 X30.139 Y3.935 E0.79419
G1 X39.387 Y3.935 E1.10178
G1 X40.085 Y3.945 E1.12499
G1 X41.021 Y3.999 E1.15618
G1 X41.949 Y4.131 E1.18735
G1 X42.863 Y4.343 E1.21856
G1 X43.755 Y4.632 E1.24975
G1 X44.62 Y4.995 E1.28095
G1 X45.45 Y5.431 E1.31213
G1 X46.241 Y5.936 E1.34334
G1 X46.985 Y6.507 E1.37454
G1 X47.678 Y7.139 E1.40573
G1 X48.315 Y7.827 E1.43692
G1 X48.89 Y8.568 E1.46811
G1 X49.401 Y9.354 E1.49929
G1 X49.843 Y10.182 E1.53051
G1 X50.212 Y11.044 E1.5617
G1 X50.507 Y11.934 E1.59288
G1 X50.725 Y12.846 E1.62407
G1 X50.865 Y13.774 E1.65529
G1 X50.923 Y14.635 E1.68399
G1 X50.936 Y15.264 E1.70491
G1 X50.935 Y24.363 E2.00755
G1 X50.909 Y26.203 E2.06875
G1 X50.909 Y28.844 E2.15659
G1 X50.935 Y30.137 E2.19961
G1 X50.935 Y39.334 E2.5055
G1 X50.926 Y40.061 E2.52968
G1 X50.875 Y40.998 E2.56089
G1 X50.743 Y41.926 E2.59207
G1 X50.534 Y42.84 E2.62325
G1 X50.247 Y43.733 E2.65445
G1 X49.885 Y44.599 E2.68567
G1 X49.451 Y45.43 E2.71685
G1 X48.947 Y46.221 E2.74805
G1 X48.378 Y46.966 E2.77922
G1 X47.747 Y47.661 E2.81045
G1 X47.06 Y48.299 E2.84163
G1 X46.321 Y48.876 E2.87281
G1 X45.535 Y49.388 E2.90401
G1 X44.709 Y49.831 E2.93519
G1 X43.847 Y50.203 E2.96641
G1 X42.958 Y50.499 E2.99758
G1 X42.046 Y50.719 E3.02878
G1 X41.119 Y50.86 E3.05997
G1 X40.235 Y50.921 E3.08944
G1 X39.606 Y50.934 E3.11037
G1 X30.496 Y50.933 E3.41337
G1 X28.665 Y50.907 E3.47427
G1 X26.026 Y50.907 E3.56204
G1 X24.733 Y50.933 E3.60506
G1 X15.501 Y50.933 E3.91212
G1 X14.803 Y50.924 E3.93533
G1 X13.867 Y50.872 E3.96651
G1 X12.938 Y50.74 E3.99772
G1 X12.024 Y50.53 E4.02891
G1 X11.131 Y50.243 E4.06011
G1 X10.266 Y49.88 E4.09131
G1 X9.435 Y49.446 E4.12249
G1 X8.644 Y48.942 E4.15369
G1 X7.899 Y48.372 E4.18489
G1 X7.205 Y47.741 E4.21609
G1 X6.568 Y47.054 E4.24725
G1 X5.991 Y46.314 E4.27846
G1 X5.479 Y45.528 E4.30966
G1 X5.036 Y44.701 E4.34086
G1 X4.665 Y43.84 E4.37204
G1 X4.369 Y42.95 E4.40324
G1 X4.15 Y42.038 E4.43443
G1 X4.009 Y41.111 E4.46562
G1 X3.949 Y40.222 E4.49526
G1 X3.936 Y39.592 E4.51621
G1 X3.937 Y30.494 E4.81881
G1 X3.963 Y28.663 E4.87972
G1 X3.963 Y26.024 E4.96749
G1 X3.937 Y24.731 E5.01051
G1 X3.937 Y15.459 E5.3189
G1 X3.946 Y14.794 E5.34102
G1 X3.999 Y13.858 E5.3722
G1 X4.131 Y12.929 E5.40341
G1 X4.342 Y12.015 E5.43461
G1 X4.63 Y11.123 E5.46578
G1 X4.993 Y10.258 E5.49698
G1 X5.428 Y9.427 E5.52818
G1 X5.932 Y8.637 E5.55935
G1 X6.502 Y7.892 E5.59055
G1 X7.134 Y7.198 E5.62177
G0 F6000 X7.525 Y7.373
G1 F1200 X8.21 Y6.757 E5.65241
G1 X8.946 Y6.204 E5.68303
G1 X9.727 Y5.716 E5.71366
G1 X10.547 Y5.298 E5.74427
G1 X11.401 Y4.953 E5.7749
G1 X12.281 Y4.683 E5.80552
G1 X13.181 Y4.491 E5.83613
G1 X14.095 Y4.377 E5.86676
G1 X14.648 Y4.347 E5.88518
G1 X15.266 Y4.334 E5.90574
G1 X24.371 Y4.335 E6.20857
G1 X26.202 Y4.361 E6.26948
G1 X28.855 Y4.361 E6.35772
G1 X30.139 Y4.335 E6.40043
G1 X39.381 Y4.335 E6.70782
G1 X40.079 Y4.345 E6.73104
G1 X40.998 Y4.398 E6.76166
G1 X41.909 Y4.531 E6.79228
G1 X42.805 Y4.742 E6.8229
G1 X43.679 Y5.03 E6.8535
G1 X44.526 Y5.393 E6.88415
G1 X45.337 Y5.828 E6.91476
G1 X46.107 Y6.332 E6.94537
G1 X46.831 Y6.901 E6.976
G1 X47.503 Y7.531 E7.00663
G1 X48.118 Y8.216 E7.03725
G1 X48.671 Y8.952 E7.06787
G1 X49.158 Y9.733 E7.09848
G1 X49.575 Y10.554 E7.12911
G1 X49.92 Y11.408 E7.15975
G1 X50.189 Y12.288 E7.19035
G1 X50.381 Y13.189 E7.22099
G1 X50.494 Y14.102 E7.25159
G1 X50.523 Y14.646 E7.26971
G1 X50.536 Y15.264 E7.29027
G1 X50.535 Y24.358 E7.59274
G1 X50.509 Y26.198 E7.65394
G1 X50.509 Y28.853 E7.74225
G1 X50.535 Y30.137 E7.78496
G1 X50.535 Y39.329 E8.09069
G1 X50.526 Y40.056 E8.11487
G1 X50.475 Y40.975 E8.14548
G1 X50.344 Y41.887 E8.17613
G1 X50.134 Y42.783 E8.20674
G1 X49.848 Y43.658 E8.23735
G1 X49.487 Y44.505 E8.26798
G1 X49.053 Y45.317 E8.2986
G1 X48.551 Y46.089 E8.32923
G1 X47.983 Y46.814 E8.35986
G1 X47.355 Y47.487 E8.39048
G1 X46.671 Y48.103 E8.42109
G1 X45.936 Y48.657 E8.45171
G1 X45.156 Y49.146 E8.48233
G1 X44.336 Y49.565 E8.51295
G1 X43.483 Y49.911 E8.54357
G1 X42.603 Y50.182 E8.57419
G1 X41.703 Y50.375 E8.60481
G1 X40.789 Y50.49 E8.63545
G1 X40.224 Y50.521 E8.65427
G1 X39.606 Y50.534 E8.67483
G1 X30.501 Y50.533 E8.97766
G1 X28.67 Y50.507 E9.03857
G1 X26.017 Y50.507 E9.12681
G1 X24.733 Y50.533 E9.16952
G1 X15.506 Y50.533 E9.47641
G1 X14.808 Y50.524 E9.49963
G1 X13.889 Y50.472 E9.53024
G1 X12.978 Y50.341 E9.56086
G1 X12.082 Y50.131 E9.59146
G1 X11.207 Y49.844 E9.62209
G1 X10.36 Y49.482 E9.65273
G1 X9.548 Y49.048 E9.68335
G1 X8.777 Y48.546 E9.71395
G1 X8.052 Y47.978 E9.74458
G1 X7.379 Y47.349 E9.77522
G1 X6.764 Y46.665 E9.80582
G1 X6.21 Y45.93 E9.83643
G1 X5.722 Y45.149 E9.86706
G1 X5.303 Y44.329 E9.89769
G1 X4.957 Y43.476 E9.9283
G1 X4.687 Y42.596 E9.95892
G1 X4.494 Y41.695 E9.98957
G1 X4.38 Y40.782 E10.02017
G1 X4.349 Y40.211 E10.03919
G1 X4.336 Y39.592 E10.05978
G1 X4.337 Y30.499 E10.36221
G1 X4.363 Y28.668 E10.42312
G1 X4.363 Y26.015 E10.51136
G1 X4.337 Y24.731 E10.55407
G1 X4.337 Y15.465 E10.86226
G1 X4.346 Y14.8 E10.88438
G1 X4.398 Y13.88 E10.91503
G1 X4.53 Y12.969 E10.94565
G1 X4.741 Y12.073 E10.97626
G1 X5.028 Y11.198 E11.00689
G1 X5.391 Y10.352 E11.03751
G1 X5.825 Y9.54 E11.06813
G1 X6.328 Y8.769 E11.09875
G1 X6.897 Y8.045 E11.12938
G1 X7.525 Y7.373 E11.15997
G0 F6000 X7.917 Y7.551
G1 F1200 X8.598 Y6.958 E11.19
G1 X9.33 Y6.428 E11.22006
G1 X10.105 Y5.965 E11.25009
G1 X10.918 Y5.572 E11.28012
G1 X11.763 Y5.252 E11.31018
G1 X12.632 Y5.009 E11.34019
G1 X13.52 Y4.843 E11.37023
G1 X14.659 Y4.747 E11.40825
G1 X15.266 Y4.734 E11.42844
G1 X24.22 Y4.734 E11.72626
G1 X26.196 Y4.761 E11.79198
G1 X28.818 Y4.761 E11.87919
G1 X29.917 Y4.737 E11.91575
G1 X39.375 Y4.735 E12.23033
G1 X40.073 Y4.745 E12.25355
G1 X40.975 Y4.798 E12.2836
G1 X41.868 Y4.93 E12.31362
G1 X42.746 Y5.141 E12.34366
G1 X43.602 Y5.429 E12.3737
G1 X44.429 Y5.791 E12.40372
G1 X45.221 Y6.226 E12.43378
G1 X45.972 Y6.728 E12.46382
G1 X46.675 Y7.295 E12.49386
G1 X47.325 Y7.922 E12.5239
G1 X47.917 Y8.604 E12.55393
G1 X48.447 Y9.335 E12.58397
G1 X48.909 Y10.111 E12.614
G1 X49.302 Y10.924 E12.64404
G1 X49.62 Y11.769 E12.67407
G1 X49.863 Y12.639 E12.70411
G1 X50.028 Y13.527 E12.73415
G1 X50.123 Y14.657 E12.77187
G1 X50.136 Y15.264 E12.79206
G1 X50.135 Y24.352 E13.09433
G1 X50.109 Y26.192 E13.15553
G1 X50.109 Y28.816 E13.24281
G1 X50.133 Y29.915 E13.27937
G1 X50.135 Y39.324 E13.59231
G1 X50.126 Y40.051 E13.6165
G1 X50.075 Y40.953 E13.64655
G1 X49.944 Y41.847 E13.6766
G1 X49.735 Y42.725 E13.70662
G1 X49.449 Y43.582 E13.73666
G1 X49.088 Y44.41 E13.76671
G1 X48.656 Y45.202 E13.79671
G1 X48.155 Y45.954 E13.82677
G1 X47.589 Y46.658 E13.85681
G1 X46.964 Y47.309 E13.88683
G1 X46.283 Y47.903 E13.91688
G1 X45.552 Y48.434 E13.94693
G1 X44.778 Y48.898 E13.97695
G1 X43.965 Y49.292 E14.007
G1 X43.121 Y49.612 E14.03702
G1 X42.251 Y49.857 E14.06708
G1 X41.364 Y50.023 E14.09709
G1 X40.213 Y50.121 E14.13552
G1 X39.606 Y50.134 E14.15571
G1 X30.507 Y50.133 E14.45834
G1 X28.676 Y50.107 E14.51925
G1 X26.054 Y50.107 E14.60646
G1 X24.955 Y50.131 E14.64302
G1 X15.511 Y50.133 E14.95713
G1 X14.813 Y50.124 E14.98034
G1 X13.912 Y50.073 E15.01036
G1 X13.018 Y49.941 E15.04042
G1 X12.14 Y49.732 E15.07044
G1 X11.283 Y49.445 E15.1005
G1 X10.456 Y49.084 E15.13051
G1 X9.663 Y48.651 E15.16056
G1 X8.912 Y48.15 E15.19059
G1 X8.208 Y47.584 E15.22063
G1 X7.557 Y46.958 E15.25067
G1 X6.964 Y46.277 E15.2807
G1 X6.434 Y45.546 E15.31073
G1 X5.97 Y44.771 E15.34078
G1 X5.576 Y43.958 E15.37083
G1 X5.256 Y43.114 E15.40085
G1 X5.012 Y42.244 E15.4309
G1 X4.846 Y41.356 E15.46095
G1 X4.749 Y40.201 E15.4995
G1 X4.736 Y39.592 E15.51976
G1 X4.737 Y30.505 E15.82199
G1 X4.763 Y28.674 E15.8829
G1 X4.763 Y26.052 E15.97011
G1 X4.739 Y24.953 E16.00667
G1 X4.737 Y15.47 E16.32207
G1 X4.746 Y14.805 E16.34419
G1 X4.798 Y13.903 E16.37424
G1 X4.93 Y13.01 E16.40427
G1 X5.14 Y12.132 E16.43429
G1 X5.427 Y11.275 E16.46435
G1 X5.789 Y10.448 E16.49438
G1 X6.222 Y9.656 E16.5244
G1 X6.724 Y8.905 E16.55445
G1 X7.291 Y8.201 E16.58451
G1 X7.917 Y7.551 E16.61453
G1 F1500 E10.11453
;MESH:Router test.3mf(3)
G0 F6000 X15.35 Y14.269
G0 X24.336 Y24.334
;TYPE:WALL-INNER
G1 F1500 E16.61453
G1 F1200 X24.336 Y15.534 E16.90721
G1 X15.536 Y15.534 E17.1999
G1 X15.536 Y24.334 E17.49259
G1 X24.336 Y24.334 E17.78528
G0 F6000 X24.736 Y24.734
;TYPE:WALL-OUTER
G1 F1200 X24.736 Y15.134 E18.10458
G1 X15.136 Y15.134 E18.42388
G1 X15.136 Y24.734 E18.74317
G1 X24.736 Y24.734 E19.06247
G0 F6000 X24.466 Y24.464
G0 X24.236 Y23.974
G0 X23.976 Y23.974
;TYPE:SKIN
G1 F1200 X23.976 Y15.894 E19.33121
G1 X15.896 Y15.894 E19.59996
G1 X15.896 Y23.974 E19.8687
G1 X23.976 Y23.974 E20.13744
G0 F6000 X24.236 Y23.974
G0 X24.236 Y16.421
G0 X23.775 Y16.421
G1 F1200 X23.448 Y16.094 E20.15282
G0 F6000 X22.882 Y16.094
G1 F1200 X23.775 Y16.986 E20.1948
G0 F6000 X23.775 Y17.552
G1 F1200 X22.316 Y16.094 E20.2634
G0 F6000 X21.751 Y16.094
G1 F1200 X23.775 Y18.118 E20.35861
G0 F6000 X23.775 Y18.683
G1 F1200 X21.185 Y16.094 E20.48041
G0 F6000 X20.619 Y16.094
G1 F1200 X23.775 Y19.249 E20.62883
G0 F6000 X23.775 Y19.815
G1 F1200 X20.054 Y16.094 E20.80386
G0 F6000 X19.488 Y16.094
G1 F1200 X23.775 Y20.38 E21.00548
G0 F6000 X23.775 Y20.946
G1 F1200 X18.922 Y16.094 E21.23373
G0 F6000 X18.357 Y16.094
G1 F1200 X23.775 Y21.512 E21.48858
G0 F6000 X23.775 Y22.077
G1 F1200 X17.791 Y16.094 E21.77002
G0 F6000 X17.225 Y16.094
G1 F1200 X23.775 Y22.643 E22.07809
G0 F6000 X23.775 Y23.209
G1 F1200 X16.66 Y16.094 E22.41276
G0 F6000 X16.095 Y16.095
G1 F1200 X23.773 Y23.773 E22.77391
G0 F6000 X23.207 Y23.773
G1 F1200 X16.095 Y16.66 E23.10846
G0 F6000 X16.095 Y17.226
G1 F1200 X22.642 Y23.773 E23.41641
G0 F6000 X22.076 Y23.773
G1 F1200 X16.095 Y17.792 E23.69774
G0 F6000 X16.095 Y18.357
G1 F1200 X21.51 Y23.773 E23.95246
G0 F6000 X20.945 Y23.773
G1 F1200 X16.095 Y18.923 E24.18059
G0 F6000 X16.095 Y19.489
G1 F1200 X20.379 Y23.773 E24.3821
G0 F6000 X19.813 Y23.773
G1 F1200 X16.095 Y20.054 E24.55701
G0 F6000 X16.095 Y20.62
G1 F1200 X19.248 Y23.773 E24.70531
G0 F6000 X18.682 Y23.773
G1 F1200 X16.095 Y21.186 E24.827
G0 F6000 X16.095 Y21.752
G1 F1200 X18.116 Y23.773 E24.92206
G0 F6000 X17.551 Y23.773
G1 F1200 X16.095 Y22.317 E24.99055
G0 F6000 X16.095 Y22.883
G1 F1200 X16.985 Y23.773 E25.03241
G0 F6000 X16.419 Y23.773
G1 F1200 X16.095 Y23.449 E25.04765
G1 F1500 E18.54765
;MESH:Router test.3mf(4)
G0 F6000 X15.636 Y23.449
G0 X15.708 Y24.162
G0 X24.516 Y24.334
G0 X25.601 Y24.334
G0 X29.271 Y24.334
G0 X39.336 Y24.334
;TYPE:WALL-INNER
G1 F1500 E25.04765
G1 F1200 X39.336 Y15.534 E25.34034
G1 X30.536 Y15.534 E25.63303
G1 X30.536 Y24.334 E25.92572
G1 X39.336 Y24.334 E26.21841
G0 F6000 X39.736 Y24.734
;TYPE:WALL-OUTER
G1 F1200 X39.736 Y15.134 E26.5377
G1 X30.136 Y15.134 E26.857
G1 X30.136 Y24.734 E27.1763
G1 X39.736 Y24.734 E27.49559
G0 F6000 X39.466 Y24.464
G0 X39.236 Y23.974
G0 X38.976 Y23.974
;TYPE:SKIN
G1 F1200 X38.976 Y15.894 E27.76434
G1 X30.896 Y15.894 E28.03308
G1 X30.896 Y23.974 E28.30182
G1 X38.976 Y23.974 E28.57056
G0 F6000 X39.236 Y23.974
G0 X39.236 Y16.713
G0 X38.775 Y16.713
G1 F1200 X38.155 Y16.093 E28.59972
G0 F6000 X37.589 Y16.093
G1 F1200 X38.775 Y17.279 E28.65551
G0 F6000 X38.775 Y17.845
G1 F1200 X37.024 Y16.093 E28.7379
G0 F6000 X36.458 Y16.093
G1 F1200 X38.775 Y18.41 E28.84688
G0 F6000 X38.775 Y18.976
G1 F1200 X35.892 Y16.093 E28.98249
G0 F6000 X35.327 Y16.093
G1 F1200 X38.775 Y19.542 E29.14469
G0 F6000 X38.775 Y20.107
G1 F1200 X34.761 Y16.093 E29.3335
G0 F6000 X34.195 Y16.093
G1 F1200 X38.775 Y20.673 E29.54893
G0 F6000 X38.775 Y21.239
G1 F1200 X33.629 Y16.093 E29.79098
G0 F6000 X33.064 Y16.093
G1 F1200 X38.775 Y21.805 E30.05963
G0 F6000 X38.775 Y22.37
G1 F1200 X32.498 Y16.093 E30.35488
G0 F6000 X31.932 Y16.093
G1 F1200 X38.775 Y22.936 E30.67676
G0 F6000 X38.775 Y23.502
G1 F1200 X31.367 Y16.093 E31.02523
G0 F6000 X31.095 Y16.387
G1 F1200 X38.481 Y23.773 E31.37265
G0 F6000 X37.915 Y23.773
G1 F1200 X31.095 Y16.952 E31.69346
G0 F6000 X31.095 Y17.518
G1 F1200 X37.35 Y23.773 E31.98768
G0 F6000 X36.784 Y23.773
G1 F1200 X31.095 Y18.084 E32.25527
G0 F6000 X31.095 Y18.649
G1 F1200 X36.218 Y23.773 E32.49626
G0 F6000 X35.653 Y23.773
G1 F1200 X31.095 Y19.215 E32.71066
G0 F6000 X31.095 Y19.781
G1 F1200 X35.087 Y23.773 E32.89843
G0 F6000 X34.521 Y23.773
G1 F1200 X31.095 Y20.346 E33.0596
G0 F6000 X31.095 Y20.912
G1 F1200 X33.955 Y23.773 E33.19415
G0 F6000 X33.39 Y23.773
G1 F1200 X31.095 Y21.478 E33.3021
G0 F6000 X31.095 Y22.044
G1 F1200 X32.824 Y23.773 E33.38343
G0 F6000 X32.258 Y23.773
G1 F1200 X31.095 Y22.609 E33.43816
G0 F6000 X31.095 Y23.175
G1 F1200 X31.693 Y23.773 E33.46628
G1 F1500 E26.96628
;MESH:Router test.3mf(2)
G0 F6000 X31.693 Y24.234
G0 X39.336 Y24.514
G0 X39.336 Y25.599
G0 X39.336 Y29.269
G0 X39.336 Y39.334
;TYPE:WALL-INNER
G1 F1500 E33.46628
G1 F1200 X39.336 Y30.534 E33.75897
G1 X30.536 Y30.534 E34.05166
G1 X30.536 Y39.334 E34.34435
G1 X39.336 Y39.334 E34.63704
G0 F6000 X39.736 Y39.734
;TYPE:WALL-OUTER
G1 F1200 X39.736 Y30.134 E34.95634
G1 X30.136 Y30.134 E35.27563
G1 X30.136 Y39.734 E35.59493
G1 X39.736 Y39.734 E35.91423
G0 F6000 X39.466 Y39.464
G0 X39.236 Y38.974
G0 X38.976 Y38.974
;TYPE:SKIN
G1 F1200 X38.976 Y30.894 E36.18297
G1 X30.896 Y30.894 E36.45171
G1 X30.896 Y38.974 E36.72046
G1 X38.976 Y38.974 E36.9892
G0 F6000 X39.236 Y38.974
G0 X39.236 Y31.421
G0 X38.775 Y31.421
G1 F1200 X38.448 Y31.094 E37.00458
G0 F6000 X37.882 Y31.094
G1 F1200 X38.775 Y31.987 E37.04658
G0 F6000 X38.775 Y32.553
G1 F1200 X37.316 Y31.094 E37.11521
G0 F6000 X36.751 Y31.094
G1 F1200 X38.775 Y33.118 E37.21041
G0 F6000 X38.775 Y33.684
G1 F1200 X36.185 Y31.094 E37.33224
G0 F6000 X35.619 Y31.094
G1 F1200 X38.775 Y34.25 E37.48069
G0 F6000 X38.775 Y34.815
G1 F1200 X35.054 Y31.094 E37.65571
G0 F6000 X34.488 Y31.094
G1 F1200 X38.775 Y35.381 E37.85736
G0 F6000 X38.775 Y35.947
G1 F1200 X33.922 Y31.094 E38.08563
G0 F6000 X33.357 Y31.094
G1 F1200 X38.775 Y36.512 E38.34047
G0 F6000 X38.775 Y37.078
G1 F1200 X32.791 Y31.094 E38.62194
G0 F6000 X32.225 Y31.094
G1 F1200 X38.775 Y37.644 E38.93004
G0 F6000 X38.775 Y38.209
G1 F1200 X31.659 Y31.094 E39.26473
G0 F6000 X31.095 Y31.095
G1 F1200 X38.773 Y38.773 E39.62588
G0 F6000 X38.207 Y38.773
G1 F1200 X31.095 Y31.66 E39.96043
G0 F6000 X31.095 Y32.226
G1 F1200 X37.642 Y38.773 E40.26838
G0 F6000 X37.076 Y38.773
G1 F1200 X31.095 Y32.792 E40.5497
G0 F6000 X31.095 Y33.357
G1 F1200 X36.51 Y38.773 E40.80443
G0 F6000 X35.945 Y38.773
G1 F1200 X31.095 Y33.923 E41.03256
G0 F6000 X31.095 Y34.489
G1 F1200 X35.379 Y38.773 E41.23407
G0 F6000 X34.813 Y38.773
G1 F1200 X31.095 Y35.054 E41.40898
G0 F6000 X31.095 Y35.62
G1 F1200 X34.248 Y38.773 E41.55728
G0 F6000 X33.682 Y38.773
G1 F1200 X31.095 Y36.186 E41.67897
G0 F6000 X31.095 Y36.751
G1 F1200 X33.116 Y38.773 E41.77405
G0 F6000 X32.55 Y38.773
G1 F1200 X31.095 Y37.317 E41.84251
G0 F6000 X31.095 Y37.883
G1 F1200 X31.985 Y38.773 E41.88438
G0 F6000 X31.419 Y38.773
