; [1] FLAVOR:Marlin
; [2] TIME:231
; [3] Filament used: 0.142435m
; [4] Layer height: 0.2
; [5] MINX:3.36
; [6] MINY:5.841
; [7] MINZ:0.2
; [8] MAXX:45.342
; [9] MAXY:47.821
; [10] MAXZ:2
; [11] Generated with Cura_SteamEngine main
M82 ; [12] absolute extrusion mode
; [13] Ender 3 Custom Start G-code
G92 E0 ; [14] Reset Extruder
G28 ; [15] Home all axes
M104 S175 ; [16] Start heating up the nozzle most of the way
M190 S60 ; [17] Start heating the bed, wait until target temperature reached
M109 S200 ; [18] Finish heating the nozzle
G1 Z2.0 F3000 ; [19] Move Z Axis up little to prevent scratching of Heat Bed
G1 X0.1 Y20 Z0.3 F5000.0 ; [20] Move to start position
G1 X0.1 Y200.0 Z0.3 F1500.0 E15 ; [21] Draw the first line
G1 X0.4 Y200.0 Z0.3 F5000.0 ; [22] Move to side a little
G1 X0.4 Y20 Z0.3 F1500.0 E30 ; [23] Draw the second line
G92 E0 ; [24] Reset Extruder
G1 Z2.0 F3000 ; [25] Move Z Axis up little to prevent scratching of Heat Bed
G1 X5 Y20 Z0.3 F5000.0 ; [26] Move over to prevent blob squish
G92 E0 ; [27]
G92 E0 ; [28]
G1 F1500 E-6.5 ; [29]
; [30] LAYER_COUNT:10
; [31] LAYER:0
M107 ; [32]
;  ==== Start layer 0 ====
;  ::: Layer 0 postamble :::
G0 F6000 X10.261 Y11.272 Z0.2 ; [33]
G0 X3.36 Y26.763 ; [34]
; [35] TYPE:SKIRT
G1 F1500 E0 ; [36]
G1 F1200 X3.37 Y26.198 E0.01879 ; [37]
G1 X3.39 Y25.721 E0.03467 ; [38]
G1 X3.424 Y25.202 E0.05197 ; [39]
G1 X3.464 Y24.755 E0.0669 ; [40]
G1 X3.526 Y24.211 E0.08511 ; [41]
G1 X3.608 Y23.625 E0.10479 ; [42]
G1 X3.694 Y23.103 E0.12239 ; [43]
G1 X3.779 Y22.654 E0.13759 ; [44]
G1 X3.914 Y22.037 E0.15859 ; [45]
G1 X4.045 Y21.512 E0.17659 ; [46]
G1 X4.193 Y20.977 E0.19505 ; [47]
G1 X4.344 Y20.48 E0.21233 ; [48]
G1 X4.52 Y19.949 E0.23093 ; [49]
G1 X4.68 Y19.505 E0.24663 ; [50]
G1 X4.871 Y19.012 E0.26422 ; [51]
G1 X5.068 Y18.538 E0.28129 ; [52]
G1 X5.297 Y18.026 E0.29994 ; [53]
G1 X5.523 Y17.552 E0.31741 ; [54]
G1 X5.771 Y17.064 E0.33562 ; [55]
G1 X5.99 Y16.658 E0.35096 ; [56]
G1 X6.257 Y16.19 E0.36888 ; [57]
G1 X6.503 Y15.783 E0.3847 ; [58]
G1 X6.784 Y15.342 E0.40209 ; [59]
G1 X7.078 Y14.904 E0.41963 ; [60]
G1 X7.446 Y14.388 E0.44071 ; [61]
G1 X7.785 Y13.941 E0.45937 ; [62]
G1 X8.1 Y13.546 E0.47618 ; [63]
G1 X8.39 Y13.198 E0.49124 ; [64]
G1 X8.742 Y12.795 E0.50904 ; [65]
G1 X9.061 Y12.448 E0.52472 ; [66]
G1 X9.462 Y12.034 E0.54389 ; [67]
G1 X9.849 Y11.655 E0.5619 ; [68]
G1 X10.261 Y11.272 E0.58061 ; [69]
G1 X10.623 Y10.952 E0.59668 ; [70]
G1 X11.013 Y10.624 E0.61363 ; [71]
G1 X11.407 Y10.307 E0.63045 ; [72]
G1 X11.891 Y9.938 E0.6507 ; [73]
G1 X12.333 Y9.621 E0.66879 ; [74]
G1 X12.768 Y9.325 E0.68629 ; [75]
G1 X13.125 Y9.094 E0.70043 ; [76]
G1 X13.584 Y8.812 E0.71835 ; [77]
G1 X14.067 Y8.532 E0.73692 ; [78]
G1 X14.532 Y8.278 E0.75454 ; [79]
G1 X14.944 Y8.065 E0.76996 ; [80]
G1 X15.471 Y7.81 E0.78944 ; [81]
G1 X15.943 Y7.597 E0.80666 ; [82]
G1 X16.447 Y7.384 E0.82486 ; [83]
G1 X16.885 Y7.212 E0.84051 ; [84]
G1 X17.391 Y7.028 E0.85842 ; [85]
G1 X17.898 Y6.857 E0.87621 ; [86]
G1 X18.446 Y6.688 E0.89529 ; [87]
G1 X18.928 Y6.553 E0.91194 ; [88]
G1 X19.44 Y6.423 E0.9295 ; [89]
G1 X19.916 Y6.314 E0.94575 ; [90]
G1 X20.459 Y6.203 E0.96418 ; [91]
G1 X20.952 Y6.116 E0.98083 ; [92]
G1 X21.505 Y6.033 E0.99943 ; [93]
G1 X22.003 Y5.971 E1.01612 ; [94]
G1 X22.585 Y5.914 E1.03557 ; [95]
G1 X23.136 Y5.875 E1.05394 ; [96]
G1 X23.706 Y5.85 E1.07292 ; [97]
G1 X24.184 Y5.841 E1.08882 ; [98]
G1 X24.717 Y5.844 E1.10655 ; [99]
G1 X25.223 Y5.859 E1.12339 ; [100]
G1 X25.742 Y5.887 E1.14067 ; [101]
G1 X26.222 Y5.924 E1.15669 ; [102]
G1 X26.821 Y5.986 E1.17671 ; [103]
G1 X27.357 Y6.057 E1.1947 ; [104]
G1 X27.893 Y6.142 E1.21275 ; [105]
G1 X28.374 Y6.23 E1.22901 ; [106]
G1 X28.884 Y6.335 E1.24633 ; [107]
G1 X29.366 Y6.447 E1.26279 ; [108]
G1 X29.898 Y6.585 E1.28107 ; [109]
G1 X30.339 Y6.711 E1.29632 ; [110]
G1 X30.875 Y6.879 E1.31501 ; [111]
G1 X31.384 Y7.053 E1.3329 ; [112]
G1 X31.884 Y7.238 E1.35063 ; [113]
G1 X32.335 Y7.417 E1.36677 ; [114]
G1 X32.841 Y7.633 E1.38507 ; [115]
G1 X33.205 Y7.799 E1.39837 ; [116]
G1 X33.668 Y8.023 E1.41548 ; [117]
G1 X34.211 Y8.302 E1.43578 ; [118]
G1 X34.759 Y8.603 E1.45658 ; [119]
G1 X35.22 Y8.874 E1.47437 ; [120]
G1 X35.676 Y9.157 E1.49222 ; [121]
G1 X36.065 Y9.412 E1.50769 ; [122]
G1 X36.521 Y9.728 E1.52614 ; [123]
G1 X36.899 Y10.004 E1.54171 ; [124]
G1 X37.307 Y10.317 E1.55881 ; [125]
G1 X37.757 Y10.679 E1.57802 ; [126]
G1 X38.233 Y11.085 E1.59883 ; [127]
G1 X38.583 Y11.401 E1.61451 ; [128]
G1 X38.966 Y11.764 E1.63206 ; [129]
G1 X39.292 Y12.088 E1.64735 ; [130]
G1 X39.641 Y12.45 E1.66407 ; [131]
G1 X40 Y12.841 E1.68173 ; [132]
G1 X40.433 Y13.343 E1.70378 ; [133]
G1 X40.815 Y13.813 E1.72392 ; [134]
G1 X41.129 Y14.218 E1.74097 ; [135]
G1 X41.38 Y14.558 E1.75502 ; [136]
G1 X41.672 Y14.973 E1.7719 ; [137]
G1 X41.931 Y15.36 E1.78739 ; [138]
G1 X42.258 Y15.881 E1.80785 ; [139]
G1 X42.55 Y16.375 E1.82693 ; [140]
G1 X42.803 Y16.826 E1.84413 ; [141]
G1 X43.02 Y17.236 E1.85956 ; [142]
G1 X43.262 Y17.721 E1.87759 ; [143]
G1 X43.465 Y18.155 E1.89352 ; [144]
G1 X43.68 Y18.645 E1.91132 ; [145]
G1 X43.882 Y19.138 E1.92904 ; [146]
G1 X44.082 Y19.666 E1.94782 ; [147]
G1 X44.234 Y20.099 E1.96308 ; [148]
G1 X44.406 Y20.63 E1.98165 ; [149]
G1 X44.547 Y21.108 E1.99822 ; [150]
G1 X44.69 Y21.644 E2.01668 ; [151]
G1 X44.816 Y22.167 E2.03457 ; [152]
G1 X44.931 Y22.7 E2.0527 ; [153]
G1 X45.027 Y23.208 E2.0699 ; [154]
G1 X45.119 Y23.777 E2.08907 ; [155]
G1 X45.182 Y24.243 E2.10471 ; [156]
G1 X45.24 Y24.772 E2.12241 ; [157]
G1 X45.285 Y25.294 E2.13984 ; [158]
G1 X45.319 Y25.837 E2.15793 ; [159]
G1 X45.336 Y26.302 E2.17341 ; [160]
G1 X45.342 Y26.885 E2.1928 ; [161]
G1 X45.333 Y27.431 E2.21096 ; [162]
G1 X45.311 Y27.965 E2.22874 ; [163]
G1 X45.279 Y28.456 E2.2451 ; [164]
G1 X45.228 Y29.014 E2.26374 ; [165]
G1 X45.17 Y29.512 E2.28042 ; [166]
G1 X45.088 Y30.086 E2.2997 ; [167]
G1 X45.002 Y30.591 E2.31674 ; [168]
G1 X44.901 Y31.109 E2.33429 ; [169]
G1 X44.794 Y31.595 E2.35084 ; [170]
G1 X44.665 Y32.117 E2.36873 ; [171]
G1 X44.538 Y32.584 E2.38482 ; [172]
G1 X44.372 Y33.137 E2.40403 ; [173]
G1 X44.211 Y33.626 E2.42115 ; [174]
G1 X44.037 Y34.116 E2.43845 ; [175]
G1 X43.866 Y34.563 E2.45436 ; [176]
G1 X43.645 Y35.099 E2.47365 ; [177]
G1 X43.43 Y35.583 E2.49126 ; [178]
G1 X43.206 Y36.055 E2.50864 ; [179]
G1 X42.998 Y36.469 E2.52405 ; [180]
G1 X42.734 Y36.963 E2.54268 ; [181]
G1 X42.483 Y37.405 E2.55958 ; [182]
G1 X42.176 Y37.914 E2.57935 ; [183]
G1 X41.868 Y38.394 E2.59832 ; [184]
G1 X41.566 Y38.84 E2.61624 ; [185]
G1 X41.29 Y39.227 E2.63205 ; [186]
G1 X40.983 Y39.637 E2.64908 ; [187]
G1 X40.726 Y39.964 E2.66292 ; [188]
G1 X40.392 Y40.368 E2.68035 ; [189]
G1 X40.017 Y40.801 E2.6994 ; [190]
G1 X39.602 Y41.254 E2.71984 ; [191]
G1 X39.259 Y41.608 E2.73623 ; [192]
G1 X38.897 Y41.965 E2.75314 ; [193]
G1 X38.541 Y42.3 E2.7694 ; [194]
G1 X38.1 Y42.694 E2.78907 ; [195]
G1 X37.708 Y43.025 E2.80613 ; [196]
G1 X37.273 Y43.373 E2.82466 ; [197]
G1 X36.867 Y43.682 E2.84163 ; [198]
G1 X36.375 Y44.036 E2.86179 ; [199]
G1 X35.913 Y44.349 E2.88035 ; [200]
G1 X35.125 Y44.845 E2.91132 ; [201]
G1 X34.678 Y45.106 E2.92854 ; [202]
G1 X34.275 Y45.328 E2.94384 ; [203]
G1 X33.789 Y45.58 E2.96205 ; [204]
G1 X33.34 Y45.799 E2.97866 ; [205]
G1 X32.814 Y46.038 E2.99788 ; [206]
G1 X32.286 Y46.262 E3.01696 ; [207]
G1 X31.788 Y46.459 E3.03477 ; [208]
G1 X31.364 Y46.615 E3.04979 ; [209]
G1 X30.826 Y46.798 E3.0687 ; [210]
G1 X30.333 Y46.951 E3.08586 ; [211]
G1 X29.794 Y47.103 E3.10449 ; [212]
G1 X29.277 Y47.235 E3.12224 ; [213]
G1 X28.752 Y47.356 E3.14016 ; [214]
G1 X28.325 Y47.443 E3.15465 ; [215]
G1 X27.782 Y47.539 E3.17299 ; [216]
G1 X27.236 Y47.622 E3.19136 ; [217]
G1 X26.673 Y47.693 E3.21023 ; [218]
G1 X26.181 Y47.742 E3.22668 ; [219]
G1 X25.638 Y47.782 E3.24479 ; [220]
G1 X25.136 Y47.807 E3.26151 ; [221]
G1 X24.567 Y47.821 E3.28044 ; [222]
G1 X24.069 Y47.82 E3.297 ; [223]
G1 X23.503 Y47.804 E3.31583 ; [224]
G1 X22.961 Y47.775 E3.33388 ; [225]
G1 X22.396 Y47.73 E3.35274 ; [226]
G1 X21.931 Y47.681 E3.36829 ; [227]
G1 X21.404 Y47.613 E3.38596 ; [228]
G1 X20.88 Y47.532 E3.4036 ; [229]
G1 X20.335 Y47.434 E3.42201 ; [230]
G1 X19.875 Y47.339 E3.43764 ; [231]
G1 X19.336 Y47.213 E3.45605 ; [232]
G1 X18.839 Y47.084 E3.47313 ; [233]
G1 X18.326 Y46.937 E3.49087 ; [234]
G1 X17.855 Y46.79 E3.50729 ; [235]
G1 X17.319 Y46.608 E3.52611 ; [236]
G1 X16.813 Y46.421 E3.54405 ; [237]
G1 X16.277 Y46.207 E3.56325 ; [238]
G1 X15.817 Y46.009 E3.57991 ; [239]
G1 X15.305 Y45.773 E3.59866 ; [240]
G1 X14.901 Y45.574 E3.61364 ; [241]
G1 X14.448 Y45.337 E3.63064 ; [242]
G1 X13.975 Y45.076 E3.64861 ; [243]
G1 X13.546 Y44.827 E3.66511 ; [244]
G1 X13.136 Y44.576 E3.6811 ; [245]
G1 X12.611 Y44.233 E3.70195 ; [246]
G1 X12.2 Y43.948 E3.71859 ; [247]
G1 X11.766 Y43.632 E3.73645 ; [248]
G1 X11.369 Y43.327 E3.7531 ; [249]
G1 X10.923 Y42.965 E3.7722 ; [250]
G1 X10.523 Y42.623 E3.78971 ; [251]
G1 X10.125 Y42.266 E3.80749 ; [252]
G1 X9.758 Y41.92 E3.82426 ; [253]
G1 X9.331 Y41.495 E3.8443 ; [254]
G1 X8.985 Y41.131 E3.86101 ; [255]
G1 X8.625 Y40.732 E3.87888 ; [256]
G1 X8.295 Y40.349 E3.89569 ; [257]
G1 X7.95 Y39.928 E3.9138 ; [258]
G1 X7.619 Y39.503 E3.93171 ; [259]
G1 X7.282 Y39.047 E3.95057 ; [260]
G1 X7.017 Y38.668 E3.96596 ; [261]
G1 X6.735 Y38.245 E3.98286 ; [262]
G1 X6.482 Y37.845 E3.99861 ; [263]
G1 X6.192 Y37.358 E4.01746 ; [264]
G1 X5.931 Y36.894 E4.03516 ; [265]
G1 X5.675 Y36.411 E4.05335 ; [266]
G1 X5.455 Y35.97 E4.06974 ; [267]
G1 X5.214 Y35.455 E4.08865 ; [268]
G1 X5.017 Y35.003 E4.10505 ; [269]
G1 X4.818 Y34.514 E4.12261 ; [270]
G1 X4.633 Y34.027 E4.13994 ; [271]
G1 X4.454 Y33.518 E4.15788 ; [272]
G1 X4.316 Y33.093 E4.17274 ; [273]
G1 X4.161 Y32.573 E4.19079 ; [274]
G1 X4.022 Y32.06 E4.20847 ; [275]
G1 X3.888 Y31.51 E4.2273 ; [276]
G1 X3.793 Y31.071 E4.24224 ; [277]
G1 X3.693 Y30.549 E4.25991 ; [278]
G1 X3.602 Y30.002 E4.27836 ; [279]
G1 X3.522 Y29.424 E4.29776 ; [280]
G1 X3.465 Y28.916 E4.31477 ; [281]
G1 X3.417 Y28.371 E4.33296 ; [282]
G1 X3.386 Y27.872 E4.34959 ; [283]
G1 X3.365 Y27.294 E4.36883 ; [284]
G1 X3.36 Y26.763 E4.38649 ; [285]
G0 F6000 X3.76 Y26.759 ; [286]
G1 F1200 X3.769 Y26.215 E4.40459 ; [287]
G1 X3.789 Y25.738 E4.42047 ; [288]
G1 X3.822 Y25.237 E4.43717 ; [289]
G1 X3.862 Y24.79 E4.45209 ; [290]
G1 X3.922 Y24.266 E4.46963 ; [291]
G1 X4.004 Y23.68 E4.48931 ; [292]
G1 X4.087 Y23.177 E4.50627 ; [293]
G1 X4.172 Y22.728 E4.52147 ; [294]
G1 X4.302 Y22.134 E4.54169 ; [295]
G1 X4.433 Y21.609 E4.55969 ; [296]
G1 X4.576 Y21.094 E4.57747 ; [297]
G1 X4.727 Y20.597 E4.59474 ; [298]
G1 X4.897 Y20.084 E4.61272 ; [299]
G1 X5.057 Y19.64 E4.62842 ; [300]
G1 X5.241 Y19.166 E4.64533 ; [301]
G1 X5.438 Y18.692 E4.6624 ; [302]
G1 X5.658 Y18.198 E4.68039 ; [303]
G1 X5.884 Y17.724 E4.69785 ; [304]
G1 X6.123 Y17.254 E4.71539 ; [305]
G1 X6.342 Y16.848 E4.73073 ; [306]
G1 X6.599 Y16.397 E4.748 ; [307]
G1 X6.845 Y15.99 E4.76381 ; [308]
G1 X7.116 Y15.565 E4.78058 ; [309]
G1 X7.41 Y15.127 E4.79812 ; [310]
G1 X7.765 Y14.63 E4.81844 ; [311]
G1 X8.104 Y14.183 E4.8371 ; [312]
G1 X8.407 Y13.802 E4.85329 ; [313]
G1 X8.697 Y13.454 E4.86836 ; [314]
G1 X9.036 Y13.066 E4.88549 ; [315]
G1 X9.355 Y12.719 E4.90117 ; [316]
G1 X9.742 Y12.32 E4.91966 ; [317]
G1 X10.129 Y11.941 E4.93767 ; [318]
G1 X10.526 Y11.572 E4.9557 ; [319]
G1 X10.888 Y11.252 E4.97177 ; [320]
G1 X11.263 Y10.935 E4.9881 ; [321]
G1 X11.657 Y10.618 E5.00492 ; [322]
G1 X12.124 Y10.263 E5.02443 ; [323]
G1 X12.566 Y9.946 E5.04252 ; [324]
G1 X12.986 Y9.661 E5.05941 ; [325]
G1 X13.343 Y9.43 E5.07355 ; [326]
G1 X13.785 Y9.159 E5.09079 ; [327]
G1 X14.268 Y8.879 E5.10936 ; [328]
G1 X14.716 Y8.633 E5.12636 ; [329]
G1 X15.128 Y8.42 E5.14179 ; [330]
G1 X15.636 Y8.174 E5.16056 ; [331]
G1 X16.108 Y7.961 E5.17778 ; [332]
G1 X16.593 Y7.756 E5.1953 ; [333]
G1 X17.031 Y7.584 E5.21095 ; [334]
G1 X17.518 Y7.407 E5.22818 ; [335]
G1 X18.025 Y7.236 E5.24598 ; [336]
G1 X18.554 Y7.073 E5.26439 ; [337]
G1 X19.036 Y6.938 E5.28104 ; [338]
G1 X19.529 Y6.812 E5.29796 ; [339]
G1 X20.005 Y6.703 E5.3142 ; [340]
G1 X20.529 Y6.597 E5.33198 ; [341]
G1 X21.022 Y6.51 E5.34863 ; [342]
G1 X21.554 Y6.43 E5.36653 ; [343]
G1 X22.052 Y6.368 E5.38322 ; [344]
G1 X22.614 Y6.313 E5.402 ; [345]
G1 X23.165 Y6.274 E5.42037 ; [346]
G1 X23.713 Y6.25 E5.43862 ; [347]
G1 X24.191 Y6.241 E5.45452 ; [348]
G1 X24.705 Y6.244 E5.47161 ; [349]
G1 X25.211 Y6.259 E5.48845 ; [350]
G1 X25.712 Y6.285 E5.50514 ; [351]
G1 X26.192 Y6.322 E5.52115 ; [352]
G1 X26.769 Y6.383 E5.54045 ; [353]
G1 X27.305 Y6.454 E5.55843 ; [354]
G1 X27.821 Y6.535 E5.5758 ; [355]
G1 X28.302 Y6.623 E5.59207 ; [356]
G1 X28.793 Y6.725 E5.60875 ; [357]
G1 X29.275 Y6.837 E5.6252 ; [358]
G1 X29.788 Y6.97 E5.64283 ; [359]
G1 X30.229 Y7.096 E5.65809 ; [360]
G1 X30.746 Y7.258 E5.67611 ; [361]
G1 X31.255 Y7.432 E5.694 ; [362]
G1 X31.736 Y7.61 E5.71105 ; [363]
G1 X32.187 Y7.789 E5.72719 ; [364]
G1 X32.675 Y7.997 E5.74484 ; [365]
G1 X33.039 Y8.163 E5.75814 ; [366]
G1 X33.485 Y8.379 E5.77463 ; [367]
G1 X34.028 Y8.658 E5.79493 ; [368]
G1 X34.556 Y8.948 E5.81497 ; [369]
G1 X35.017 Y9.219 E5.83275 ; [370]
G1 X35.456 Y9.492 E5.84995 ; [371]
G1 X35.845 Y9.747 E5.86542 ; [372]
G1 X36.285 Y10.051 E5.8832 ; [373]
G1 X36.663 Y10.327 E5.89877 ; [374]
G1 X37.056 Y10.629 E5.91526 ; [375]
G1 X37.506 Y10.991 E5.93447 ; [376]
G1 X37.965 Y11.382 E5.95452 ; [377]
G1 X38.315 Y11.698 E5.9702 ; [378]
G1 X38.684 Y12.048 E5.98712 ; [379]
G1 X39.01 Y12.372 E6.00241 ; [380]
G1 X39.346 Y12.721 E6.01852 ; [381]
G1 X39.705 Y13.112 E6.03617 ; [382]
G1 X40.123 Y13.595 E6.05742 ; [383]
G1 X40.505 Y14.065 E6.07756 ; [384]
G1 X40.807 Y14.455 E6.09397 ; [385]
G1 X41.058 Y14.795 E6.10803 ; [386]
G1 X41.339 Y15.195 E6.12428 ; [387]
G1 X41.598 Y15.582 E6.13977 ; [388]
G1 X41.914 Y16.084 E6.1595 ; [389]
G1 X42.206 Y16.578 E6.17859 ; [390]
G1 X42.45 Y17.013 E6.19518 ; [391]
G1 X42.667 Y17.423 E6.21061 ; [392]
G1 X42.9 Y17.891 E6.22799 ; [393]
G1 X43.103 Y18.325 E6.24393 ; [394]
G1 X43.31 Y18.797 E6.26107 ; [395]
G1 X43.512 Y19.29 E6.27879 ; [396]
G1 X43.705 Y19.798 E6.29687 ; [397]
G1 X43.857 Y20.231 E6.31213 ; [398]
G1 X44.022 Y20.743 E6.33002 ; [399]
G1 X44.163 Y21.221 E6.3466 ; [400]
G1 X44.301 Y21.737 E6.36436 ; [401]
G1 X44.427 Y22.26 E6.38226 ; [402]
G1 X44.538 Y22.775 E6.39978 ; [403]
G1 X44.634 Y23.283 E6.41697 ; [404]
G1 X44.722 Y23.831 E6.43543 ; [405]
G1 X44.785 Y24.297 E6.45107 ; [406]
G1 X44.842 Y24.807 E6.46814 ; [407]
G1 X44.887 Y25.329 E6.48557 ; [408]
G1 X44.919 Y25.852 E6.503 ; [409]
G1 X44.936 Y26.317 E6.51847 ; [410]
G1 X44.942 Y26.879 E6.53716 ; [411]
G1 X44.933 Y27.425 E6.55533 ; [412]
G1 X44.912 Y27.939 E6.57244 ; [413]
G1 X44.88 Y28.43 E6.5888 ; [414]
G1 X44.831 Y28.967 E6.60674 ; [415]
G1 X44.773 Y29.465 E6.62341 ; [416]
G1 X44.694 Y30.019 E6.64203 ; [417]
G1 X44.608 Y30.524 E6.65906 ; [418]
G1 X44.51 Y31.023 E6.67598 ; [419]
G1 X44.403 Y31.509 E6.69253 ; [420]
G1 X44.28 Y32.012 E6.70975 ; [421]
G1 X44.153 Y32.479 E6.72585 ; [422]
G1 X43.992 Y33.012 E6.74437 ; [423]
G1 X43.831 Y33.501 E6.76149 ; [424]
G1 X43.663 Y33.973 E6.77815 ; [425]
G1 X43.492 Y34.42 E6.79407 ; [426]
G1 X43.279 Y34.936 E6.81264 ; [427]
G1 X43.064 Y35.42 E6.83025 ; [428]
G1 X42.849 Y35.876 E6.84702 ; [429]
G1 X42.641 Y36.29 E6.86243 ; [430]
G1 X42.386 Y36.765 E6.88036 ; [431]
G1 X42.135 Y37.207 E6.89727 ; [432]
G1 X41.839 Y37.698 E6.91634 ; [433]
G1 X41.531 Y38.178 E6.93531 ; [434]
G1 X41.24 Y38.608 E6.95258 ; [435]
G1 X40.964 Y38.995 E6.96838 ; [436]
G1 X40.668 Y39.39 E6.9848 ; [437]
G1 X40.411 Y39.717 E6.99864 ; [438]
G1 X40.09 Y40.106 E7.01541 ; [439]
G1 X39.715 Y40.539 E7.03446 ; [440]
G1 X39.315 Y40.976 E7.05417 ; [441]
G1 X38.972 Y41.33 E7.07056 ; [442]
G1 X38.623 Y41.674 E7.08686 ; [443]
G1 X38.267 Y42.009 E7.10312 ; [444]
G1 X37.842 Y42.388 E7.12206 ; [445]
G1 X37.45 Y42.719 E7.13912 ; [446]
G1 X37.031 Y43.055 E7.15699 ; [447]
G1 X36.625 Y43.364 E7.17395 ; [448]
G1 X36.15 Y43.705 E7.1934 ; [449]
G1 X35.688 Y44.018 E7.21196 ; [450]
G1 X34.916 Y44.504 E7.2423 ; [451]
G1 X34.485 Y44.755 E7.25889 ; [452]
G1 X34.082 Y44.977 E7.2742 ; [453]
G1 X33.614 Y45.22 E7.29174 ; [454]
G1 X33.165 Y45.439 E7.30835 ; [455]
G1 X32.658 Y45.67 E7.32688 ; [456]
G1 X32.13 Y45.894 E7.34596 ; [457]
G1 X31.65 Y46.084 E7.36313 ; [458]
G1 X31.226 Y46.24 E7.37815 ; [459]
G1 X30.708 Y46.416 E7.39635 ; [460]
G1 X30.215 Y46.569 E7.41352 ; [461]
G1 X29.695 Y46.716 E7.43149 ; [462]
G1 X29.178 Y46.848 E7.44924 ; [463]
G1 X28.672 Y46.964 E7.46651 ; [464]
G1 X28.245 Y47.051 E7.481 ; [465]
G1 X27.722 Y47.144 E7.49867 ; [466]
G1 X27.176 Y47.227 E7.51704 ; [467]
G1 X26.633 Y47.295 E7.53524 ; [468]
G1 X26.141 Y47.344 E7.55168 ; [469]
G1 X25.618 Y47.383 E7.56913 ; [470]
G1 X25.116 Y47.408 E7.58584 ; [471]
G1 X24.568 Y47.421 E7.60407 ; [472]
G1 X24.07 Y47.42 E7.62064 ; [473]
G1 X23.525 Y47.405 E7.63877 ; [474]
G1 X22.983 Y47.376 E7.65682 ; [475]
G1 X22.438 Y47.333 E7.67501 ; [476]
G1 X21.973 Y47.284 E7.69056 ; [477]
G1 X21.465 Y47.218 E7.7076 ; [478]
G1 X20.941 Y47.137 E7.72523 ; [479]
G1 X20.416 Y47.042 E7.74298 ; [480]
G1 X19.956 Y46.947 E7.7586 ; [481]
G1 X19.437 Y46.826 E7.77633 ; [482]
G1 X18.94 Y46.697 E7.7934 ; [483]
G1 X18.445 Y46.556 E7.81052 ; [484]
G1 X17.974 Y46.409 E7.82693 ; [485]
G1 X17.458 Y46.233 E7.84507 ; [486]
G1 X16.952 Y46.046 E7.86301 ; [487]
G1 X16.435 Y45.839 E7.88153 ; [488]
G1 X15.975 Y45.641 E7.89819 ; [489]
G1 X15.482 Y45.414 E7.91624 ; [490]
G1 X15.078 Y45.215 E7.93122 ; [491]
G1 X14.641 Y44.987 E7.94761 ; [492]
G1 X14.168 Y44.726 E7.96558 ; [493]
G1 X13.754 Y44.485 E7.98151 ; [494]
G1 X13.344 Y44.234 E7.9975 ; [495]
G1 X12.839 Y43.905 E8.01755 ; [496]
G1 X12.428 Y43.62 E8.03418 ; [497]
G1 X12.01 Y43.315 E8.05139 ; [498]
G1 X11.613 Y43.01 E8.06805 ; [499]
G1 X11.183 Y42.661 E8.08647 ; [500]
G1 X10.783 Y42.319 E8.10397 ; [501]
G1 X10.4 Y41.975 E8.12109 ; [502]
G1 X10.033 Y41.629 E8.13787 ; [503]
G1 X9.621 Y41.219 E8.1572 ; [504]
G1 X9.275 Y40.855 E8.1739 ; [505]
G1 X8.928 Y40.471 E8.19112 ; [506]
G1 X8.598 Y40.088 E8.20793 ; [507]
G1 X8.265 Y39.682 E8.2254 ; [508]
G1 X7.934 Y39.257 E8.24331 ; [509]
G1 X7.61 Y38.818 E8.26146 ; [510]
G1 X7.345 Y38.439 E8.27684 ; [511]
G1 X7.074 Y38.031 E8.29313 ; [512]
G1 X6.821 Y37.631 E8.30888 ; [513]
G1 X6.54 Y37.162 E8.32706 ; [514]
G1 X6.279 Y36.698 E8.34477 ; [515]
G1 X6.033 Y36.233 E8.36226 ; [516]
G1 X5.813 Y35.792 E8.37865 ; [517]
G1 X5.581 Y35.295 E8.3969 ; [518]
G1 X5.384 Y34.843 E8.4133 ; [519]
G1 X5.192 Y34.372 E8.43021 ; [520]
G1 X5.007 Y33.885 E8.44754 ; [521]
G1 X4.834 Y33.395 E8.46482 ; [522]
G1 X4.696 Y32.97 E8.47969 ; [523]
G1 X4.547 Y32.468 E8.4971 ; [524]
G1 X4.408 Y31.955 E8.51478 ; [525]
G1 X4.279 Y31.425 E8.53292 ; [526]
G1 X4.184 Y30.986 E8.54786 ; [527]
G1 X4.088 Y30.484 E8.56486 ; [528]
G1 X3.997 Y29.937 E8.5833 ; [529]
G1 X3.919 Y29.379 E8.60204 ; [530]
G1 X3.862 Y28.871 E8.61905 ; [531]
G1 X3.816 Y28.346 E8.63657 ; [532]
G1 X3.785 Y27.847 E8.6532 ; [533]
G1 X3.765 Y27.29 E8.67174 ; [534]
G1 X3.76 Y26.759 E8.6894 ; [535]
G0 F6000 X4.16 Y26.755 ; [536]
G1 F1200 X4.169 Y26.232 E8.7068 ; [537]
G1 X4.189 Y25.755 E8.72268 ; [538]
G1 X4.221 Y25.273 E8.73875 ; [539]
G1 X4.261 Y24.826 E8.75367 ; [540]
G1 X4.318 Y24.321 E8.77058 ; [541]
G1 X4.4 Y23.735 E8.79026 ; [542]
G1 X4.48 Y23.252 E8.80654 ; [543]
G1 X4.565 Y22.803 E8.82174 ; [544]
G1 X4.69 Y22.231 E8.84121 ; [545]
G1 X4.821 Y21.706 E8.85921 ; [546]
G1 X4.959 Y21.21 E8.87633 ; [547]
G1 X5.11 Y20.713 E8.89361 ; [548]
G1 X5.273 Y20.22 E8.91088 ; [549]
G1 X5.433 Y19.776 E8.92658 ; [550]
G1 X5.61 Y19.319 E8.94288 ; [551]
G1 X5.807 Y18.845 E8.95995 ; [552]
G1 X6.019 Y18.37 E8.97725 ; [553]
G1 X6.245 Y17.896 E8.99472 ; [554]
G1 X6.475 Y17.444 E9.01158 ; [555]
G1 X6.694 Y17.038 E9.02693 ; [556]
G1 X6.942 Y16.604 E9.04355 ; [557]
G1 X7.188 Y16.197 E9.05937 ; [558]
G1 X7.448 Y15.788 E9.07549 ; [559]
G1 X7.742 Y15.35 E9.09304 ; [560]
G1 X8.084 Y14.871 E9.11261 ; [561]
G1 X8.423 Y14.424 E9.13127 ; [562]
G1 X8.714 Y14.058 E9.14682 ; [563]
G1 X9.004 Y13.71 E9.16189 ; [564]
G1 X9.331 Y13.337 E9.17839 ; [565]
G1 X9.65 Y12.99 E9.19406 ; [566]
G1 X10.022 Y12.606 E9.21185 ; [567]
G1 X10.409 Y12.227 E9.22986 ; [568]
G1 X10.79 Y11.872 E9.24718 ; [569]
G1 X11.152 Y11.552 E9.26325 ; [570]
G1 X11.514 Y11.247 E9.279 ; [571]
G1 X11.908 Y10.93 E9.29582 ; [572]
G1 X12.357 Y10.588 E9.31459 ; [573]
G1 X12.799 Y10.271 E9.33268 ; [574]
G1 X13.203 Y9.996 E9.34893 ; [575]
G1 X13.56 Y9.765 E9.36308 ; [576]
G1 X13.985 Y9.505 E9.37965 ; [577]
G1 X14.468 Y9.225 E9.39822 ; [578]
G1 X14.9 Y8.988 E9.41461 ; [579]
G1 X15.312 Y8.775 E9.43003 ; [580]
G1 X15.8 Y8.539 E9.44806 ; [581]
G1 X16.272 Y8.326 E9.46528 ; [582]
G1 X16.74 Y8.129 E9.48217 ; [583]
G1 X17.178 Y7.957 E9.49782 ; [584]
G1 X17.646 Y7.786 E9.5144 ; [585]
G1 X18.153 Y7.615 E9.53219 ; [586]
G1 X18.662 Y7.458 E9.54991 ; [587]
G1 X19.144 Y7.323 E9.56656 ; [588]
G1 X19.618 Y7.202 E9.58283 ; [589]
G1 X20.094 Y7.093 E9.59907 ; [590]
G1 X20.598 Y6.991 E9.61617 ; [591]
G1 X21.091 Y6.904 E9.63282 ; [592]
G1 X21.604 Y6.827 E9.65008 ; [593]
G1 X22.102 Y6.765 E9.66677 ; [594]
G1 X22.642 Y6.712 E9.68482 ; [595]
G1 X23.193 Y6.673 E9.70319 ; [596]
G1 X23.721 Y6.65 E9.72077 ; [597]
G1 X24.199 Y6.641 E9.73667 ; [598]
G1 X24.693 Y6.643 E9.7531 ; [599]
G1 X25.199 Y6.658 E9.76993 ; [600]
G1 X25.681 Y6.684 E9.78599 ; [601]
G1 X26.161 Y6.721 E9.802 ; [602]
G1 X26.716 Y6.779 E9.82056 ; [603]
G1 X27.252 Y6.85 E9.83854 ; [604]
G1 X27.749 Y6.929 E9.85528 ; [605]
G1 X28.23 Y7.017 E9.87155 ; [606]
G1 X28.703 Y7.115 E9.88761 ; [607]
G1 X29.185 Y7.227 E9.90407 ; [608]
G1 X29.678 Y7.354 E9.921 ; [609]
G1 X30.119 Y7.48 E9.93626 ; [610]
G1 X30.616 Y7.636 E9.95358 ; [611]
G1 X31.125 Y7.81 E9.97147 ; [612]
G1 X31.589 Y7.981 E9.98792 ; [613]
G1 X32.04 Y8.16 E10.00406 ; [614]
G1 X32.509 Y8.361 E10.02103 ; [615]
G1 X33.303 Y8.735 E10.05022 ; [616]
G1 X33.846 Y9.014 E10.07053 ; [617]
G1 X34.353 Y9.293 E10.08978 ; [618]
G1 X34.814 Y9.564 E10.10756 ; [619]
G1 X35.237 Y9.826 E10.12411 ; [620]
G1 X35.626 Y10.081 E10.13958 ; [621]
G1 X36.049 Y10.374 E10.1567 ; [622]
G1 X36.427 Y10.65 E10.17226 ; [623]
G1 X36.805 Y10.94 E10.18811 ; [624]
G1 X37.255 Y11.302 E10.20732 ; [625]
G1 X37.697 Y11.679 E10.22664 ; [626]
G1 X38.047 Y11.995 E10.24232 ; [627]
G1 X38.402 Y12.331 E10.25858 ; [628]
G1 X38.728 Y12.655 E10.27387 ; [629]
G1 X39.051 Y12.992 E10.28939 ; [630]
G1 X39.41 Y13.383 E10.30705 ; [631]
G1 X39.812 Y13.848 E10.32749 ; [632]
G1 X40.194 Y14.318 E10.34764 ; [633]
G1 X40.485 Y14.693 E10.36342 ; [634]
G1 X40.736 Y15.033 E10.37748 ; [635]
G1 X41.007 Y15.418 E10.39314 ; [636]
G1 X41.266 Y15.805 E10.40863 ; [637]
G1 X41.57 Y16.288 E10.42761 ; [638]
G1 X41.862 Y16.782 E10.4467 ; [639]
G1 X42.096 Y17.201 E10.46266 ; [640]
G1 X42.313 Y17.611 E10.47809 ; [641]
G1 X42.537 Y18.06 E10.49478 ; [642]
G1 X42.74 Y18.494 E10.51071 ; [643]
G1 X42.939 Y18.949 E10.52723 ; [644]
G1 X43.141 Y19.442 E10.54495 ; [645]
G1 X43.327 Y19.931 E10.56235 ; [646]
G1 X43.479 Y20.364 E10.57761 ; [647]
G1 X43.638 Y20.856 E10.59481 ; [648]
G1 X43.779 Y21.334 E10.61139 ; [649]
G1 X43.912 Y21.831 E10.6285 ; [650]
G1 X44.038 Y22.354 E10.64639 ; [651]
G1 X44.145 Y22.849 E10.66324 ; [652]
G1 X44.241 Y23.357 E10.68043 ; [653]
G1 X44.326 Y23.884 E10.69818 ; [654]
G1 X44.389 Y24.35 E10.71383 ; [655]
G1 X44.443 Y24.841 E10.73025 ; [656]
G1 X44.488 Y25.363 E10.74768 ; [657]
G1 X44.519 Y25.866 E10.76444 ; [658]
G1 X44.536 Y26.331 E10.77992 ; [659]
G1 X44.542 Y26.872 E10.79791 ; [660]
G1 X44.533 Y27.418 E10.81608 ; [661]
G1 X44.512 Y27.913 E10.83255 ; [662]
G1 X44.48 Y28.404 E10.84892 ; [663]
G1 X44.434 Y28.921 E10.86618 ; [664]
G1 X44.376 Y29.419 E10.88286 ; [665]
G1 X44.299 Y29.951 E10.90074 ; [666]
G1 X44.213 Y30.456 E10.91778 ; [667]
G1 X44.119 Y30.937 E10.93408 ; [668]
G1 X44.012 Y31.423 E10.95063 ; [669]
G1 X43.894 Y31.907 E10.9672 ; [670]
G1 X43.767 Y32.374 E10.98329 ; [671]
G1 X43.612 Y32.887 E11.00112 ; [672]
G1 X43.451 Y33.376 E11.01824 ; [673]
G1 X43.29 Y33.83 E11.03426 ; [674]
G1 X43.119 Y34.277 E11.05018 ; [675]
G1 X42.914 Y34.774 E11.06806 ; [676]
G1 X42.699 Y35.258 E11.08568 ; [677]
G1 X42.491 Y35.696 E11.1018 ; [678]
G1 X42.283 Y36.11 E11.11721 ; [679]
G1 X42.039 Y36.568 E11.13447 ; [680]
G1 X41.788 Y37.01 E11.15138 ; [681]
G1 X41.503 Y37.481 E11.16969 ; [682]
G1 X41.195 Y37.961 E11.18866 ; [683]
G1 X40.914 Y38.376 E11.20533 ; [684]
G1 X40.638 Y38.763 E11.22114 ; [685]
G1 X40.354 Y39.143 E11.23692 ; [686]
G1 X40.097 Y39.47 E11.25075 ; [687]
G1 X39.787 Y39.845 E11.26693 ; [688]
G1 X39.412 Y40.278 E11.28598 ; [689]
G1 X39.027 Y40.698 E11.30493 ; [690]
G1 X38.684 Y41.052 E11.32133 ; [691]
G1 X38.349 Y41.382 E11.33697 ; [692]
G1 X37.993 Y41.717 E11.35323 ; [693]
G1 X37.584 Y42.082 E11.37146 ; [694]
G1 X37.192 Y42.413 E11.38852 ; [695]
G1 X36.788 Y42.737 E11.40575 ; [696]
G1 X36.382 Y43.046 E11.42272 ; [697]
G1 X35.926 Y43.373 E11.44138 ; [698]
G1 X35.464 Y43.686 E11.45994 ; [699]
G1 X35.08 Y43.935 E11.47516 ; [700]
G1 X34.707 Y44.164 E11.48972 ; [701]
G1 X34.292 Y44.405 E11.50568 ; [702]
G1 X33.889 Y44.627 E11.52099 ; [703]
G1 X33.439 Y44.861 E11.53786 ; [704]
G1 X32.99 Y45.08 E11.55447 ; [705]
G1 X32.502 Y45.302 E11.5723 ; [706]
G1 X31.974 Y45.526 E11.59138 ; [707]
G1 X31.512 Y45.709 E11.60791 ; [708]
G1 X31.088 Y45.865 E11.62293 ; [709]
G1 X30.589 Y46.034 E11.64046 ; [710]
G1 X30.096 Y46.187 E11.65763 ; [711]
G1 X29.596 Y46.328 E11.6749 ; [712]
G1 X29.079 Y46.46 E11.69265 ; [713]
G1 X28.592 Y46.572 E11.70927 ; [714]
G1 X28.165 Y46.659 E11.72377 ; [715]
G1 X27.662 Y46.748 E11.74076 ; [716]
G1 X27.116 Y46.831 E11.75912 ; [717]
G1 X26.594 Y46.897 E11.77662 ; [718]
G1 X26.102 Y46.946 E11.79307 ; [719]
G1 X25.598 Y46.983 E11.80988 ; [720]
G1 X25.096 Y47.008 E11.82659 ; [721]
G1 X24.569 Y47.021 E11.84413 ; [722]
G1 X24.071 Y47.02 E11.86069 ; [723]
G1 X23.546 Y47.005 E11.87816 ; [724]
G1 X23.004 Y46.976 E11.89621 ; [725]
G1 X22.48 Y46.935 E11.91369 ; [726]
G1 X22.015 Y46.886 E11.92925 ; [727]
G1 X21.526 Y46.822 E11.94565 ; [728]
G1 X21.002 Y46.741 E11.96328 ; [729]
G1 X20.497 Y46.65 E11.98035 ; [730]
G1 X20.037 Y46.555 E11.99597 ; [731]
G1 X19.537 Y46.439 E12.01305 ; [732]
G1 X19.04 Y46.31 E12.03012 ; [733]
G1 X18.564 Y46.174 E12.04659 ; [734]
G1 X18.093 Y46.027 E12.063 ; [735]
G1 X17.596 Y45.858 E12.08046 ; [736]
G1 X17.09 Y45.671 E12.0984 ; [737]
G1 X16.593 Y45.472 E12.11621 ; [738]
G1 X16.133 Y45.274 E12.13286 ; [739]
G1 X15.659 Y45.055 E12.15023 ; [740]
G1 X15.255 Y44.856 E12.16521 ; [741]
G1 X14.834 Y44.637 E12.18099 ; [742]
G1 X14.361 Y44.376 E12.19896 ; [743]
G1 X13.963 Y44.144 E12.21428 ; [744]
G1 X13.553 Y43.893 E12.23027 ; [745]
G1 X13.067 Y43.576 E12.24957 ; [746]
G1 X12.656 Y43.291 E12.26621 ; [747]
G1 X12.254 Y42.998 E12.28275 ; [748]
G1 X11.857 Y42.693 E12.2994 ; [749]
G1 X11.443 Y42.357 E12.31714 ; [750]
G1 X11.043 Y42.015 E12.33464 ; [751]
G1 X10.674 Y41.684 E12.35113 ; [752]
G1 X10.307 Y41.338 E12.36791 ; [753]
G1 X9.911 Y40.943 E12.38651 ; [754]
G1 X9.565 Y40.579 E12.40321 ; [755]
G1 X9.231 Y40.21 E12.41977 ; [756]
G1 X8.901 Y39.827 E12.43658 ; [757]
G1 X8.581 Y39.436 E12.45339 ; [758]
G1 X8.25 Y39.011 E12.4713 ; [759]
G1 X7.938 Y38.589 E12.48876 ; [760]
G1 X7.673 Y38.21 E12.50414 ; [761]
G1 X7.412 Y37.817 E12.51983 ; [762]
G1 X7.159 Y37.417 E12.53557 ; [763]
G1 X6.889 Y36.966 E12.55306 ; [764]
G1 X6.628 Y36.502 E12.57076 ; [765]
G1 X6.391 Y36.054 E12.58762 ; [766]
G1 X6.171 Y35.613 E12.60401 ; [767]
G1 X5.948 Y35.135 E12.62155 ; [768]
G1 X5.751 Y34.683 E12.63795 ; [769]
G1 X5.566 Y34.23 E12.65423 ; [770]
G1 X5.381 Y33.743 E12.67156 ; [771]
G1 X5.215 Y33.271 E12.6882 ; [772]
G1 X5.077 Y32.846 E12.70306 ; [773]
G1 X4.933 Y32.364 E12.71979 ; [774]
G1 X4.794 Y31.851 E12.73747 ; [775]
G1 X4.67 Y31.34 E12.75496 ; [776]
G1 X4.575 Y30.901 E12.7699 ; [777]
G1 X4.482 Y30.418 E12.78626 ; [778]
G1 X4.391 Y29.871 E12.8047 ; [779]
G1 X4.317 Y29.334 E12.82273 ; [780]
G1 X4.26 Y28.826 E12.83973 ; [781]
G1 X4.216 Y28.321 E12.85659 ; [782]
G1 X4.185 Y27.822 E12.87322 ; [783]
G1 X4.165 Y27.286 E12.89106 ; [784]
G1 X4.16 Y26.755 E12.90872 ; [785]
G1 F1500 E6.40872 ; [786]
; [787] MESH:Router test 2.3mf
G0 F6000 X22.391 Y27.558 ; [788]
G0 X24.694 Y28.707 ; [789]
; [790] TYPE:WALL-INNER
G1 F1500 E12.90872 ; [791]
G1 F1200 X25.144 Y28.554 E12.92453 ; [792]
G1 X25.374 Y28.437 E12.93311 ; [793]
G1 X25.591 Y28.266 E12.9423 ; [794]
G1 X25.865 Y27.974 E12.95562 ; [795]
G1 X26.061 Y27.651 E12.96819 ; [796]
G1 X26.191 Y27.297 E12.98073 ; [797]
G1 X26.247 Y27.026 E12.98993 ; [798]
G1 X26.247 Y26.749 E12.99915 ; [799]
G1 X26.188 Y26.363 E13.01213 ; [800]
G1 X26.029 Y25.923 E13.02769 ; [801]
G1 X25.698 Y25.482 E13.04603 ; [802]
G1 X25.468 Y25.299 E13.05581 ; [803]
G1 X25.143 Y25.107 E13.06836 ; [804]
G1 X24.771 Y24.98 E13.08144 ; [805]
G1 X24.489 Y24.93 E13.09096 ; [806]
G1 X24.226 Y24.937 E13.09971 ; [807]
G1 X23.843 Y25.004 E13.11265 ; [808]
G1 X23.561 Y25.095 E13.1225 ; [809]
G1 X23.085 Y25.4 E13.14131 ; [810]
G1 X22.779 Y25.766 E13.15717 ; [811]
G1 X22.636 Y25.998 E13.16624 ; [812]
G1 X22.543 Y26.255 E13.17533 ; [813]
G1 X22.447 Y26.723 E13.19122 ; [814]
G1 X22.465 Y27.099 E13.20374 ; [815]
G1 X22.562 Y27.494 E13.21727 ; [816]
G1 X22.827 Y27.98 E13.23568 ; [817]
G1 X23.181 Y28.324 E13.25209 ; [818]
G1 X23.39 Y28.474 E13.26065 ; [819]
G1 X23.645 Y28.592 E13.27 ; [820]
G1 X24.025 Y28.699 E13.28313 ; [821]
G1 X24.403 Y28.728 E13.29574 ; [822]
G1 X24.694 Y28.707 E13.30544 ; [823]
G0 F6000 X24.774 Y29.102 ; [824]
; [825] TYPE:WALL-OUTER
G1 F1200 X25.3 Y28.924 E13.32391 ; [826]
G1 X25.59 Y28.776 E13.33474 ; [827]
G1 X25.863 Y28.562 E13.34628 ; [828]
G1 X26.185 Y28.217 E13.36197 ; [829]
G1 X26.423 Y27.825 E13.37722 ; [830]
G1 X26.577 Y27.407 E13.39204 ; [831]
G1 X26.647 Y27.067 E13.40359 ; [832]
G1 X26.647 Y26.719 E13.41516 ; [833]
G1 X26.578 Y26.263 E13.4305 ; [834]
G1 X26.384 Y25.73 E13.44937 ; [835]
G1 X25.987 Y25.201 E13.47136 ; [836]
G1 X25.696 Y24.969 E13.48374 ; [837]
G1 X25.311 Y24.741 E13.49862 ; [838]
G1 X24.871 Y24.592 E13.51407 ; [839]
G1 X24.519 Y24.529 E13.52597 ; [840]
G1 X24.186 Y24.538 E13.53705 ; [841]
G1 X23.747 Y24.614 E13.55187 ; [842]
G1 X23.389 Y24.73 E13.56438 ; [843]
G1 X22.818 Y25.096 E13.58694 ; [844]
G1 X22.453 Y25.531 E13.60583 ; [845]
G1 X22.274 Y25.824 E13.61725 ; [846]
G1 X22.157 Y26.147 E13.62867 ; [847]
G1 X22.045 Y26.692 E13.64718 ; [848]
G1 X22.067 Y27.157 E13.66266 ; [849]
G1 X22.186 Y27.64 E13.67921 ; [850]
G1 X22.505 Y28.224 E13.70134 ; [851]
G1 X22.923 Y28.632 E13.72077 ; [852]
G1 X23.188 Y28.822 E13.73161 ; [853]
G1 X23.506 Y28.968 E13.74325 ; [854]
G1 X23.955 Y29.095 E13.75877 ; [855]
G1 X24.402 Y29.129 E13.77368 ; [856]
G1 X24.774 Y29.102 E13.78609 ; [857]
G0 F6000 X24.55 Y28.377 ; [858]
; [859] TYPE:SKIN
G1 F1200 X25.114 Y28.182 E13.80593 ; [860]
G1 X25.348 Y27.998 E13.81584 ; [861]
G1 X25.578 Y27.752 E13.82704 ; [862]
G1 X25.736 Y27.492 E13.83716 ; [863]
G1 X25.842 Y27.2 E13.84749 ; [864]
G1 X25.905 Y26.895 E13.85785 ; [865]
G1 X25.836 Y26.451 E13.87279 ; [866]
G1 X25.707 Y26.093 E13.88545 ; [867]
G1 X25.387 Y25.67 E13.90309 ; [868]
G1 X24.99 Y25.436 E13.91842 ; [869]
G1 X24.682 Y25.331 E13.92924 ; [870]
G1 X24.377 Y25.278 E13.93954 ; [871]
G1 X23.786 Y25.378 E13.95947 ; [872]
G1 X23.323 Y25.675 E13.97777 ; [873]
G1 X23.072 Y25.977 E13.99083 ; [874]
G1 X22.916 Y26.232 E14.00077 ; [875]
G1 X22.81 Y26.754 E14.01849 ; [876]
G1 X22.823 Y27.044 E14.02814 ; [877]
G1 X22.902 Y27.365 E14.03914 ; [878]
G1 X23.116 Y27.756 E14.05396 ; [879]
G1 X23.493 Y28.124 E14.07148 ; [880]
G1 X23.769 Y28.252 E14.0816 ; [881]
G1 X24.09 Y28.343 E14.0927 ; [882]
G1 X24.55 Y28.377 E14.10804 ; [883]
G0 F6000 X24.565 Y28.616 ; [884]
G0 X23.701 Y28.44 ; [885]
G0 X23.204 Y28.122 ; [886]
G0 X22.957 Y27.882 ; [887]
G0 X22.56 Y27 ; [888]
G0 X23.019 Y26.979 ; [889]
G1 F1200 X24.188 Y28.148 E14.16303 ; [890]
G0 F6000 X24.713 Y28.107 ; [891]
G1 F1200 X23.071 Y26.465 E14.24026 ; [892]
G0 F6000 X23.248 Y26.076 ; [893]
G1 F1200 X25.105 Y27.933 E14.32761 ; [894]
G0 F6000 X25.393 Y27.656 ; [895]
G1 F1200 X23.522 Y25.785 E14.41562 ; [896]
G0 F6000 X23.869 Y25.566 ; [897]
G1 F1200 X25.595 Y27.292 E14.4968 ; [898]
G0 F6000 X25.691 Y26.822 ; [899]
G1 F1200 X24.352 Y25.484 E14.55976 ; [900]
G1 F1500 E8.05976 ; [901]
; [902] MESH:Router test 2.3mf(1)
G0 F6000 X24.34 Y25.033 ; [903]
G0 X25.229 Y25.345 ; [904]
G0 X25.683 Y25.73 ; [905]
G0 X25.973 Y26.242 ; [906]
G0 X26.086 Y27.009 ; [907]
G0 X25.829 Y27.725 ; [908]
G0 X25.391 Y28.191 ; [909]
G0 X24.402 Y28.909 ; [910]
G0 X24.48 Y29.99 ; [911]
G0 X24.473 Y33.662 ; [912]
G0 X24.241 Y34.93 ; [913]
; [914] TYPE:WALL-INNER
G1 F1500 E14.55976 ; [915]
G1 F1200 X23.751 Y34.909 E14.57607 ; [916]
G1 X23.284 Y34.861 E14.59169 ; [917]
G1 X22.841 Y34.789 E14.60662 ; [918]
G1 X22.406 Y34.696 E14.62141 ; [919]
G1 X21.919 Y34.557 E14.63826 ; [920]
G1 X21.495 Y34.41 E14.65318 ; [921]
G1 X21.062 Y34.235 E14.66871 ; [922]
G1 X20.626 Y34.024 E14.68483 ; [923]
G1 X20.218 Y33.797 E14.70035 ; [924]
G1 X19.852 Y33.566 E14.71475 ; [925]
G1 X19.461 Y33.29 E14.73067 ; [926]
G1 X19.1 Y32.999 E14.74609 ; [927]
G1 X18.756 Y32.69 E14.76147 ; [928]
G1 X18.411 Y32.337 E14.77789 ; [929]
G1 X18.098 Y31.983 E14.7936 ; [930]
G1 X17.828 Y31.632 E14.80833 ; [931]
G1 X17.562 Y31.249 E14.82384 ; [932]
G1 X17.326 Y30.862 E14.83892 ; [933]
G1 X17.1 Y30.445 E14.85469 ; [934]
G1 X16.894 Y29.995 E14.87115 ; [935]
G1 X16.718 Y29.545 E14.88722 ; [936]
G1 X16.578 Y29.114 E14.9023 ; [937]
G1 X16.467 Y28.689 E14.91691 ; [938]
G1 X16.375 Y28.247 E14.93192 ; [939]
G1 X16.302 Y27.745 E14.94879 ; [940]
G1 X16.264 Y27.307 E14.96342 ; [941]
G1 X16.251 Y26.871 E14.97793 ; [942]
G1 X16.264 Y26.346 E14.99539 ; [943]
G1 X16.304 Y25.902 E15.01022 ; [944]
G1 X16.375 Y25.419 E15.02646 ; [945]
G1 X16.47 Y24.959 E15.04208 ; [946]
G1 X16.582 Y24.538 E15.05657 ; [947]
G1 X16.724 Y24.105 E15.07173 ; [948]
G1 X16.906 Y23.635 E15.08849 ; [949]
G1 X17.095 Y23.227 E15.10344 ; [950]
G1 X17.309 Y22.827 E15.11853 ; [951]
G1 X17.568 Y22.402 E15.13509 ; [952]
G1 X17.836 Y22.015 E15.15074 ; [953]
G1 X18.123 Y21.652 E15.16613 ; [954]
G1 X18.412 Y21.32 E15.18077 ; [955]
G1 X18.743 Y20.986 E15.19641 ; [956]
G1 X19.091 Y20.669 E15.21207 ; [957]
G1 X19.455 Y20.377 E15.22759 ; [958]
G1 X19.823 Y20.114 E15.24264 ; [959]
G1 X20.23 Y19.857 E15.25865 ; [960]
G1 X20.615 Y19.643 E15.2733 ; [961]
G1 X21.047 Y19.435 E15.28924 ; [962]
G1 X21.504 Y19.246 E15.30569 ; [963]
G1 X21.955 Y19.091 E15.32155 ; [964]
G1 X22.391 Y18.97 E15.3366 ; [965]
G1 X22.833 Y18.872 E15.35166 ; [966]
G1 X23.299 Y18.799 E15.36735 ; [967]
G1 X23.786 Y18.75 E15.38363 ; [968]
G1 X24.254 Y18.73 E15.39921 ; [969]
G1 X24.714 Y18.737 E15.41451 ; [970]
G1 X25.174 Y18.771 E15.42985 ; [971]
G1 X25.614 Y18.828 E15.44461 ; [972]
G1 X26.078 Y18.915 E15.46031 ; [973]
G1 X26.558 Y19.036 E15.47677 ; [974]
G1 X26.979 Y19.167 E15.49144 ; [975]
G1 X27.412 Y19.33 E15.50683 ; [976]
G1 X27.866 Y19.533 E15.52337 ; [977]
G1 X28.257 Y19.732 E15.53796 ; [978]
G1 X28.655 Y19.965 E15.5533 ; [979]
G1 X29.055 Y20.233 E15.56931 ; [980]
G1 X29.425 Y20.515 E15.58479 ; [981]
G1 X29.761 Y20.8 E15.59944 ; [982]
G1 X30.095 Y21.117 E15.61476 ; [983]
G1 X30.448 Y21.497 E15.63201 ; [984]
G1 X30.742 Y21.849 E15.64726 ; [985]
G1 X31.015 Y22.223 E15.66266 ; [986]
G1 X31.266 Y22.609 E15.67798 ; [987]
G1 X31.497 Y23.012 E15.69342 ; [988]
G1 X31.694 Y23.407 E15.70811 ; [989]
G1 X31.886 Y23.857 E15.72438 ; [990]
G1 X32.045 Y24.294 E15.73985 ; [991]
G1 X32.177 Y24.735 E15.75516 ; [992]
G1 X32.292 Y25.218 E15.77167 ; [993]
G1 X32.364 Y25.644 E15.78604 ; [994]
G1 X32.421 Y26.124 E15.80212 ; [995]
G1 X32.447 Y26.557 E15.81654 ; [996]
G1 X32.45 Y27.05 E15.83294 ; [997]
G1 X32.422 Y27.54 E15.84927 ; [998]
G1 X32.369 Y27.999 E15.86463 ; [999]
G1 X32.29 Y28.445 E15.8797 ; [1000]
G1 X32.184 Y28.905 E15.8954 ; [1001]
G1 X32.052 Y29.348 E15.91077 ; [1002]
G1 X31.896 Y29.783 E15.92614 ; [1003]
G1 X31.703 Y30.236 E15.94252 ; [1004]
G1 X31.491 Y30.659 E15.95826 ; [1005]
G1 X31.267 Y31.053 E15.97333 ; [1006]
G1 X31.025 Y31.423 E15.98804 ; [1007]
G1 X30.755 Y31.795 E16.00333 ; [1008]
G1 X30.461 Y32.151 E16.01868 ; [1009]
G1 X30.112 Y32.53 E16.03582 ; [1010]
G1 X29.771 Y32.851 E16.05139 ; [1011]
G1 X29.424 Y33.149 E16.06661 ; [1012]
G1 X29.054 Y33.427 E16.082 ; [1013]
G1 X28.671 Y33.685 E16.09736 ; [1014]
G1 X28.273 Y33.921 E16.11275 ; [1015]
G1 X27.859 Y34.133 E16.12822 ; [1016]
G1 X27.438 Y34.32 E16.14354 ; [1017]
G1 X26.991 Y34.489 E16.15944 ; [1018]
G1 X26.546 Y34.629 E16.17495 ; [1019]
G1 X26.098 Y34.743 E16.19033 ; [1020]
G1 X25.631 Y34.83 E16.20613 ; [1021]
G1 X25.149 Y34.893 E16.22229 ; [1022]
G1 X24.733 Y34.923 E16.23617 ; [1023]
G1 X24.241 Y34.93 E16.25253 ; [1024]
G0 F6000 X24.698 Y34.524 ; [1025]
; [1026] TYPE:WALL-OUTER
G1 F1200 X24.257 Y34.53 E16.2672 ; [1027]
G1 X23.791 Y34.511 E16.28271 ; [1028]
G1 X23.348 Y34.466 E16.29752 ; [1029]
G1 X22.925 Y34.397 E16.31178 ; [1030]
G1 X22.477 Y34.301 E16.32702 ; [1031]
G1 X22.049 Y34.179 E16.34182 ; [1032]
G1 X21.619 Y34.029 E16.35697 ; [1033]
G1 X21.214 Y33.864 E16.37151 ; [1034]
G1 X20.82 Y33.674 E16.38606 ; [1035]
G1 X20.432 Y33.459 E16.40081 ; [1036]
G1 X20.057 Y33.222 E16.41557 ; [1037]
G1 X19.694 Y32.964 E16.43038 ; [1038]
G1 X19.35 Y32.685 E16.44511 ; [1039]
G1 X19.02 Y32.388 E16.45988 ; [1040]
G1 X18.71 Y32.071 E16.47463 ; [1041]
G1 X18.414 Y31.737 E16.48947 ; [1042]
G1 X18.156 Y31.404 E16.50348 ; [1043]
G1 X17.904 Y31.04 E16.51821 ; [1044]
G1 X17.669 Y30.655 E16.53321 ; [1045]
G1 X17.452 Y30.253 E16.5484 ; [1046]
G1 X17.266 Y29.848 E16.56322 ; [1047]
G1 X17.098 Y29.421 E16.57849 ; [1048]
G1 X16.965 Y29.012 E16.59279 ; [1049]
G1 X16.859 Y28.607 E16.60672 ; [1050]
G1 X16.769 Y28.177 E16.62133 ; [1051]
G1 X16.701 Y27.71 E16.63702 ; [1052]
G1 X16.663 Y27.279 E16.65141 ; [1053]
G1 X16.651 Y26.859 E16.66539 ; [1054]
G1 X16.663 Y26.381 E16.68129 ; [1055]
G1 X16.7 Y25.959 E16.69538 ; [1056]
G1 X16.766 Y25.504 E16.71067 ; [1057]
G1 X16.856 Y25.063 E16.72564 ; [1058]
G1 X16.97 Y24.638 E16.74028 ; [1059]
G1 X17.097 Y24.249 E16.75389 ; [1060]
G1 X17.27 Y23.801 E16.76986 ; [1061]
G1 X17.448 Y23.416 E16.78397 ; [1062]
G1 X17.668 Y23.006 E16.79945 ; [1063]
G1 X17.898 Y22.629 E16.81413 ; [1064]
G1 X18.15 Y22.263 E16.82891 ; [1065]
G1 X18.425 Y21.915 E16.84367 ; [1066]
G1 X18.71 Y21.587 E16.85812 ; [1067]
G1 X19.014 Y21.281 E16.87246 ; [1068]
G1 X19.342 Y20.981 E16.88725 ; [1069]
G1 X19.688 Y20.703 E16.90201 ; [1070]
G1 X20.066 Y20.433 E16.91746 ; [1071]
G1 X20.425 Y20.207 E16.93157 ; [1072]
G1 X20.811 Y19.992 E16.94627 ; [1073]
G1 X21.217 Y19.797 E16.96125 ; [1074]
G1 X21.635 Y19.624 E16.97629 ; [1075]
G1 X22.051 Y19.48 E16.99093 ; [1076]
G1 X22.49 Y19.358 E17.00609 ; [1077]
G1 X22.915 Y19.264 E17.02057 ; [1078]
G1 X23.341 Y19.197 E17.03491 ; [1079]
G1 X23.792 Y19.15 E17.04999 ; [1080]
G1 X24.248 Y19.13 E17.06517 ; [1081]
G1 X24.679 Y19.138 E17.07951 ; [1082]
G1 X25.131 Y19.17 E17.09458 ; [1083]
G1 X25.551 Y19.225 E17.10867 ; [1084]
G1 X25.997 Y19.308 E17.12376 ; [1085]
G1 X26.438 Y19.418 E17.13888 ; [1086]
G1 X26.892 Y19.562 E17.15472 ; [1087]
G1 X27.278 Y19.708 E17.16844 ; [1088]
G1 X27.683 Y19.889 E17.1832 ; [1089]
G1 X28.051 Y20.078 E17.19696 ; [1090]
G1 X28.439 Y20.304 E17.21189 ; [1091]
G1 X28.83 Y20.565 E17.22753 ; [1092]
G1 X29.181 Y20.834 E17.24224 ; [1093]
G1 X29.503 Y21.108 E17.2563 ; [1094]
G1 X29.817 Y21.405 E17.27067 ; [1095]
G1 X30.14 Y21.753 E17.28647 ; [1096]
G1 X30.425 Y22.095 E17.30127 ; [1097]
G1 X30.687 Y22.455 E17.31608 ; [1098]
G1 X30.929 Y22.827 E17.33084 ; [1099]
G1 X31.149 Y23.212 E17.34559 ; [1100]
G1 X31.333 Y23.582 E17.35933 ; [1101]
G1 X31.51 Y23.996 E17.37431 ; [1102]
G1 X31.662 Y24.408 E17.38892 ; [1103]
G1 X31.79 Y24.838 E17.40384 ; [1104]
G1 X31.901 Y25.307 E17.41987 ; [1105]
G1 X31.969 Y25.71 E17.43346 ; [1106]
G1 X32.021 Y26.148 E17.44813 ; [1107]
G1 X32.047 Y26.581 E17.46256 ; [1108]
G1 X32.049 Y27.049 E17.47812 ; [1109]
G1 X32.022 Y27.501 E17.49318 ; [1110]
G1 X31.971 Y27.943 E17.50798 ; [1111]
G1 X31.898 Y28.363 E17.52216 ; [1112]
G1 X31.796 Y28.805 E17.53725 ; [1113]
G1 X31.665 Y29.238 E17.5523 ; [1114]
G1 X31.516 Y29.653 E17.56696 ; [1115]
G1 X31.341 Y30.062 E17.58176 ; [1116]
G1 X31.143 Y30.46 E17.59654 ; [1117]
G1 X30.922 Y30.846 E17.61134 ; [1118]
G1 X30.693 Y31.197 E17.62528 ; [1119]
G1 X30.432 Y31.557 E17.64006 ; [1120]
G1 X30.155 Y31.892 E17.65452 ; [1121]
G1 X29.833 Y32.241 E17.67032 ; [1122]
G1 X29.511 Y32.547 E17.68509 ; [1123]
G1 X29.173 Y32.835 E17.69986 ; [1124]
G1 X28.818 Y33.103 E17.71465 ; [1125]
G1 X28.457 Y33.346 E17.72913 ; [1126]
G1 X28.068 Y33.576 E17.74416 ; [1127]
G1 X27.679 Y33.775 E17.75869 ; [1128]
G1 X27.268 Y33.956 E17.77363 ; [1129]
G1 X26.871 Y34.107 E17.78776 ; [1130]
G1 X26.448 Y34.241 E17.80251 ; [1131]
G1 X26.006 Y34.352 E17.81767 ; [1132]
G1 X25.559 Y34.436 E17.8328 ; [1133]
G1 X25.12 Y34.493 E17.84752 ; [1134]
G1 X24.698 Y34.524 E17.8616 ; [1135]
G1 F1500 E11.3616 ; [1136]
G0 F6000 X24.718 Y34.822 ; [1137]
G0 X24.278 Y35.11 ; [1138]
G0 X24.278 Y36.03 ; [1139]
G0 X24.233 Y36.23 ; [1140]
; [1141] TYPE:WALL-INNER
G1 F1500 E17.8616 ; [1142]
G1 F1200 X24.704 Y36.224 E17.87726 ; [1143]
G1 X25.192 Y36.192 E17.89353 ; [1144]
G1 X25.66 Y36.138 E17.9092 ; [1145]
G1 X26.112 Y36.064 E17.92443 ; [1146]
G1 X26.575 Y35.962 E17.9402 ; [1147]
G1 X27.047 Y35.835 E17.95646 ; [1148]
G1 X27.477 Y35.696 E17.97149 ; [1149]
G1 X27.911 Y35.528 E17.98697 ; [1150]
G1 X28.386 Y35.319 E18.00423 ; [1151]
G1 X28.775 Y35.123 E18.01871 ; [1152]
G1 X29.2 Y34.881 E18.03498 ; [1153]
G1 X29.599 Y34.628 E18.05069 ; [1154]
G1 X29.972 Y34.364 E18.06589 ; [1155]
G1 X30.354 Y34.063 E18.08207 ; [1156]
G1 X30.685 Y33.774 E18.09668 ; [1157]
G1 X31.049 Y33.423 E18.1135 ; [1158]
G1 X31.372 Y33.078 E18.12922 ; [1159]
G1 X31.667 Y32.73 E18.1444 ; [1160]
G1 X31.949 Y32.361 E18.15984 ; [1161]
G1 X32.232 Y31.951 E18.17641 ; [1162]
G1 X32.472 Y31.563 E18.19159 ; [1163]
G1 X32.691 Y31.164 E18.20672 ; [1164]
G1 X32.911 Y30.709 E18.22353 ; [1165]
G1 X33.09 Y30.29 E18.23869 ; [1166]
G1 X33.256 Y29.84 E18.25464 ; [1167]
G1 X33.385 Y29.42 E18.26925 ; [1168]
G1 X33.512 Y28.921 E18.28638 ; [1169]
G1 X33.606 Y28.475 E18.30154 ; [1170]
G1 X33.675 Y28.007 E18.31727 ; [1171]
G1 X33.722 Y27.545 E18.33272 ; [1172]
G1 X33.747 Y27.09 E18.34788 ; [1173]
G1 X33.746 Y26.559 E18.36554 ; [1174]
G1 X33.724 Y26.123 E18.38006 ; [1175]
G1 X33.674 Y25.639 E18.39624 ; [1176]
G1 X33.603 Y25.169 E18.41205 ; [1177]
G1 X33.507 Y24.711 E18.42761 ; [1178]
G1 X33.396 Y24.278 E18.44248 ; [1179]
G1 X33.248 Y23.798 E18.45919 ; [1180]
G1 X33.085 Y23.357 E18.47483 ; [1181]
G1 X32.899 Y22.924 E18.4905 ; [1182]
G1 X32.702 Y22.52 E18.50545 ; [1183]
G1 X32.463 Y22.083 E18.52202 ; [1184]
G1 X32.215 Y21.686 E18.53758 ; [1185]
G1 X31.968 Y21.326 E18.55211 ; [1186]
G1 X31.656 Y20.918 E18.56919 ; [1187]
G1 X31.351 Y20.562 E18.58478 ; [1188]
G1 X31.038 Y20.226 E18.60005 ; [1189]
G1 X30.705 Y19.905 E18.61544 ; [1190]
G1 X30.347 Y19.593 E18.63123 ; [1191]
G1 X29.977 Y19.302 E18.64689 ; [1192]
G1 X29.574 Y19.018 E18.66329 ; [1193]
G1 X29.193 Y18.776 E18.6783 ; [1194]
G1 X28.783 Y18.544 E18.69397 ; [1195]
G1 X28.353 Y18.325 E18.71002 ; [1196]
G1 X27.907 Y18.131 E18.72619 ; [1197]
G1 X27.479 Y17.967 E18.74144 ; [1198]
G1 X27.001 Y17.812 E18.75815 ; [1199]
G1 X26.613 Y17.708 E18.77151 ; [1200]
G1 X26.119 Y17.6 E18.78833 ; [1201]
G1 X25.646 Y17.521 E18.80428 ; [1202]
G1 X25.161 Y17.467 E18.82051 ; [1203]
G1 X24.73 Y17.439 E18.83488 ; [1204]
G1 X24.241 Y17.432 E18.85114 ; [1205]
G1 X23.747 Y17.451 E18.86758 ; [1206]
G1 X23.277 Y17.494 E18.88328 ; [1207]
G1 X22.825 Y17.557 E18.89846 ; [1208]
G1 X22.344 Y17.649 E18.91475 ; [1209]
G1 X21.899 Y17.758 E18.92999 ; [1210]
G1 X21.43 Y17.897 E18.94626 ; [1211]
G1 X20.976 Y18.058 E18.96228 ; [1212]
G1 X20.579 Y18.222 E18.97657 ; [1213]
G1 X20.123 Y18.436 E18.99332 ; [1214]
G1 X19.729 Y18.647 E19.00818 ; [1215]
G1 X19.324 Y18.889 E19.02388 ; [1216]
G1 X18.923 Y19.158 E19.03994 ; [1217]
G1 X18.536 Y19.448 E19.05602 ; [1218]
G1 X18.197 Y19.726 E19.0706 ; [1219]
G1 X17.847 Y20.045 E19.08635 ; [1220]
G1 X17.49 Y20.406 E19.10324 ; [1221]
G1 X17.2 Y20.73 E19.1177 ; [1222]
G1 X16.88 Y21.129 E19.13471 ; [1223]
G1 X16.599 Y21.517 E19.15065 ; [1224]
G1 X16.346 Y21.907 E19.16611 ; [1225]
G1 X16.12 Y22.296 E19.18107 ; [1226]
G1 X15.907 Y22.703 E19.19635 ; [1227]
G1 X15.726 Y23.097 E19.21077 ; [1228]
G1 X15.527 Y23.593 E19.22855 ; [1229]
G1 X15.37 Y24.055 E19.24478 ; [1230]
G1 X15.248 Y24.493 E19.2599 ; [1231]
G1 X15.143 Y24.949 E19.27546 ; [1232]
G1 X15.063 Y25.395 E19.29053 ; [1233]
G1 X15.016 Y25.747 E19.30235 ; [1234]
G1 X14.964 Y26.358 E19.32274 ; [1235]
G1 X14.952 Y26.807 E19.33768 ; [1236]
G1 X14.963 Y27.285 E19.35358 ; [1237]
G1 X15.002 Y27.786 E19.3703 ; [1238]
G1 X15.059 Y28.242 E19.38558 ; [1239]
G1 X15.145 Y28.722 E19.4018 ; [1240]
G1 X15.251 Y29.181 E19.41747 ; [1241]
G1 X15.378 Y29.623 E19.43276 ; [1242]
G1 X15.533 Y30.086 E19.449 ; [1243]
G1 X15.708 Y30.52 E19.46457 ; [1244]
G1 X15.897 Y30.94 E19.47989 ; [1245]
G1 X16.106 Y31.343 E19.49499 ; [1246]
G1 X16.352 Y31.765 E19.51123 ; [1247]
G1 X16.597 Y32.141 E19.52616 ; [1248]
G1 X16.885 Y32.537 E19.54244 ; [1249]
G1 X17.18 Y32.904 E19.55811 ; [1250]
G1 X17.511 Y33.276 E19.57467 ; [1251]
G1 X17.832 Y33.602 E19.58988 ; [1252]
G1 X18.193 Y33.932 E19.60615 ; [1253]
G1 X18.542 Y34.221 E19.62122 ; [1254]
G1 X18.934 Y34.512 E19.63746 ; [1255]
G1 X19.326 Y34.773 E19.65312 ; [1256]
G1 X19.733 Y35.015 E19.66887 ; [1257]
G1 X20.152 Y35.239 E19.68468 ; [1258]
G1 X20.573 Y35.438 E19.70016 ; [1259]
G1 X20.992 Y35.61 E19.71523 ; [1260]
G1 X21.46 Y35.772 E19.7317 ; [1261]
G1 X21.901 Y35.903 E19.747 ; [1262]
G1 X22.375 Y36.019 E19.76323 ; [1263]
G1 X22.839 Y36.107 E19.77894 ; [1264]
G1 X23.28 Y36.168 E19.79375 ; [1265]
G1 X23.779 Y36.212 E19.81041 ; [1266]
G1 X24.233 Y36.23 E19.82552 ; [1267]
G0 F6000 X24.719 Y36.624 ; [1268]
; [1269] TYPE:WALL-OUTER
G1 F1200 X25.185 Y36.595 E19.84105 ; [1270]
G1 X25.675 Y36.54 E19.85745 ; [1271]
G1 X26.187 Y36.457 E19.8747 ; [1272]
G1 X26.677 Y36.349 E19.89139 ; [1273]
G1 X27.171 Y36.216 E19.9084 ; [1274]
G1 X27.611 Y36.073 E19.92379 ; [1275]
G1 X28.027 Y35.914 E19.9386 ; [1276]
G1 X28.565 Y35.677 E19.95816 ; [1277]
G1 X28.963 Y35.476 E19.97299 ; [1278]
G1 X29.393 Y35.233 E19.98942 ; [1279]
G1 X29.83 Y34.955 E20.00664 ; [1280]
G1 X30.211 Y34.685 E20.02217 ; [1281]
G1 X30.617 Y34.365 E20.03937 ; [1282]
G1 X30.949 Y34.075 E20.05403 ; [1283]
G1 X31.323 Y33.715 E20.07129 ; [1284]
G1 X31.677 Y33.337 E20.08852 ; [1285]
G1 X31.979 Y32.981 E20.10405 ; [1286]
G1 X32.264 Y32.609 E20.11963 ; [1287]
G1 X32.558 Y32.185 E20.13679 ; [1288]
G1 X32.818 Y31.765 E20.15322 ; [1289]
G1 X33.054 Y31.334 E20.16957 ; [1290]
G1 X33.279 Y30.867 E20.18681 ; [1291]
G1 X33.462 Y30.438 E20.20232 ; [1292]
G1 X33.63 Y29.984 E20.21842 ; [1293]
G1 X33.776 Y29.506 E20.23504 ; [1294]
G1 X33.904 Y29.003 E20.25231 ; [1295]
G1 X34 Y28.545 E20.26787 ; [1296]
G1 X34.073 Y28.057 E20.28428 ; [1297]
G1 X34.121 Y27.593 E20.2998 ; [1298]
G1 X34.147 Y27.1 E20.31622 ; [1299]
G1 X34.146 Y26.539 E20.33488 ; [1300]
G1 X34.123 Y26.093 E20.34973 ; [1301]
G1 X34.07 Y25.58 E20.36688 ; [1302]
G1 X33.995 Y25.088 E20.38344 ; [1303]
G1 X33.895 Y24.612 E20.39961 ; [1304]
G1 X33.774 Y24.147 E20.4156 ; [1305]
G1 X33.624 Y23.66 E20.43254 ; [1306]
G1 X33.463 Y23.223 E20.44803 ; [1307]
G1 X33.28 Y22.795 E20.46352 ; [1308]
G1 X33.054 Y22.328 E20.48077 ; [1309]
G1 X32.818 Y21.896 E20.49714 ; [1310]
G1 X32.571 Y21.498 E20.51272 ; [1311]
G1 X32.277 Y21.072 E20.52994 ; [1312]
G1 X31.979 Y20.68 E20.54632 ; [1313]
G1 X31.66 Y20.306 E20.56267 ; [1314]
G1 X31.354 Y19.978 E20.57759 ; [1315]
G1 X30.969 Y19.605 E20.59542 ; [1316]
G1 X30.615 Y19.295 E20.61107 ; [1317]
G1 X30.231 Y18.991 E20.62736 ; [1318]
G1 X29.79 Y18.681 E20.64529 ; [1319]
G1 X29.391 Y18.428 E20.661 ; [1320]
G1 X28.985 Y18.198 E20.67652 ; [1321]
G1 X28.524 Y17.963 E20.69373 ; [1322]
G1 X28.051 Y17.757 E20.71089 ; [1323]
G1 X27.613 Y17.589 E20.72649 ; [1324]
G1 X27.131 Y17.433 E20.74334 ; [1325]
G1 X26.693 Y17.316 E20.75842 ; [1326]
G1 X26.21 Y17.21 E20.77487 ; [1327]
G1 X25.702 Y17.125 E20.792 ; [1328]
G1 X25.212 Y17.069 E20.8084 ; [1329]
G1 X24.746 Y17.039 E20.82393 ; [1330]
G1 X24.226 Y17.032 E20.84123 ; [1331]
G1 X23.712 Y17.052 E20.85834 ; [1332]
G1 X23.246 Y17.094 E20.8739 ; [1333]
G1 X22.735 Y17.166 E20.89106 ; [1334]
G1 X22.249 Y17.26 E20.90753 ; [1335]
G1 X21.787 Y17.374 E20.92336 ; [1336]
G1 X21.297 Y17.519 E20.94035 ; [1337]
G1 X20.861 Y17.673 E20.95573 ; [1338]
G1 X20.404 Y17.862 E20.97218 ; [1339]
G1 X19.957 Y18.071 E20.98859 ; [1340]
G1 X19.525 Y18.303 E21.0049 ; [1341]
G1 X19.123 Y18.543 E21.02047 ; [1342]
G1 X18.692 Y18.831 E21.03771 ; [1343]
G1 X18.282 Y19.138 E21.05475 ; [1344]
G1 X17.935 Y19.423 E21.06968 ; [1345]
G1 X17.57 Y19.756 E21.08612 ; [1346]
G1 X17.206 Y20.123 E21.10331 ; [1347]
G1 X16.878 Y20.491 E21.11971 ; [1348]
G1 X16.588 Y20.851 E21.13508 ; [1349]
G1 X16.263 Y21.299 E21.15349 ; [1350]
G1 X16 Y21.705 E21.16958 ; [1351]
G1 X15.766 Y22.11 E21.18514 ; [1352]
G1 X15.548 Y22.526 E21.20076 ; [1353]
G1 X15.335 Y22.996 E21.21792 ; [1354]
G1 X15.151 Y23.454 E21.23434 ; [1355]
G1 X14.993 Y23.92 E21.2507 ; [1356]
G1 X14.86 Y24.394 E21.26708 ; [1357]
G1 X14.754 Y24.852 E21.28271 ; [1358]
G1 X14.667 Y25.334 E21.299 ; [1359]
G1 X14.6 Y25.874 E21.3171 ; [1360]
G1 X14.564 Y26.338 E21.33258 ; [1361]
G1 X14.552 Y26.807 E21.34818 ; [1362]
G1 X14.564 Y27.321 E21.36528 ; [1363]
G1 X14.604 Y27.836 E21.38246 ; [1364]
G1 X14.663 Y28.302 E21.39809 ; [1365]
G1 X14.749 Y28.786 E21.41444 ; [1366]
G1 X14.866 Y29.289 E21.43161 ; [1367]
G1 X14.998 Y29.75 E21.44756 ; [1368]
G1 X15.151 Y30.208 E21.46362 ; [1369]
G1 X15.343 Y30.685 E21.48073 ; [1370]
G1 X15.549 Y31.138 E21.49728 ; [1371]
G1 X15.75 Y31.527 E21.51184 ; [1372]
G1 X16.025 Y31.997 E21.52995 ; [1373]
G1 X16.267 Y32.367 E21.54466 ; [1374]
G1 X16.556 Y32.767 E21.56107 ; [1375]
G1 X16.88 Y33.17 E21.57827 ; [1376]
G1 X17.208 Y33.538 E21.59466 ; [1377]
G1 X17.554 Y33.89 E21.61108 ; [1378]
G1 X17.917 Y34.223 E21.62747 ; [1379]
G1 X18.294 Y34.535 E21.64374 ; [1380]
G1 X18.69 Y34.83 E21.66017 ; [1381]
G1 X19.098 Y35.103 E21.67649 ; [1382]
G1 X19.522 Y35.356 E21.69292 ; [1383]
G1 X19.958 Y35.59 E21.70937 ; [1384]
G1 X20.356 Y35.779 E21.72403 ; [1385]
G1 X20.85 Y35.984 E21.74182 ; [1386]
G1 X21.322 Y36.149 E21.75845 ; [1387]
G1 X21.796 Y36.289 E21.77489 ; [1388]
G1 X22.273 Y36.407 E21.79123 ; [1389]
G1 X22.758 Y36.5 E21.80765 ; [1390]
G1 X23.219 Y36.565 E21.82314 ; [1391]
G1 X23.737 Y36.611 E21.84043 ; [1392]
G1 X24.228 Y36.63 E21.85678 ; [1393]
G1 X24.719 Y36.624 E21.87311 ; [1394]
G0 F6000 X24.246 Y35.825 ; [1395]
; [1396] TYPE:SKIN
G1 F979.6 X24.681 Y35.819 E21.89083 ; [1397]
G1 F981.6 X25.124 Y35.792 E21.90888 ; [1398]
G1 F979.6 X25.584 Y35.74 E21.92774 ; [1399]
G1 X26.029 Y35.667 E21.94612 ; [1400]
G1 F981.6 X26.458 Y35.573 E21.96397 ; [1401]
G1 X26.911 Y35.453 E21.98303 ; [1402]
G1 F977.6 X27.348 Y35.312 E22.00177 ; [1403]
G1 F981.6 X27.769 Y35.148 E22.02015 ; [1404]
G1 F983.6 X28.173 Y34.971 E22.03804 ; [1405]
G1 X28.58 Y34.767 E22.05652 ; [1406]
G1 F981.6 X28.994 Y34.532 E22.07587 ; [1407]
G1 F979.6 X29.376 Y34.29 E22.0943 ; [1408]
G1 X29.725 Y34.042 E22.11174 ; [1409]
G1 F981.6 X30.09 Y33.756 E22.1306 ; [1410]
G1 X30.417 Y33.47 E22.14826 ; [1411]
G1 F983.6 X30.799 Y33.1 E22.16984 ; [1412]
G1 X31.064 Y32.816 E22.1856 ; [1413]
G1 F981.6 X31.348 Y32.48 E22.20349 ; [1414]
G1 F983.6 X31.609 Y32.139 E22.22091 ; [1415]
G1 X31.88 Y31.749 E22.24018 ; [1416]
G1 X32.124 Y31.355 E22.25899 ; [1417]
G1 F981.6 X32.335 Y30.969 E22.27688 ; [1418]
G1 F985.6 X32.539 Y30.551 E22.29571 ; [1419]
G1 F987.7 X32.719 Y30.129 E22.31425 ; [1420]
G1 F981.6 X32.865 Y29.732 E22.33145 ; [1421]
G1 X32.994 Y29.311 E22.34935 ; [1422]
G1 F983.6 X33.113 Y28.851 E22.36863 ; [1423]
G1 F981.6 X33.208 Y28.395 E22.38757 ; [1424]
G1 X33.274 Y27.95 E22.40587 ; [1425]
G1 F983.6 X33.318 Y27.523 E22.42328 ; [1426]
G1 X33.343 Y27.073 E22.44157 ; [1427]
G1 F981.6 X33.342 Y26.587 E22.46133 ; [1428]
G1 F979.6 X33.32 Y26.16 E22.47875 ; [1429]
G1 X33.272 Y25.688 E22.49808 ; [1430]
G1 X33.208 Y25.264 E22.51555 ; [1431]
G1 F981.6 X33.117 Y24.823 E22.53386 ; [1432]
G1 F983.6 X33.007 Y24.393 E22.55187 ; [1433]
G1 X32.876 Y23.96 E22.57023 ; [1434]
G1 F979.6 X32.724 Y23.548 E22.58812 ; [1435]
G1 F983.6 X32.498 Y23.022 E22.61135 ; [1436]
G1 F985.6 X32.351 Y22.723 E22.62484 ; [1437]
G1 F979.6 X32.126 Y22.31 E22.64401 ; [1438]
G1 X31.875 Y21.905 E22.66342 ; [1439]
G1 F981.6 X31.644 Y21.57 E22.67997 ; [1440]
G1 F983.6 X31.348 Y21.179 E22.69987 ; [1441]
G1 X31.05 Y20.831 E22.71846 ; [1442]
G1 X30.772 Y20.534 E22.73496 ; [1443]
G1 X30.445 Y20.217 E22.75344 ; [1444]
G1 F981.6 X30.095 Y19.909 E22.7724 ; [1445]
G1 F979.6 X29.756 Y19.643 E22.78996 ; [1446]
G1 F981.6 X29.368 Y19.367 E22.80932 ; [1447]
G1 F983.6 X29.005 Y19.136 E22.82678 ; [1448]
G1 X28.609 Y18.911 E22.84526 ; [1449]
G1 F981.6 X28.161 Y18.683 E22.8657 ; [1450]
G1 X27.784 Y18.518 E22.88243 ; [1451]
G1 X27.341 Y18.348 E22.90172 ; [1452]
G1 X26.908 Y18.208 E22.92023 ; [1453]
G1 X26.502 Y18.098 E22.93733 ; [1454]
G1 X26.05 Y17.999 E22.95614 ; [1455]
G1 X25.583 Y17.921 E22.9754 ; [1456]
G1 F983.6 X25.148 Y17.872 E22.99316 ; [1457]
G1 F987.7 X24.765 Y17.845 E23.00867 ; [1458]
G1 F985.6 X24.253 Y17.836 E23.02941 ; [1459]
G1 F983.6 X23.663 Y17.864 E23.05338 ; [1460]
G1 F981.6 X23.322 Y17.897 E23.06731 ; [1461]
G1 F979.6 X22.9 Y17.956 E23.08467 ; [1462]
G1 F981.6 X22.441 Y18.043 E23.10366 ; [1463]
G1 X22.021 Y18.145 E23.12124 ; [1464]
G1 X21.578 Y18.275 E23.14001 ; [1465]
G1 X21.153 Y18.423 E23.15831 ; [1466]
G1 X20.657 Y18.63 E23.18016 ; [1467]
G1 X20.325 Y18.787 E23.1951 ; [1468]
G1 F979.6 X19.948 Y18.99 E23.21254 ; [1469]
G1 X19.559 Y19.221 E23.23097 ; [1470]
G1 X19.164 Y19.485 E23.25033 ; [1471]
G1 X18.784 Y19.767 E23.26961 ; [1472]
G1 F981.6 X18.485 Y20.011 E23.2853 ; [1473]
G1 X18.117 Y20.348 E23.30559 ; [1474]
G1 F979.6 X17.788 Y20.679 E23.32461 ; [1475]
G1 X17.497 Y21.007 E23.34247 ; [1476]
G1 F981.6 X17.092 Y21.521 E23.36908 ; [1477]
G1 F983.6 X16.942 Y21.736 E23.37972 ; [1478]
G1 F981.6 X16.691 Y22.121 E23.39841 ; [1479]
G1 X16.473 Y22.494 E23.41597 ; [1480]
G1 F983.6 X16.269 Y22.886 E23.4339 ; [1481]
G1 X16.061 Y23.343 E23.45428 ; [1482]
G1 F981.6 X15.905 Y23.742 E23.4717 ; [1483]
G1 F979.6 X15.703 Y24.365 E23.49838 ; [1484]
G1 F975.6 X15.695 Y24.369 E23.49875 ; [1485]
G1 F977.6 X15.544 Y25.011 E23.52567 ; [1486]
G1 F981.6 X15.463 Y25.464 E23.54438 ; [1487]
G1 F983.6 X15.404 Y25.935 E23.56365 ; [1488]
G1 X15.368 Y26.385 E23.58196 ; [1489]
G1 F981.6 X15.357 Y26.904 E23.60307 ; [1490]
G1 F979.6 X15.368 Y27.273 E23.61811 ; [1491]
G1 X15.403 Y27.724 E23.63654 ; [1492]
G1 X15.459 Y28.173 E23.65498 ; [1493]
G1 X15.543 Y28.641 E23.67435 ; [1494]
G1 F981.6 X15.644 Y29.082 E23.69275 ; [1495]
G1 X15.757 Y29.482 E23.70965 ; [1496]
G1 F983.6 X15.905 Y29.922 E23.72849 ; [1497]
G1 X16.069 Y30.336 E23.74655 ; [1498]
G1 X16.259 Y30.754 E23.76519 ; [1499]
G1 F981.6 X16.468 Y31.156 E23.78361 ; [1500]
G1 F979.6 X16.696 Y31.548 E23.80208 ; [1501]
G1 X16.934 Y31.914 E23.81987 ; [1502]
G1 F981.6 X17.193 Y32.273 E23.83787 ; [1503]
G1 F983.6 X17.473 Y32.624 E23.85609 ; [1504]
G1 X17.801 Y32.991 E23.87606 ; [1505]
G1 X18.162 Y33.357 E23.89692 ; [1506]
G1 F981.6 X18.442 Y33.611 E23.9123 ; [1507]
G1 F979.6 X18.796 Y33.905 E23.93104 ; [1508]
G1 X19.148 Y34.166 E23.9489 ; [1509]
G1 X19.544 Y34.431 E23.96831 ; [1510]
G1 F981.6 X19.911 Y34.65 E23.98569 ; [1511]
G1 F983.6 X20.326 Y34.874 E24.00483 ; [1512]
G1 X20.711 Y35.057 E24.02212 ; [1513]
G1 X21.131 Y35.23 E24.04055 ; [1514]
G1 F981.6 X21.704 Y35.426 E24.06518 ; [1515]
G1 F983.6 X22 Y35.509 E24.07765 ; [1516]
G1 F981.6 X22.438 Y35.617 E24.09599 ; [1517]
G1 F979.6 X22.899 Y35.706 E24.11512 ; [1518]
G1 F981.6 X23.317 Y35.764 E24.13228 ; [1519]
G1 X23.802 Y35.808 E24.15208 ; [1520]
G1 F979.6 X24.246 Y35.825 E24.17019 ; [1521]
G0 F6000 X24.225 Y35.335 ; [1522]
G1 F981.6 X23.72 Y35.312 E24.19074 ; [1523]
G1 F985.6 X23.233 Y35.263 E24.21056 ; [1524]
G1 X22.768 Y35.186 E24.22965 ; [1525]
G1 X22.314 Y35.09 E24.24844 ; [1526]
G1 F983.6 X21.824 Y34.952 E24.2691 ; [1527]
G1 F981.6 X21.303 Y34.771 E24.29152 ; [1528]
G1 X20.856 Y34.588 E24.31116 ; [1529]
G1 F983.6 X20.467 Y34.398 E24.32873 ; [1530]
G1 X20.023 Y34.152 E24.34933 ; [1531]
G1 X19.625 Y33.901 E24.36842 ; [1532]
G1 F985.6 X19.226 Y33.619 E24.3882 ; [1533]
G1 F983.6 X18.849 Y33.317 E24.40781 ; [1534]
G1 X18.479 Y32.984 E24.428 ; [1535]
G1 X18.141 Y32.64 E24.44757 ; [1536]
G1 X17.81 Y32.27 E24.46772 ; [1537]
G1 F985.6 X17.501 Y31.87 E24.48819 ; [1538]
G1 X17.243 Y31.497 E24.50655 ; [1539]
G1 F983.6 X16.98 Y31.069 E24.52693 ; [1540]
G1 F985.6 X16.742 Y30.633 E24.54705 ; [1541]
G1 X16.515 Y30.137 E24.56914 ; [1542]
G1 X16.336 Y29.682 E24.58894 ; [1543]
G1 F987.7 X16.188 Y29.222 E24.60847 ; [1544]
G1 F985.6 X16.074 Y28.787 E24.62668 ; [1545]
G1 F987.7 X15.976 Y28.316 E24.64612 ; [1546]
G1 X15.905 Y27.824 E24.6662 ; [1547]
G1 F985.6 X15.861 Y27.335 E24.68609 ; [1548]
G1 F981.6 X15.846 Y26.888 E24.70427 ; [1549]
G1 F983.6 X15.861 Y26.32 E24.72733 ; [1550]
G1 F985.6 X15.899 Y25.889 E24.74485 ; [1551]
G1 F987.7 X15.972 Y25.37 E24.76603 ; [1552]
G1 F985.6 X16.076 Y24.861 E24.78707 ; [1553]
G1 F983.6 X16.193 Y24.426 E24.80534 ; [1554]
G1 X16.371 Y23.892 E24.82818 ; [1555]
G1 F981.6 X16.521 Y23.51 E24.84487 ; [1556]
G1 F983.6 X16.732 Y23.045 E24.86559 ; [1557]
G1 F985.6 X16.959 Y22.627 E24.88485 ; [1558]
G1 X17.212 Y22.209 E24.90464 ; [1559]
G1 X17.5 Y21.787 E24.92533 ; [1560]
G1 F983.6 X17.794 Y21.416 E24.94454 ; [1561]
G1 F981.6 X18.15 Y21.006 E24.96661 ; [1562]
G1 X18.469 Y20.688 E24.98493 ; [1563]
G1 F983.6 X18.797 Y20.386 E25.00302 ; [1564]
G1 F985.6 X19.187 Y20.074 E25.02324 ; [1565]
G1 X19.597 Y19.779 E25.0437 ; [1566]
G1 X20.014 Y19.515 E25.06368 ; [1567]
G1 X20.462 Y19.266 E25.08444 ; [1568]
G1 F981.6 X20.877 Y19.068 E25.10314 ; [1569]
G1 F979.6 X21.329 Y18.88 E25.12308 ; [1570]
G1 F983.6 X21.8 Y18.716 E25.14332 ; [1571]
G1 F985.6 X22.277 Y18.582 E25.16338 ; [1572]
G1 F987.7 X22.777 Y18.472 E25.18407 ; [1573]
G1 X23.217 Y18.403 E25.20207 ; [1574]
G1 F985.6 X23.714 Y18.349 E25.22231 ; [1575]
G1 F983.6 X24.273 Y18.325 E25.24502 ; [1576]
G1 F985.6 X24.737 Y18.333 E25.26381 ; [1577]
G1 F987.7 X25.226 Y18.37 E25.28363 ; [1578]
G1 X25.69 Y18.431 E25.30254 ; [1579]
G1 X26.17 Y18.522 E25.32228 ; [1580]
G1 F985.6 X26.655 Y18.642 E25.34251 ; [1581]
G1 F983.6 X27.173 Y18.808 E25.36458 ; [1582]
G1 F981.6 X27.588 Y18.966 E25.38264 ; [1583]
G1 F985.6 X28.037 Y19.164 E25.40251 ; [1584]
G1 F987.7 X28.444 Y19.376 E25.42106 ; [1585]
G1 X28.872 Y19.625 E25.44107 ; [1586]
G1 X29.294 Y19.905 E25.46153 ; [1587]
G1 X29.675 Y20.196 E25.48091 ; [1588]
G1 X30.036 Y20.503 E25.50006 ; [1589]
G1 X30.386 Y20.837 E25.51961 ; [1590]
G1 F985.6 X30.731 Y21.207 E25.54009 ; [1591]
G1 X31.066 Y21.607 E25.56122 ; [1592]
G1 F989.7 X31.335 Y21.975 E25.5796 ; [1593]
G1 F987.7 X31.606 Y22.391 E25.59967 ; [1594]
G1 X31.85 Y22.815 E25.61944 ; [1595]
G1 X32.064 Y23.244 E25.63881 ; [1596]
G1 F983.6 X32.251 Y23.682 E25.65813 ; [1597]
G1 X32.432 Y24.172 E25.67933 ; [1598]
G1 F985.6 X32.57 Y24.639 E25.69905 ; [1599]
G1 F989.7 X32.688 Y25.132 E25.71949 ; [1600]
G1 X32.764 Y25.575 E25.73762 ; [1601]
G1 F985.6 X32.822 Y26.063 E25.75752 ; [1602]
G1 F983.6 X32.851 Y26.536 E25.77675 ; [1603]
G1 F985.6 X32.853 Y27.098 E25.79951 ; [1604]
G1 F987.7 X32.824 Y27.586 E25.81926 ; [1605]
G1 X32.77 Y28.063 E25.83866 ; [1606]
G1 X32.684 Y28.532 E25.85793 ; [1607]
G1 F989.7 X32.571 Y29.019 E25.87809 ; [1608]
G1 X32.434 Y29.481 E25.89752 ; [1609]
G1 F985.6 X32.268 Y29.942 E25.91737 ; [1610]
G1 X32.085 Y30.372 E25.93629 ; [1611]
G1 F987.7 X31.851 Y30.845 E25.95762 ; [1612]
G1 X31.607 Y31.27 E25.97742 ; [1613]
G1 X31.356 Y31.655 E25.99599 ; [1614]
G1 X31.08 Y32.038 E26.01507 ; [1615]
G1 F985.6 X30.76 Y32.422 E26.03531 ; [1616]
G1 X30.393 Y32.819 E26.0572 ; [1617]
G1 X30.042 Y33.151 E26.07677 ; [1618]
G1 F983.6 X29.676 Y33.467 E26.09639 ; [1619]
G1 F985.6 X29.279 Y33.764 E26.11647 ; [1620]
G1 F983.6 X28.889 Y34.027 E26.13555 ; [1621]
G1 F985.6 X28.468 Y34.274 E26.15532 ; [1622]
G1 F987.7 X28.026 Y34.501 E26.1754 ; [1623]
G1 F983.6 X27.544 Y34.712 E26.19675 ; [1624]
G1 F981.6 X27.162 Y34.858 E26.21338 ; [1625]
G1 X26.657 Y35.019 E26.23493 ; [1626]
G1 F985.6 X26.174 Y35.14 E26.25509 ; [1627]
G1 F987.7 X25.673 Y35.234 E26.27569 ; [1628]
G1 X25.223 Y35.292 E26.29403 ; [1629]
G1 F985.6 X24.767 Y35.326 E26.31254 ; [1630]
M104 S200 ; [1631]
G1 F981.6 X24.225 Y35.335 E26.33458 ; [1632]
G1 F1500 E19.83458 ; [1633]
; [1634] MESH:NONMESH
;  ::: End layer 0 postamble :::
;  ====== End layer 0 ====
;  ==== Start layer 1 ====
;  ::: Layer 1 postamble :::
G0 F300 X24.225 Y35.335 Z0.4 ; [1635]
G0 F6000 X24.236 Y35.03 ; [1636]
G0 X25.147 Y34.691 ; [1637]
G0 X25.029 Y33.633 ; [1638]
G0 X24.807 Y29.966 ; [1639]
G0 X24.865 Y28.667 ; [1640]
; [1641] TIME_ELAPSED:49.022326
; [1642] LAYER:1
M106 S85 ; [1643]
; [1644] TYPE:WALL-INNER
; [1645] MESH:Router test 2.3mf
G1 F1500 E26.33458 ; [1646]
G1 F1350 X25.3 Y28.472 E26.35044 ; [1647]
G1 X25.683 Y28.197 E26.36612 ; [1648]
G1 X25.97 Y27.817 E26.38196 ; [1649]
G1 X26.175 Y27.393 E26.39762 ; [1650]
G1 X26.26 Y26.831 E26.41653 ; [1651]
G1 X26.188 Y26.363 E26.43228 ; [1652]
G1 X26.059 Y26.006 E26.4449 ; [1653]
G1 X25.863 Y25.684 E26.45744 ; [1654]
G1 X25.609 Y25.41 E26.46987 ; [1655]
G1 X25.221 Y25.132 E26.48574 ; [1656]
G1 X24.775 Y24.982 E26.50139 ; [1657]
G1 X24.399 Y24.935 E26.514 ; [1658]
G1 X24.024 Y24.963 E26.5265 ; [1659]
G1 X23.565 Y25.092 E26.54236 ; [1660]
G1 X23.085 Y25.401 E26.56135 ; [1661]
G1 X22.722 Y25.833 E26.58012 ; [1662]
G1 X22.54 Y26.269 E26.59583 ; [1663]
G1 X22.463 Y26.645 E26.6086 ; [1664]
G1 X22.463 Y27.021 E26.6211 ; [1665]
G1 X22.557 Y27.482 E26.63675 ; [1666]
G1 X22.827 Y27.979 E26.65556 ; [1667]
G1 X23.239 Y28.381 E26.67471 ; [1668]
G1 X23.657 Y28.595 E26.69033 ; [1669]
G1 X24.024 Y28.699 E26.70301 ; [1670]
G1 X24.398 Y28.727 E26.71549 ; [1671]
G1 X24.865 Y28.667 E26.73115 ; [1672]
G0 F7500 X24.975 Y29.057 ; [1673]
; [1674] TYPE:WALL-OUTER
G1 F1350 X25.501 Y28.82 E26.75034 ; [1675]
G1 X25.965 Y28.487 E26.76933 ; [1676]
G1 X26.313 Y28.027 E26.78852 ; [1677]
G1 X26.561 Y27.512 E26.80753 ; [1678]
G1 X26.664 Y26.831 E26.83044 ; [1679]
G1 X26.578 Y26.263 E26.84954 ; [1680]
G1 X26.421 Y25.832 E26.8648 ; [1681]
G1 X26.183 Y25.442 E26.88 ; [1682]
G1 X25.875 Y25.108 E26.89511 ; [1683]
G1 X25.405 Y24.772 E26.91432 ; [1684]
G1 X24.865 Y24.59 E26.93328 ; [1685]
G1 X24.409 Y24.533 E26.94856 ; [1686]
G1 X23.954 Y24.567 E26.96374 ; [1687]
G1 X23.399 Y24.723 E26.98291 ; [1688]
G1 X22.817 Y25.097 E27.00592 ; [1689]
G1 X22.376 Y25.623 E27.02875 ; [1690]
G1 X22.156 Y26.151 E27.04778 ; [1691]
G1 X22.063 Y26.605 E27.06319 ; [1692]
G1 X22.063 Y27.061 E27.07836 ; [1693]
G1 X22.177 Y27.62 E27.09733 ; [1694]
G1 X22.505 Y28.223 E27.12016 ; [1695]
G1 X23.004 Y28.71 E27.14335 ; [1696]
G1 X23.51 Y28.969 E27.16226 ; [1697]
G1 X23.954 Y29.095 E27.17761 ; [1698]
G1 X24.408 Y29.129 E27.19275 ; [1699]
G1 X24.975 Y29.057 E27.21176 ; [1700]
G0 F7500 X24.766 Y28.316 ; [1701]
; [1702] TYPE:SKIN
G1 F1350 X25.12 Y28.157 E27.22467 ; [1703]
G1 X25.425 Y27.938 E27.23716 ; [1704]
G1 X25.662 Y27.626 E27.25019 ; [1705]
G1 X25.826 Y27.286 E27.26274 ; [1706]
G1 X25.894 Y26.832 E27.27801 ; [1707]
G1 X25.837 Y26.452 E27.29079 ; [1708]
G1 X25.732 Y26.162 E27.30105 ; [1709]
G1 X25.573 Y25.903 E27.31116 ; [1710]
G1 X25.371 Y25.683 E27.32109 ; [1711]
G1 X25.054 Y25.456 E27.33406 ; [1712]
G1 X24.697 Y25.336 E27.34659 ; [1713]
G1 X24.39 Y25.297 E27.35688 ; [1714]
G1 X24.09 Y25.32 E27.36689 ; [1715]
G1 X23.712 Y25.427 E27.37995 ; [1716]
G1 X23.322 Y25.676 E27.39534 ; [1717]
G1 X23.034 Y26.021 E27.41029 ; [1718]
G1 X22.888 Y26.374 E27.423 ; [1719]
G1 X22.823 Y26.684 E27.43353 ; [1720]
G1 X22.823 Y26.986 E27.44358 ; [1721]
G1 X22.899 Y27.355 E27.45611 ; [1722]
G1 X23.116 Y27.755 E27.47124 ; [1723]
G1 X23.454 Y28.085 E27.48695 ; [1724]
G1 X23.787 Y28.257 E27.49942 ; [1725]
G1 X24.089 Y28.343 E27.50986 ; [1726]
G1 X24.389 Y28.365 E27.51987 ; [1727]
G1 X24.766 Y28.316 E27.53251 ; [1728]
G0 F7500 X24.454 Y28.154 ; [1729]
G1 F1350 X25.676 Y26.932 E27.58999 ; [1730]
G0 F7500 X25.614 Y26.428 ; [1731]
G1 F1350 X23.948 Y28.094 E27.66836 ; [1732]
G0 F7500 X23.563 Y27.913 ; [1733]
G1 F1350 X25.428 Y26.049 E27.75606 ; [1734]
G0 F7500 X25.145 Y25.766 ; [1735]
G1 F1350 X23.277 Y27.633 E27.8439 ; [1736]
G0 F7500 X23.084 Y27.261 ; [1737]
G1 F1350 X24.774 Y25.571 E27.92339 ; [1738]
G0 F7500 X24.274 Y25.505 ; [1739]
G1 F1350 X23.023 Y26.756 E27.98223 ; [1740]
G1 F1500 E21.48223 ; [1741]
; [1742] MESH:Router test 2.3mf(1)
G0 F7500 X22.585 Y26.549 ; [1743]
G0 X22.697 Y27.338 ; [1744]
G0 X23.218 Y28.574 ; [1745]
G0 X22.724 Y29.539 ; [1746]
G0 X23.867 Y33.649 ; [1747]
G0 X24.217 Y34.93 ; [1748]
; [1749] TYPE:WALL-INNER
G1 F1500 E27.98223 ; [1750]
G1 F1350 X23.751 Y34.909 E27.99775 ; [1751]
G1 X23.285 Y34.861 E28.01333 ; [1752]
G1 X22.841 Y34.789 E28.02829 ; [1753]
G1 X22.406 Y34.696 E28.04309 ; [1754]
G1 X21.919 Y34.557 E28.05993 ; [1755]
G1 X21.489 Y34.408 E28.07507 ; [1756]
G1 X21.072 Y34.239 E28.09003 ; [1757]
G1 X20.626 Y34.024 E28.1065 ; [1758]
G1 X20.218 Y33.797 E28.12203 ; [1759]
G1 X19.852 Y33.566 E28.13642 ; [1760]
G1 X19.461 Y33.29 E28.15234 ; [1761]
G1 X19.1 Y32.999 E28.16776 ; [1762]
G1 X18.756 Y32.69 E28.18314 ; [1763]
G1 X18.412 Y32.338 E28.19951 ; [1764]
G1 X18.123 Y32.013 E28.21398 ; [1765]
G1 X17.813 Y31.614 E28.23078 ; [1766]
G1 X17.55 Y31.231 E28.24624 ; [1767]
G1 X17.318 Y30.851 E28.26104 ; [1768]
G1 X17.1 Y30.445 E28.27637 ; [1769]
G1 X16.894 Y29.995 E28.29283 ; [1770]
G1 X16.718 Y29.545 E28.3089 ; [1771]
G1 X16.578 Y29.114 E28.32398 ; [1772]
G1 X16.465 Y28.682 E28.33883 ; [1773]
G1 X16.368 Y28.208 E28.35492 ; [1774]
G1 X16.302 Y27.745 E28.37047 ; [1775]
G1 X16.264 Y27.307 E28.3851 ; [1776]
G1 X16.251 Y26.849 E28.40034 ; [1777]
G1 X16.264 Y26.346 E28.41707 ; [1778]
G1 X16.302 Y25.914 E28.4315 ; [1779]
G1 X16.371 Y25.435 E28.44759 ; [1780]
G1 X16.47 Y24.959 E28.46376 ; [1781]
G1 X16.59 Y24.513 E28.47912 ; [1782]
G1 X16.722 Y24.108 E28.49329 ; [1783]
G1 X16.907 Y23.634 E28.51022 ; [1784]
G1 X17.105 Y23.207 E28.52587 ; [1785]
G1 X17.326 Y22.798 E28.54133 ; [1786]
G1 X17.568 Y22.402 E28.55677 ; [1787]
G1 X17.836 Y22.015 E28.57243 ; [1788]
G1 X18.123 Y21.652 E28.58782 ; [1789]
G1 X18.411 Y21.321 E28.60241 ; [1790]
G1 X18.759 Y20.971 E28.61883 ; [1791]
G1 X19.109 Y20.653 E28.63455 ; [1792]
G1 X19.473 Y20.364 E28.65001 ; [1793]
G1 X19.838 Y20.104 E28.66492 ; [1794]
G1 X20.231 Y19.856 E28.68037 ; [1795]
G1 X20.633 Y19.633 E28.69566 ; [1796]
G1 X21.052 Y19.432 E28.71112 ; [1797]
G1 X21.525 Y19.238 E28.72812 ; [1798]
G1 X21.955 Y19.091 E28.74324 ; [1799]
G1 X22.403 Y18.967 E28.7587 ; [1800]
G1 X22.874 Y18.864 E28.77473 ; [1801]
G1 X23.32 Y18.796 E28.78974 ; [1802]
G1 X23.786 Y18.75 E28.80531 ; [1803]
G1 X24.217 Y18.731 E28.81966 ; [1804]
G1 X24.713 Y18.737 E28.83616 ; [1805]
G1 X25.174 Y18.771 E28.85154 ; [1806]
G1 X25.634 Y18.831 E28.86697 ; [1807]
G1 X26.094 Y18.919 E28.88254 ; [1808]
G1 X26.533 Y19.028 E28.89759 ; [1809]
G1 X26.979 Y19.167 E28.91313 ; [1810]
G1 X27.412 Y19.33 E28.92851 ; [1811]
G1 X27.863 Y19.53 E28.94492 ; [1812]
G1 X28.274 Y19.742 E28.9603 ; [1813]
G1 X28.673 Y19.977 E28.97571 ; [1814]
G1 X29.055 Y20.232 E28.99098 ; [1815]
G1 X29.44 Y20.528 E29.00713 ; [1816]
G1 X29.777 Y20.812 E29.02179 ; [1817]
G1 X30.133 Y21.157 E29.03828 ; [1818]
G1 X30.448 Y21.497 E29.0537 ; [1819]
G1 X30.742 Y21.847 E29.0689 ; [1820]
G1 X31.015 Y22.223 E29.08435 ; [1821]
G1 X31.266 Y22.609 E29.09967 ; [1822]
G1 X31.491 Y23.002 E29.11473 ; [1823]
G1 X31.702 Y23.425 E29.13045 ; [1824]
G1 X31.895 Y23.876 E29.14677 ; [1825]
G1 X32.054 Y24.32 E29.16245 ; [1826]
G1 X32.186 Y24.768 E29.17799 ; [1827]
G1 X32.292 Y25.218 E29.19336 ; [1828]
G1 X32.368 Y25.665 E29.20845 ; [1829]
G1 X32.421 Y26.12 E29.22368 ; [1830]
G1 X32.448 Y26.584 E29.23914 ; [1831]
G1 X32.448 Y27.084 E29.25577 ; [1832]
G1 X32.422 Y27.539 E29.27093 ; [1833]
G1 X32.369 Y27.999 E29.28633 ; [1834]
G1 X32.29 Y28.445 E29.30139 ; [1835]
G1 X32.184 Y28.904 E29.31706 ; [1836]
G1 X32.052 Y29.346 E29.3324 ; [1837]
G1 X31.896 Y29.783 E29.34784 ; [1838]
G1 X31.703 Y30.236 E29.36421 ; [1839]
G1 X31.491 Y30.659 E29.37995 ; [1840]
G1 X31.267 Y31.053 E29.39503 ; [1841]
G1 X31.014 Y31.442 E29.41046 ; [1842]
G1 X30.741 Y31.811 E29.42573 ; [1843]
G1 X30.446 Y32.168 E29.44113 ; [1844]
G1 X30.112 Y32.53 E29.45751 ; [1845]
G1 X29.771 Y32.851 E29.47309 ; [1846]
G1 X29.424 Y33.149 E29.4883 ; [1847]
G1 X29.054 Y33.427 E29.50369 ; [1848]
G1 X28.671 Y33.685 E29.51905 ; [1849]
G1 X28.273 Y33.921 E29.53444 ; [1850]
G1 X27.859 Y34.133 E29.54991 ; [1851]
G1 X27.439 Y34.32 E29.5652 ; [1852]
G1 X26.977 Y34.495 E29.58164 ; [1853]
G1 X26.533 Y34.633 E29.5971 ; [1854]
G1 X26.077 Y34.748 E29.61274 ; [1855]
G1 X25.631 Y34.83 E29.62782 ; [1856]
G1 X25.148 Y34.893 E29.64403 ; [1857]
G1 X24.712 Y34.924 E29.65856 ; [1858]
G1 X24.217 Y34.93 E29.67503 ; [1859]
G0 F7500 X24.688 Y34.524 ; [1860]
; [1861] TYPE:WALL-OUTER
G1 F1350 X24.235 Y34.53 E29.6901 ; [1862]
G1 X23.791 Y34.511 E29.70488 ; [1863]
G1 X23.349 Y34.466 E29.71965 ; [1864]
G1 X22.925 Y34.397 E29.73394 ; [1865]
G1 X22.477 Y34.301 E29.74918 ; [1866]
G1 X22.049 Y34.179 E29.76398 ; [1867]
G1 X21.639 Y34.037 E29.77841 ; [1868]
G1 X21.224 Y33.869 E29.79331 ; [1869]
G1 X20.82 Y33.674 E29.80823 ; [1870]
G1 X20.432 Y33.459 E29.82298 ; [1871]
G1 X20.057 Y33.222 E29.83773 ; [1872]
G1 X19.694 Y32.964 E29.85255 ; [1873]
G1 X19.35 Y32.685 E29.86728 ; [1874]
G1 X19.02 Y32.388 E29.88205 ; [1875]
G1 X18.71 Y32.072 E29.89677 ; [1876]
G1 X18.414 Y31.737 E29.91164 ; [1877]
G1 X18.143 Y31.386 E29.92639 ; [1878]
G1 X17.892 Y31.022 E29.94109 ; [1879]
G1 X17.66 Y30.643 E29.95587 ; [1880]
G1 X17.452 Y30.253 E29.97057 ; [1881]
G1 X17.266 Y29.848 E29.9854 ; [1882]
G1 X17.098 Y29.421 E30.00066 ; [1883]
G1 X16.965 Y29.012 E30.01496 ; [1884]
G1 X16.854 Y28.586 E30.0296 ; [1885]
G1 X16.764 Y28.15 E30.04441 ; [1886]
G1 X16.701 Y27.71 E30.05919 ; [1887]
G1 X16.663 Y27.279 E30.07359 ; [1888]
G1 X16.651 Y26.838 E30.08826 ; [1889]
G1 X16.663 Y26.381 E30.10346 ; [1890]
G1 X16.702 Y25.938 E30.11826 ; [1891]
G1 X16.765 Y25.505 E30.13281 ; [1892]
G1 X16.856 Y25.063 E30.14782 ; [1893]
G1 X16.97 Y24.637 E30.16249 ; [1894]
G1 X17.104 Y24.229 E30.17677 ; [1895]
G1 X17.271 Y23.801 E30.19205 ; [1896]
G1 X17.457 Y23.397 E30.20684 ; [1897]
G1 X17.668 Y23.006 E30.22162 ; [1898]
G1 X17.898 Y22.629 E30.23631 ; [1899]
G1 X18.15 Y22.263 E30.25109 ; [1900]
G1 X18.425 Y21.915 E30.26584 ; [1901]
G1 X18.71 Y21.587 E30.28029 ; [1902]
G1 X19.029 Y21.266 E30.29534 ; [1903]
G1 X19.359 Y20.966 E30.31018 ; [1904]
G1 X19.705 Y20.69 E30.3249 ; [1905]
G1 X20.066 Y20.433 E30.33964 ; [1906]
G1 X20.443 Y20.196 E30.35445 ; [1907]
G1 X20.829 Y19.982 E30.36913 ; [1908]
G1 X21.222 Y19.794 E30.38362 ; [1909]
G1 X21.655 Y19.616 E30.39919 ; [1910]
G1 X22.051 Y19.48 E30.41311 ; [1911]
G1 X22.49 Y19.358 E30.42827 ; [1912]
G1 X22.935 Y19.26 E30.44342 ; [1913]
G1 X23.361 Y19.194 E30.45776 ; [1914]
G1 X23.792 Y19.15 E30.47217 ; [1915]
G1 X24.247 Y19.131 E30.48732 ; [1916]
G1 X24.69 Y19.138 E30.50205 ; [1917]
G1 X25.131 Y19.17 E30.51676 ; [1918]
G1 X25.573 Y19.228 E30.53159 ; [1919]
G1 X25.997 Y19.308 E30.54594 ; [1920]
G1 X26.438 Y19.419 E30.56106 ; [1921]
G1 X26.892 Y19.562 E30.5769 ; [1922]
G1 X27.278 Y19.708 E30.59062 ; [1923]
G1 X27.683 Y19.889 E30.60538 ; [1924]
G1 X28.08 Y20.094 E30.62024 ; [1925]
G1 X28.461 Y20.318 E30.63494 ; [1926]
G1 X28.824 Y20.56 E30.64945 ; [1927]
G1 X29.181 Y20.834 E30.66441 ; [1928]
G1 X29.533 Y21.134 E30.6798 ; [1929]
G1 X29.839 Y21.429 E30.69393 ; [1930]
G1 X30.14 Y21.753 E30.70864 ; [1931]
G1 X30.423 Y22.091 E30.72331 ; [1932]
G1 X30.687 Y22.455 E30.73826 ; [1933]
G1 X30.929 Y22.827 E30.75302 ; [1934]
G1 X31.145 Y23.204 E30.76747 ; [1935]
G1 X31.342 Y23.601 E30.78221 ; [1936]
G1 X31.518 Y24.016 E30.79721 ; [1937]
G1 X31.67 Y24.434 E30.812 ; [1938]
G1 X31.796 Y24.86 E30.82678 ; [1939]
G1 X31.901 Y25.307 E30.84205 ; [1940]
G1 X31.972 Y25.731 E30.85635 ; [1941]
G1 X32.023 Y26.161 E30.87075 ; [1942]
G1 X32.048 Y26.603 E30.88547 ; [1943]
G1 X32.048 Y27.06 E30.90067 ; [1944]
G1 X32.022 Y27.501 E30.91537 ; [1945]
G1 X31.971 Y27.943 E30.93016 ; [1946]
G1 X31.898 Y28.363 E30.94434 ; [1947]
G1 X31.796 Y28.804 E30.9594 ; [1948]
G1 X31.665 Y29.238 E30.97448 ; [1949]
G1 X31.516 Y29.653 E30.98914 ; [1950]
G1 X31.341 Y30.062 E31.00394 ; [1951]
G1 X31.143 Y30.46 E31.01872 ; [1952]
G1 X30.925 Y30.842 E31.03335 ; [1953]
G1 X30.68 Y31.219 E31.04831 ; [1954]
G1 X30.417 Y31.574 E31.063 ; [1955]
G1 X30.142 Y31.906 E31.07734 ; [1956]
G1 X29.833 Y32.241 E31.0925 ; [1957]
G1 X29.511 Y32.547 E31.10727 ; [1958]
G1 X29.173 Y32.835 E31.12204 ; [1959]
G1 X28.818 Y33.103 E31.13684 ; [1960]
G1 X28.457 Y33.346 E31.15131 ; [1961]
G1 X28.068 Y33.576 E31.16634 ; [1962]
G1 X27.679 Y33.775 E31.18087 ; [1963]
G1 X27.267 Y33.957 E31.19585 ; [1964]
G1 X26.853 Y34.114 E31.21058 ; [1965]
G1 X26.427 Y34.246 E31.22541 ; [1966]
G1 X25.984 Y34.357 E31.2406 ; [1967]
G1 X25.559 Y34.436 E31.25498 ; [1968]
G1 X25.12 Y34.493 E31.2697 ; [1969]
G1 X24.688 Y34.524 E31.28411 ; [1970]
G1 F1500 E24.78411 ; [1971]
G0 F7500 X24.709 Y34.823 ; [1972]
G0 X24.684 Y35.105 ; [1973]
G0 X24.708 Y36.023 ; [1974]
G0 X24.704 Y36.224 ; [1975]
; [1976] TYPE:WALL-INNER
G1 F1500 E31.28411 ; [1977]
G1 F1350 X25.192 Y36.192 E31.30038 ; [1978]
G1 X25.66 Y36.138 E31.31604 ; [1979]
G1 X26.112 Y36.064 E31.33128 ; [1980]
G1 X26.575 Y35.962 E31.34705 ; [1981]
G1 X27.047 Y35.835 E31.3633 ; [1982]
G1 X27.477 Y35.696 E31.37833 ; [1983]
G1 X27.934 Y35.52 E31.39462 ; [1984]
G1 X28.352 Y35.336 E31.40981 ; [1985]
G1 X28.775 Y35.123 E31.42556 ; [1986]
G1 X29.2 Y34.881 E31.44183 ; [1987]
G1 X29.599 Y34.628 E31.45755 ; [1988]
G1 X29.972 Y34.364 E31.47274 ; [1989]
G1 X30.354 Y34.063 E31.48892 ; [1990]
G1 X30.685 Y33.774 E31.50353 ; [1991]
G1 X31.049 Y33.423 E31.52035 ; [1992]
G1 X31.373 Y33.077 E31.53612 ; [1993]
G1 X31.667 Y32.731 E31.55122 ; [1994]
G1 X31.962 Y32.341 E31.56748 ; [1995]
G1 X32.223 Y31.966 E31.58268 ; [1996]
G1 X32.472 Y31.563 E31.59844 ; [1997]
G1 X32.691 Y31.164 E31.61358 ; [1998]
G1 X32.911 Y30.709 E31.63038 ; [1999]
G1 X33.113 Y30.231 E31.64764 ; [2000]
G1 X33.258 Y29.834 E31.6617 ; [2001]
G1 X33.391 Y29.397 E31.6769 ; [2002]
G1 X33.512 Y28.922 E31.6932 ; [2003]
G1 X33.606 Y28.475 E31.70839 ; [2004]
G1 X33.675 Y28.007 E31.72412 ; [2005]
G1 X33.724 Y27.521 E31.74037 ; [2006]
G1 X33.748 Y27.066 E31.75553 ; [2007]
G1 X33.747 Y26.581 E31.77166 ; [2008]
G1 X33.724 Y26.123 E31.78691 ; [2009]
G1 X33.674 Y25.639 E31.80309 ; [2010]
G1 X33.603 Y25.169 E31.8189 ; [2011]
G1 X33.507 Y24.711 E31.83447 ; [2012]
G1 X33.396 Y24.278 E31.84933 ; [2013]
G1 X33.247 Y23.797 E31.86608 ; [2014]
G1 X33.078 Y23.339 E31.88232 ; [2015]
G1 X32.895 Y22.915 E31.89768 ; [2016]
G1 X32.691 Y22.497 E31.91315 ; [2017]
G1 X32.463 Y22.083 E31.92887 ; [2018]
G1 X32.215 Y21.686 E31.94444 ; [2019]
G1 X31.964 Y21.32 E31.9592 ; [2020]
G1 X31.657 Y20.919 E31.976 ; [2021]
G1 X31.351 Y20.562 E31.99163 ; [2022]
G1 X31.038 Y20.227 E32.00688 ; [2023]
G1 X30.686 Y19.888 E32.02314 ; [2024]
G1 X30.329 Y19.578 E32.03886 ; [2025]
G1 X29.958 Y19.287 E32.05455 ; [2026]
G1 X29.575 Y19.019 E32.07009 ; [2027]
G1 X29.172 Y18.763 E32.08597 ; [2028]
G1 X28.762 Y18.533 E32.10161 ; [2029]
G1 X28.353 Y18.325 E32.11687 ; [2030]
G1 X27.907 Y18.131 E32.13305 ; [2031]
G1 X27.479 Y17.967 E32.14829 ; [2032]
G1 X27.001 Y17.812 E32.165 ; [2033]
G1 X26.575 Y17.699 E32.17966 ; [2034]
G1 X26.112 Y17.598 E32.19542 ; [2035]
G1 X25.631 Y17.52 E32.21163 ; [2036]
G1 X25.16 Y17.467 E32.2274 ; [2037]
G1 X24.691 Y17.438 E32.24302 ; [2038]
G1 X24.271 Y17.431 E32.257 ; [2039]
G1 X23.749 Y17.45 E32.27437 ; [2040]
G1 X23.277 Y17.494 E32.29014 ; [2041]
G1 X22.81 Y17.559 E32.30582 ; [2042]
G1 X22.344 Y17.649 E32.3216 ; [2043]
G1 X21.899 Y17.758 E32.33684 ; [2044]
G1 X21.43 Y17.896 E32.3531 ; [2045]
G1 X20.988 Y18.053 E32.3687 ; [2046]
G1 X20.552 Y18.234 E32.3844 ; [2047]
G1 X20.123 Y18.436 E32.40018 ; [2048]
G1 X19.708 Y18.659 E32.41585 ; [2049]
G1 X19.317 Y18.893 E32.431 ; [2050]
G1 X18.911 Y19.168 E32.44731 ; [2051]
G1 X18.547 Y19.439 E32.4624 ; [2052]
G1 X18.166 Y19.753 E32.47883 ; [2053]
G1 X17.88 Y20.013 E32.49168 ; [2054]
G1 X17.488 Y20.407 E32.51017 ; [2055]
G1 X17.195 Y20.736 E32.52482 ; [2056]
G1 X16.89 Y21.115 E32.541 ; [2057]
G1 X16.599 Y21.517 E32.55751 ; [2058]
G1 X16.346 Y21.907 E32.57297 ; [2059]
G1 X16.108 Y22.317 E32.58874 ; [2060]
G1 X15.897 Y22.722 E32.60392 ; [2061]
G1 X15.69 Y23.18 E32.62064 ; [2062]
G1 X15.521 Y23.608 E32.63595 ; [2063]
G1 X15.37 Y24.055 E32.65164 ; [2064]
G1 X15.245 Y24.506 E32.6672 ; [2065]
G1 X15.141 Y24.954 E32.6825 ; [2066]
G1 X15.057 Y25.432 E32.69864 ; [2067]
G1 X15 Y25.904 E32.71446 ; [2068]
G1 X14.964 Y26.358 E32.7296 ; [2069]
G1 X14.951 Y26.831 E32.74534 ; [2070]
G1 X14.965 Y27.316 E32.76148 ; [2071]
G1 X15.002 Y27.786 E32.77716 ; [2072]
G1 X15.061 Y28.257 E32.79295 ; [2073]
G1 X15.141 Y28.706 E32.80812 ; [2074]
G1 X15.252 Y29.181 E32.82434 ; [2075]
G1 X15.378 Y29.623 E32.83963 ; [2076]
G1 X15.533 Y30.086 E32.85587 ; [2077]
G1 X15.708 Y30.52 E32.87143 ; [2078]
G1 X15.897 Y30.94 E32.88675 ; [2079]
G1 X16.114 Y31.358 E32.90241 ; [2080]
G1 X16.361 Y31.779 E32.91865 ; [2081]
G1 X16.618 Y32.17 E32.93421 ; [2082]
G1 X16.899 Y32.556 E32.95009 ; [2083]
G1 X17.195 Y32.922 E32.96575 ; [2084]
G1 X17.51 Y33.276 E32.98151 ; [2085]
G1 X17.832 Y33.602 E32.99675 ; [2086]
G1 X18.193 Y33.932 E33.01302 ; [2087]
G1 X18.542 Y34.221 E33.02809 ; [2088]
G1 X18.934 Y34.512 E33.04433 ; [2089]
G1 X19.326 Y34.773 E33.05999 ; [2090]
G1 X19.733 Y35.015 E33.07574 ; [2091]
G1 X20.152 Y35.239 E33.09154 ; [2092]
G1 X20.584 Y35.442 E33.10742 ; [2093]
G1 X21.039 Y35.628 E33.12376 ; [2094]
G1 X21.444 Y35.768 E33.13802 ; [2095]
G1 X21.901 Y35.903 E33.15387 ; [2096]
G1 X22.375 Y36.019 E33.1701 ; [2097]
G1 X22.839 Y36.107 E33.1858 ; [2098]
G1 X23.306 Y36.17 E33.20148 ; [2099]
G1 X23.762 Y36.211 E33.21671 ; [2100]
G1 X24.233 Y36.23 E33.23238 ; [2101]
G1 X24.704 Y36.224 E33.24805 ; [2102]
G0 F7500 X24.719 Y36.624 ; [2103]
; [2104] TYPE:WALL-OUTER
G1 F1350 X25.185 Y36.595 E33.26358 ; [2105]
G1 X25.675 Y36.54 E33.27998 ; [2106]
G1 X26.187 Y36.457 E33.29723 ; [2107]
G1 X26.677 Y36.349 E33.31392 ; [2108]
G1 X27.171 Y36.216 E33.33094 ; [2109]
G1 X27.611 Y36.073 E33.34632 ; [2110]
G1 X28.072 Y35.896 E33.36275 ; [2111]
G1 X28.545 Y35.687 E33.37995 ; [2112]
G1 X28.963 Y35.476 E33.39552 ; [2113]
G1 X29.393 Y35.233 E33.41195 ; [2114]
G1 X29.83 Y34.955 E33.42917 ; [2115]
G1 X30.211 Y34.685 E33.44471 ; [2116]
G1 X30.617 Y34.365 E33.4619 ; [2117]
G1 X30.949 Y34.075 E33.47656 ; [2118]
G1 X31.323 Y33.715 E33.49383 ; [2119]
G1 X31.677 Y33.337 E33.51105 ; [2120]
G1 X31.979 Y32.982 E33.52655 ; [2121]
G1 X32.278 Y32.589 E33.54298 ; [2122]
G1 X32.558 Y32.185 E33.55933 ; [2123]
G1 X32.818 Y31.765 E33.57576 ; [2124]
G1 X33.054 Y31.334 E33.5921 ; [2125]
G1 X33.279 Y30.867 E33.60934 ; [2126]
G1 X33.462 Y30.438 E33.62485 ; [2127]
G1 X33.638 Y29.962 E33.64173 ; [2128]
G1 X33.777 Y29.505 E33.65762 ; [2129]
G1 X33.894 Y29.05 E33.67325 ; [2130]
G1 X34 Y28.545 E33.69041 ; [2131]
G1 X34.073 Y28.057 E33.70682 ; [2132]
G1 X34.123 Y27.568 E33.72317 ; [2133]
G1 X34.148 Y27.076 E33.73955 ; [2134]
G1 X34.147 Y26.56 E33.75672 ; [2135]
G1 X34.123 Y26.093 E33.77227 ; [2136]
G1 X34.07 Y25.58 E33.78942 ; [2137]
G1 X33.995 Y25.088 E33.80598 ; [2138]
G1 X33.895 Y24.612 E33.82215 ; [2139]
G1 X33.774 Y24.147 E33.83813 ; [2140]
G1 X33.633 Y23.686 E33.85417 ; [2141]
G1 X33.463 Y23.223 E33.87057 ; [2142]
G1 X33.255 Y22.74 E33.88806 ; [2143]
G1 X33.054 Y22.327 E33.90334 ; [2144]
G1 X32.818 Y21.896 E33.91968 ; [2145]
G1 X32.545 Y21.46 E33.93679 ; [2146]
G1 X32.278 Y21.072 E33.95246 ; [2147]
G1 X31.979 Y20.68 E33.96886 ; [2148]
G1 X31.66 Y20.306 E33.98521 ; [2149]
G1 X31.323 Y19.946 E34.00161 ; [2150]
G1 X30.949 Y19.586 E34.01887 ; [2151]
G1 X30.577 Y19.264 E34.03524 ; [2152]
G1 X30.189 Y18.96 E34.05163 ; [2153]
G1 X29.79 Y18.681 E34.06783 ; [2154]
G1 X29.393 Y18.428 E34.08348 ; [2155]
G1 X28.963 Y18.186 E34.09989 ; [2156]
G1 X28.524 Y17.963 E34.11627 ; [2157]
G1 X28.051 Y17.757 E34.13343 ; [2158]
G1 X27.613 Y17.589 E34.14903 ; [2159]
G1 X27.131 Y17.433 E34.16588 ; [2160]
G1 X26.669 Y17.31 E34.18178 ; [2161]
G1 X26.187 Y17.205 E34.19819 ; [2162]
G1 X25.702 Y17.125 E34.21454 ; [2163]
G1 X25.212 Y17.069 E34.23094 ; [2164]
G1 X24.721 Y17.038 E34.24731 ; [2165]
G1 X24.228 Y17.031 E34.26371 ; [2166]
G1 X23.714 Y17.052 E34.28082 ; [2167]
G1 X23.246 Y17.094 E34.29645 ; [2168]
G1 X22.736 Y17.166 E34.31358 ; [2169]
G1 X22.249 Y17.26 E34.33007 ; [2170]
G1 X21.787 Y17.374 E34.3459 ; [2171]
G1 X21.351 Y17.501 E34.361 ; [2172]
G1 X20.861 Y17.673 E34.37828 ; [2173]
G1 X20.382 Y17.872 E34.39553 ; [2174]
G1 X19.957 Y18.071 E34.41114 ; [2175]
G1 X19.502 Y18.315 E34.42831 ; [2176]
G1 X19.103 Y18.555 E34.4438 ; [2177]
G1 X18.692 Y18.831 E34.46026 ; [2178]
G1 X18.282 Y19.138 E34.4773 ; [2179]
G1 X17.896 Y19.458 E34.49397 ; [2180]
G1 X17.552 Y19.773 E34.50949 ; [2181]
G1 X17.207 Y20.121 E34.52579 ; [2182]
G1 X16.879 Y20.49 E34.54221 ; [2183]
G1 X16.557 Y20.892 E34.55934 ; [2184]
G1 X16.263 Y21.299 E34.57604 ; [2185]
G1 X16 Y21.705 E34.59213 ; [2186]
G1 X15.754 Y22.132 E34.60852 ; [2187]
G1 X15.537 Y22.547 E34.62409 ; [2188]
G1 X15.315 Y23.044 E34.6422 ; [2189]
G1 X15.151 Y23.454 E34.65688 ; [2190]
G1 X14.993 Y23.921 E34.67328 ; [2191]
G1 X14.86 Y24.393 E34.68959 ; [2192]
G1 X14.749 Y24.874 E34.70601 ; [2193]
G1 X14.663 Y25.357 E34.72233 ; [2194]
G1 X14.602 Y25.848 E34.73878 ; [2195]
G1 X14.564 Y26.338 E34.75513 ; [2196]
G1 X14.551 Y26.831 E34.77153 ; [2197]
G1 X14.564 Y27.321 E34.78784 ; [2198]
G1 X14.604 Y27.836 E34.80502 ; [2199]
G1 X14.667 Y28.326 E34.82145 ; [2200]
G1 X14.749 Y28.786 E34.83699 ; [2201]
G1 X14.866 Y29.289 E34.85417 ; [2202]
G1 X14.998 Y29.75 E34.87011 ; [2203]
G1 X15.151 Y30.208 E34.88618 ; [2204]
G1 X15.343 Y30.685 E34.90328 ; [2205]
G1 X15.549 Y31.138 E34.91983 ; [2206]
G1 X15.763 Y31.55 E34.93527 ; [2207]
G1 X16.011 Y31.976 E34.95167 ; [2208]
G1 X16.281 Y32.387 E34.96802 ; [2209]
G1 X16.587 Y32.807 E34.9853 ; [2210]
G1 X16.879 Y33.169 E35.00077 ; [2211]
G1 X17.207 Y33.538 E35.01719 ; [2212]
G1 X17.554 Y33.89 E35.03363 ; [2213]
G1 X17.917 Y34.223 E35.05002 ; [2214]
G1 X18.294 Y34.535 E35.06629 ; [2215]
G1 X18.69 Y34.83 E35.08272 ; [2216]
G1 X19.098 Y35.103 E35.09905 ; [2217]
G1 X19.522 Y35.356 E35.11547 ; [2218]
G1 X19.957 Y35.59 E35.1319 ; [2219]
G1 X20.432 Y35.812 E35.14934 ; [2220]
G1 X20.873 Y35.993 E35.16519 ; [2221]
G1 X21.322 Y36.149 E35.181 ; [2222]
G1 X21.796 Y36.289 E35.19744 ; [2223]
G1 X22.273 Y36.407 E35.21378 ; [2224]
G1 X22.758 Y36.5 E35.23021 ; [2225]
G1 X23.245 Y36.567 E35.24656 ; [2226]
G1 X23.737 Y36.611 E35.26299 ; [2227]
G1 X24.228 Y36.63 E35.27933 ; [2228]
G1 X24.719 Y36.624 E35.29566 ; [2229]
G0 F7500 X24.244 Y35.825 ; [2230]
; [2231] TYPE:SKIN
G1 F1102 X24.68 Y35.819 E35.31343 ; [2232]
G1 F1104.3 X25.123 Y35.792 E35.33147 ; [2233]
G1 F1102 X25.584 Y35.74 E35.35038 ; [2234]
G1 X26.028 Y35.667 E35.36871 ; [2235]
G1 F1104.3 X26.458 Y35.573 E35.38661 ; [2236]
G1 X26.897 Y35.457 E35.40507 ; [2237]
G1 X27.348 Y35.312 E35.42433 ; [2238]
G1 F1106.6 X27.798 Y35.135 E35.44395 ; [2239]
G1 F1104.3 X28.186 Y34.967 E35.46114 ; [2240]
G1 X28.578 Y34.768 E35.47902 ; [2241]
G1 X28.994 Y34.532 E35.49847 ; [2242]
G1 F1102 X29.376 Y34.29 E35.51689 ; [2243]
G1 X29.725 Y34.042 E35.53433 ; [2244]
G1 F1104.3 X30.09 Y33.756 E35.55319 ; [2245]
G1 X30.417 Y33.47 E35.57085 ; [2246]
G1 F1106.6 X30.759 Y33.141 E35.59011 ; [2247]
G1 X31.064 Y32.815 E35.60822 ; [2248]
G1 X31.363 Y32.463 E35.62696 ; [2249]
G1 F1108.8 X31.622 Y32.122 E35.6443 ; [2250]
G1 F1106.6 X31.879 Y31.749 E35.66268 ; [2251]
G1 F1104.3 X32.124 Y31.355 E35.68155 ; [2252]
G1 X32.335 Y30.969 E35.69944 ; [2253]
G1 F1106.6 X32.539 Y30.551 E35.71831 ; [2254]
G1 F1108.8 X32.739 Y30.078 E35.73911 ; [2255]
G1 F1106.6 X32.877 Y29.697 E35.75555 ; [2256]
G1 X32.999 Y29.289 E35.77283 ; [2257]
G1 F1108.8 X33.114 Y28.849 E35.79124 ; [2258]
G1 F1104.3 X33.208 Y28.395 E35.8101 ; [2259]
G1 X33.274 Y27.95 E35.82839 ; [2260]
G1 F1106.6 X33.32 Y27.501 E35.8467 ; [2261]
G1 X33.343 Y27.069 E35.86426 ; [2262]
G1 F1104.3 X33.343 Y26.601 E35.88329 ; [2263]
G1 X33.32 Y26.16 E35.90124 ; [2264]
G1 F1102 X33.272 Y25.689 E35.92053 ; [2265]
G1 X33.207 Y25.265 E35.93801 ; [2266]
G1 F1104.3 X33.112 Y24.802 E35.95723 ; [2267]
G1 X33.008 Y24.393 E35.97439 ; [2268]
G1 X32.871 Y23.951 E35.9932 ; [2269]
G1 X32.715 Y23.522 E36.01176 ; [2270]
G1 F1108.8 X32.508 Y23.043 E36.03289 ; [2271]
G1 F1111.1 X32.272 Y22.573 E36.05415 ; [2272]
G1 F1106.6 X32.124 Y22.307 E36.0665 ; [2273]
G1 F1102 X31.887 Y21.925 E36.08481 ; [2274]
G1 F1104.3 X31.63 Y21.55 E36.1033 ; [2275]
G1 F1111.1 X31.445 Y21.303 E36.11577 ; [2276]
G1 X31.057 Y20.839 E36.14021 ; [2277]
G1 F1106.6 X30.723 Y20.484 E36.15999 ; [2278]
G1 F1108.8 X30.429 Y20.202 E36.17649 ; [2279]
G1 F1106.6 X30.068 Y19.888 E36.1959 ; [2280]
G1 F1104.3 X29.736 Y19.628 E36.21305 ; [2281]
G1 F1106.6 X29.353 Y19.358 E36.23206 ; [2282]
G1 X28.973 Y19.116 E36.25034 ; [2283]
G1 X28.588 Y18.899 E36.26828 ; [2284]
G1 F1104.3 X28.173 Y18.689 E36.28719 ; [2285]
G1 X27.729 Y18.496 E36.30687 ; [2286]
G1 X27.35 Y18.351 E36.32337 ; [2287]
G1 F1099.8 X26.89 Y18.2 E36.34314 ; [2288]
G1 F1104.3 X26.476 Y18.093 E36.36052 ; [2289]
G1 F1106.6 X26.031 Y17.996 E36.37901 ; [2290]
G1 F1104.3 X25.583 Y17.922 E36.39747 ; [2291]
G1 X25.146 Y17.872 E36.41535 ; [2292]
G1 F1106.6 X24.686 Y17.843 E36.43406 ; [2293]
G1 X24.232 Y17.836 E36.45248 ; [2294]
G1 F1102 X23.809 Y17.852 E36.46973 ; [2295]
G1 X23.343 Y17.894 E36.48879 ; [2296]
G1 X22.876 Y17.958 E36.508 ; [2297]
G1 X22.443 Y18.042 E36.52597 ; [2298]
G1 F1104.3 X22.017 Y18.146 E36.5438 ; [2299]
G1 F1102 X21.553 Y18.281 E36.56349 ; [2300]
G1 X21.225 Y18.396 E36.57765 ; [2301]
G1 X20.726 Y18.598 E36.59958 ; [2302]
G1 X20.335 Y18.783 E36.6172 ; [2303]
G1 X19.907 Y19.012 E36.63698 ; [2304]
G1 X19.531 Y19.238 E36.65486 ; [2305]
G1 X19.166 Y19.484 E36.67279 ; [2306]
G1 F1104.3 X18.803 Y19.754 E36.69118 ; [2307]
G1 X18.486 Y20.013 E36.70783 ; [2308]
G1 X18.122 Y20.343 E36.72781 ; [2309]
G1 F1102 X17.789 Y20.679 E36.74708 ; [2310]
G1 X17.482 Y21.024 E36.7659 ; [2311]
G1 F1104.3 X17.103 Y21.505 E36.7908 ; [2312]
G1 X16.74 Y22.035 E36.81692 ; [2313]
G1 F1102 X16.465 Y22.507 E36.83917 ; [2314]
G1 F1104.3 X16.259 Y22.905 E36.8574 ; [2315]
G1 F1106.6 X16.094 Y23.266 E36.8735 ; [2316]
G1 X15.894 Y23.77 E36.8955 ; [2317]
G1 F1102 X15.766 Y24.147 E36.91173 ; [2318]
G1 X15.638 Y24.605 E36.9311 ; [2319]
G1 F1104.3 X15.539 Y25.04 E36.94924 ; [2320]
G1 X15.457 Y25.495 E36.96804 ; [2321]
G1 X15.405 Y25.923 E36.98557 ; [2322]
G1 F1106.6 X15.368 Y26.385 E37.00438 ; [2323]
G1 F1104.3 X15.357 Y26.789 E37.02081 ; [2324]
G1 F1102 X15.368 Y27.275 E37.04062 ; [2325]
G1 X15.403 Y27.723 E37.05892 ; [2326]
G1 X15.461 Y28.195 E37.0783 ; [2327]
G1 X15.539 Y28.629 E37.09627 ; [2328]
G1 F1104.3 X15.64 Y29.061 E37.11431 ; [2329]
G1 F1106.6 X15.758 Y29.484 E37.13212 ; [2330]
G1 F1104.3 X15.905 Y29.922 E37.15091 ; [2331]
G1 X16.069 Y30.336 E37.16902 ; [2332]
G1 X16.259 Y30.754 E37.18769 ; [2333]
G1 X16.468 Y31.159 E37.20622 ; [2334]
G1 F1102 X16.699 Y31.555 E37.2249 ; [2335]
G1 X16.94 Y31.922 E37.24278 ; [2336]
G1 X17.215 Y32.303 E37.26193 ; [2337]
G1 F1106.6 X17.448 Y32.595 E37.27709 ; [2338]
G1 X17.781 Y32.97 E37.29744 ; [2339]
G1 X18.162 Y33.357 E37.31947 ; [2340]
G1 F1104.3 X18.442 Y33.611 E37.33485 ; [2341]
G1 F1102 X18.786 Y33.896 E37.35305 ; [2342]
G1 X19.148 Y34.167 E37.37147 ; [2343]
G1 F1099.8 X19.544 Y34.432 E37.39092 ; [2344]
G1 F1104.3 X19.911 Y34.649 E37.40826 ; [2345]
G1 F1106.6 X20.315 Y34.867 E37.42689 ; [2346]
G1 X20.663 Y35.035 E37.44257 ; [2347]
G1 F1104.3 X21.187 Y35.251 E37.46561 ; [2348]
G1 X21.7 Y35.425 E37.48764 ; [2349]
G1 F1106.6 X22 Y35.509 E37.50028 ; [2350]
G1 F1104.3 X22.438 Y35.617 E37.51862 ; [2351]
G1 F1102 X22.897 Y35.706 E37.53767 ; [2352]
G1 X23.331 Y35.765 E37.55552 ; [2353]
G1 F1104.3 X23.794 Y35.806 E37.57442 ; [2354]
G1 X24.244 Y35.825 E37.59273 ; [2355]
G0 F7500 X24.198 Y35.335 ; [2356]
G1 F1104.3 X23.751 Y35.314 E37.61093 ; [2357]
G1 F1106.6 X23.219 Y35.259 E37.63263 ; [2358]
G1 X22.768 Y35.186 E37.65117 ; [2359]
G1 F1108.8 X22.307 Y35.087 E37.67026 ; [2360]
G1 X21.82 Y34.951 E37.69074 ; [2361]
G1 F1104.3 X21.332 Y34.783 E37.71172 ; [2362]
G1 X20.857 Y34.587 E37.73262 ; [2363]
G1 F1106.6 X20.467 Y34.397 E37.75022 ; [2364]
G1 X20.047 Y34.166 E37.76967 ; [2365]
G1 X19.624 Y33.901 E37.78992 ; [2366]
G1 F1108.8 X19.225 Y33.619 E37.80971 ; [2367]
G1 F1106.6 X18.84 Y33.308 E37.82979 ; [2368]
G1 F1104.3 X18.477 Y32.984 E37.84957 ; [2369]
G1 X18.108 Y32.604 E37.87111 ; [2370]
G1 F1106.6 X17.787 Y32.243 E37.89071 ; [2371]
G1 F1108.8 X17.514 Y31.887 E37.90888 ; [2372]
G1 X17.219 Y31.462 E37.92983 ; [2373]
G1 X16.95 Y31.022 E37.95071 ; [2374]
G1 X16.741 Y30.631 E37.96867 ; [2375]
G1 F1106.6 X16.518 Y30.146 E37.99033 ; [2376]
G1 X16.338 Y29.689 E38.01026 ; [2377]
G1 F1108.8 X16.188 Y29.22 E38.0302 ; [2378]
G1 F1111.1 X16.075 Y28.788 E38.04824 ; [2379]
G1 X15.968 Y28.273 E38.0695 ; [2380]
G1 X15.905 Y27.823 E38.08786 ; [2381]
G1 F1108.8 X15.861 Y27.335 E38.1077 ; [2382]
G1 F1104.3 X15.846 Y26.864 E38.12686 ; [2383]
G1 F1106.6 X15.861 Y26.32 E38.14895 ; [2384]
G1 F1108.8 X15.905 Y25.827 E38.16899 ; [2385]
G1 X15.968 Y25.389 E38.18691 ; [2386]
G1 F1106.6 X16.076 Y24.862 E38.20874 ; [2387]
G1 X16.193 Y24.428 E38.22698 ; [2388]
G1 F1104.3 X16.36 Y23.919 E38.24876 ; [2389]
G1 F1106.6 X16.52 Y23.509 E38.26662 ; [2390]
G1 F1108.8 X16.744 Y23.024 E38.28825 ; [2391]
G1 X16.984 Y22.578 E38.30876 ; [2392]
G1 X17.235 Y22.174 E38.32802 ; [2393]
G1 X17.5 Y21.787 E38.34701 ; [2394]
G1 F1106.6 X17.818 Y21.386 E38.36778 ; [2395]
G1 X18.102 Y21.058 E38.38538 ; [2396]
G1 F1104.3 X18.46 Y20.697 E38.40606 ; [2397]
G1 F1106.6 X18.859 Y20.335 E38.42792 ; [2398]
G1 F1108.8 X19.205 Y20.06 E38.44581 ; [2399]
G1 F1106.6 X19.632 Y19.756 E38.46708 ; [2400]
G1 F1108.8 X20.031 Y19.504 E38.48619 ; [2401]
G1 F1106.6 X20.43 Y19.282 E38.50472 ; [2402]
G1 F1104.3 X20.882 Y19.065 E38.52511 ; [2403]
G1 X21.343 Y18.873 E38.54541 ; [2404]
G1 X21.801 Y18.715 E38.56511 ; [2405]
G1 F1106.6 X22.301 Y18.576 E38.58617 ; [2406]
G1 F1111.1 X22.814 Y18.463 E38.6074 ; [2407]
G1 F1108.8 X23.241 Y18.399 E38.62488 ; [2408]
G1 F1106.6 X23.723 Y18.349 E38.64455 ; [2409]
G1 X24.238 Y18.326 E38.66546 ; [2410]
G1 X24.739 Y18.333 E38.68579 ; [2411]
G1 F1108.8 X25.229 Y18.37 E38.70569 ; [2412]
G1 X25.704 Y18.432 E38.72509 ; [2413]
G1 X26.164 Y18.519 E38.74405 ; [2414]
G1 F1106.6 X26.647 Y18.64 E38.76425 ; [2415]
G1 X27.129 Y18.792 E38.78476 ; [2416]
G1 X27.571 Y18.958 E38.80392 ; [2417]
G1 X28.043 Y19.168 E38.82488 ; [2418]
G1 F1108.8 X28.48 Y19.394 E38.8448 ; [2419]
G1 F1113.4 X28.894 Y19.639 E38.8642 ; [2420]
G1 X29.299 Y19.91 E38.88386 ; [2421]
G1 X29.667 Y20.19 E38.9025 ; [2422]
G1 X30.046 Y20.51 E38.92251 ; [2423]
G1 F1111.1 X30.408 Y20.859 E38.94283 ; [2424]
G1 X30.755 Y21.234 E38.96348 ; [2425]
G1 F1113.4 X31.064 Y21.603 E38.98288 ; [2426]
G1 X31.35 Y21.998 E39.00255 ; [2427]
G1 X31.61 Y22.396 E39.02172 ; [2428]
G1 F1111.1 X31.848 Y22.814 E39.04116 ; [2429]
G1 X32.07 Y23.254 E39.06108 ; [2430]
G1 F1108.8 X32.27 Y23.726 E39.08184 ; [2431]
G1 F1106.6 X32.439 Y24.2 E39.10226 ; [2432]
G1 F1108.8 X32.576 Y24.66 E39.12169 ; [2433]
G1 F1111.1 X32.685 Y25.127 E39.14107 ; [2434]
G1 X32.768 Y25.602 E39.16056 ; [2435]
G1 F1108.8 X32.824 Y26.087 E39.18033 ; [2436]
G1 F1106.6 X32.852 Y26.558 E39.19947 ; [2437]
G1 F1108.8 X32.854 Y27.1 E39.22142 ; [2438]
G1 F1111.1 X32.824 Y27.579 E39.24082 ; [2439]
G1 F1113.4 X32.769 Y28.062 E39.26042 ; [2440]
G1 X32.684 Y28.533 E39.27972 ; [2441]
G1 X32.575 Y29.01 E39.29945 ; [2442]
G1 F1115.7 X32.441 Y29.462 E39.31843 ; [2443]
G1 F1111.1 X32.271 Y29.937 E39.33881 ; [2444]
G1 F1108.8 X32.085 Y30.372 E39.35797 ; [2445]
G1 F1111.1 X31.851 Y30.845 E39.3793 ; [2446]
G1 X31.612 Y31.267 E39.3989 ; [2447]
G1 F1113.4 X31.343 Y31.675 E39.4186 ; [2448]
G1 X31.054 Y32.069 E39.43831 ; [2449]
G1 F1111.1 X30.747 Y32.439 E39.45774 ; [2450]
G1 X30.424 Y32.788 E39.47695 ; [2451]
G1 F1108.8 X30.08 Y33.117 E39.49623 ; [2452]
G1 F1106.6 X29.676 Y33.467 E39.51792 ; [2453]
G1 F1108.8 X29.279 Y33.764 E39.538 ; [2454]
G1 F1106.6 X28.889 Y34.027 E39.55708 ; [2455]
G1 F1108.8 X28.468 Y34.274 E39.57685 ; [2456]
G1 X28.027 Y34.501 E39.59693 ; [2457]
G1 F1106.6 X27.596 Y34.69 E39.61603 ; [2458]
G1 F1104.3 X27.108 Y34.879 E39.63731 ; [2459]
G1 F1106.6 X26.636 Y35.024 E39.65735 ; [2460]
G1 F1108.8 X26.168 Y35.142 E39.67689 ; [2461]
G1 X25.704 Y35.228 E39.696 ; [2462]
G1 X25.21 Y35.293 E39.71618 ; [2463]
G1 F1106.6 X24.73 Y35.327 E39.7357 ; [2464]
G1 F1104.3 X24.198 Y35.335 E39.75734 ; [2465]
G1 F1500 E33.25734 ; [2466]
; [2467] MESH:NONMESH
;  ::: End layer 1 postamble :::
;  ====== End layer 1 ====
;  ==== Start layer 2 ====
;  ::: Layer 2 postamble :::
G0 F300 X24.198 Y35.335 Z0.6 ; [2468]
G0 F7500 X24.21 Y35.03 ; [2469]
G0 X25.146 Y34.691 ; [2470]
G0 X25.028 Y33.633 ; [2471]
G0 X24.554 Y29.982 ; [2472]
G0 X24.865 Y28.667 ; [2473]
; [2474] TIME_ELAPSED:70.514802
; [2475] LAYER:2
M106 S170 ; [2476]
; [2477] TYPE:WALL-INNER
; [2478] MESH:Router test 2.3mf
G1 F1500 E39.75734 ; [2479]
G1 X25.3 Y28.472 E39.77319 ; [2480]
G1 X25.683 Y28.197 E39.78887 ; [2481]
G1 X25.97 Y27.817 E39.80471 ; [2482]
G1 X26.175 Y27.393 E39.82038 ; [2483]
G1 X26.26 Y26.831 E39.83928 ; [2484]
G1 X26.188 Y26.363 E39.85503 ; [2485]
G1 X26.059 Y26.006 E39.86765 ; [2486]
G1 X25.863 Y25.684 E39.88019 ; [2487]
G1 X25.609 Y25.41 E39.89262 ; [2488]
G1 X25.221 Y25.132 E39.90849 ; [2489]
G1 X24.775 Y24.982 E39.92414 ; [2490]
G1 X24.399 Y24.935 E39.93675 ; [2491]
G1 X24.024 Y24.963 E39.94926 ; [2492]
G1 X23.565 Y25.092 E39.96511 ; [2493]
G1 X23.085 Y25.401 E39.9841 ; [2494]
G1 X22.722 Y25.833 E40.00287 ; [2495]
G1 X22.54 Y26.269 E40.01858 ; [2496]
G1 X22.463 Y26.645 E40.03135 ; [2497]
G1 X22.463 Y27.021 E40.04385 ; [2498]
G1 X22.557 Y27.482 E40.0595 ; [2499]
G1 X22.827 Y27.979 E40.07831 ; [2500]
G1 X23.239 Y28.381 E40.09746 ; [2501]
G1 X23.657 Y28.595 E40.11308 ; [2502]
G1 X24.024 Y28.699 E40.12576 ; [2503]
G1 X24.398 Y28.727 E40.13824 ; [2504]
G1 X24.865 Y28.667 E40.1539 ; [2505]
G0 F9000 X24.975 Y29.057 ; [2506]
; [2507] TYPE:WALL-OUTER
G1 F1500 X25.501 Y28.82 E40.17309 ; [2508]
G1 X25.965 Y28.487 E40.19208 ; [2509]
G1 X26.313 Y28.027 E40.21127 ; [2510]
G1 X26.561 Y27.512 E40.23028 ; [2511]
G1 X26.664 Y26.831 E40.25319 ; [2512]
G1 X26.578 Y26.263 E40.27229 ; [2513]
G1 X26.421 Y25.832 E40.28755 ; [2514]
G1 X26.183 Y25.442 E40.30275 ; [2515]
G1 X25.875 Y25.108 E40.31786 ; [2516]
G1 X25.405 Y24.772 E40.33707 ; [2517]
G1 X24.865 Y24.59 E40.35603 ; [2518]
G1 X24.409 Y24.533 E40.37131 ; [2519]
G1 X23.954 Y24.567 E40.38649 ; [2520]
G1 X23.399 Y24.723 E40.40566 ; [2521]
G1 X22.817 Y25.097 E40.42867 ; [2522]
G1 X22.376 Y25.623 E40.4515 ; [2523]
G1 X22.156 Y26.151 E40.47053 ; [2524]
G1 X22.063 Y26.605 E40.48594 ; [2525]
G1 X22.063 Y27.061 E40.50111 ; [2526]
G1 X22.177 Y27.62 E40.52008 ; [2527]
G1 X22.505 Y28.223 E40.54291 ; [2528]
G1 X23.004 Y28.71 E40.5661 ; [2529]
G1 X23.51 Y28.969 E40.58501 ; [2530]
G1 X23.954 Y29.095 E40.60036 ; [2531]
G1 X24.408 Y29.129 E40.6155 ; [2532]
G1 X24.975 Y29.057 E40.63451 ; [2533]
G0 F9000 X24.766 Y28.316 ; [2534]
; [2535] TYPE:SKIN
G1 F1500 X25.12 Y28.157 E40.64742 ; [2536]
G1 X25.425 Y27.938 E40.65991 ; [2537]
G1 X25.662 Y27.626 E40.67294 ; [2538]
G1 X25.826 Y27.286 E40.6855 ; [2539]
G1 X25.894 Y26.832 E40.70076 ; [2540]
G1 X25.837 Y26.452 E40.71354 ; [2541]
G1 X25.732 Y26.162 E40.7238 ; [2542]
G1 X25.573 Y25.903 E40.73391 ; [2543]
G1 X25.371 Y25.683 E40.74384 ; [2544]
G1 X25.054 Y25.456 E40.75681 ; [2545]
G1 X24.697 Y25.336 E40.76934 ; [2546]
G1 X24.39 Y25.297 E40.77963 ; [2547]
G1 X24.09 Y25.32 E40.78964 ; [2548]
G1 X23.712 Y25.427 E40.80271 ; [2549]
G1 X23.322 Y25.676 E40.8181 ; [2550]
G1 X23.034 Y26.021 E40.83304 ; [2551]
G1 X22.888 Y26.374 E40.84575 ; [2552]
G1 X22.823 Y26.684 E40.85628 ; [2553]
G1 X22.823 Y26.986 E40.86633 ; [2554]
G1 X22.899 Y27.355 E40.87886 ; [2555]
G1 X23.116 Y27.755 E40.89399 ; [2556]
G1 X23.454 Y28.085 E40.90971 ; [2557]
G1 X23.787 Y28.257 E40.92217 ; [2558]
G1 X24.089 Y28.343 E40.93262 ; [2559]
G1 X24.389 Y28.365 E40.94262 ; [2560]
G1 X24.766 Y28.316 E40.95526 ; [2561]
G0 F9000 X24.873 Y28.555 ; [2562]
G0 X24.053 Y28.54 ; [2563]
G0 X23.393 Y28.279 ; [2564]
G0 X23.001 Y27.921 ; [2565]
G0 X22.576 Y27.078 ; [2566]
G0 X23.026 Y26.986 ; [2567]
G1 F1500 X24.188 Y28.148 E41.00992 ; [2568]
G0 F9000 X24.721 Y28.115 ; [2569]
G1 F1500 X23.072 Y26.466 E41.08749 ; [2570]
G0 F9000 X23.247 Y26.075 ; [2571]
G1 F1500 X25.097 Y27.925 E41.1745 ; [2572]
G0 F9000 X25.39 Y27.653 ; [2573]
G1 F1500 X23.522 Y25.785 E41.26237 ; [2574]
G0 F9000 X23.887 Y25.584 ; [2575]
G1 F1500 X25.599 Y27.296 E41.3429 ; [2576]
G0 F9000 X25.69 Y26.821 ; [2577]
G1 F1500 X24.367 Y25.498 E41.40513 ; [2578]
G1 F1500 E34.90513 ; [2579]
; [2580] MESH:Router test 2.3mf(1)
G0 F9000 X24.332 Y25.04 ; [2581]
G0 X25.147 Y25.277 ; [2582]
G0 X25.62 Y25.658 ; [2583]
G0 X25.974 Y26.242 ; [2584]
G0 X26.097 Y26.831 ; [2585]
G0 X26.02 Y27.344 ; [2586]
G0 X25.723 Y27.877 ; [2587]
G0 X25.518 Y28.077 ; [2588]
G0 X24.403 Y28.909 ; [2589]
G0 X24.324 Y29.99 ; [2590]
G0 X24.464 Y33.662 ; [2591]
G0 X24.217 Y34.93 ; [2592]
; [2593] TYPE:WALL-INNER
G1 F1500 E41.40513 ; [2594]
G1 X23.751 Y34.909 E41.42064 ; [2595]
G1 X23.285 Y34.861 E41.43622 ; [2596]
G1 X22.841 Y34.789 E41.45118 ; [2597]
G1 X22.406 Y34.696 E41.46598 ; [2598]
G1 X21.919 Y34.557 E41.48282 ; [2599]
G1 X21.489 Y34.408 E41.49796 ; [2600]
G1 X21.072 Y34.239 E41.51292 ; [2601]
G1 X20.626 Y34.024 E41.52939 ; [2602]
G1 X20.218 Y33.797 E41.54492 ; [2603]
G1 X19.852 Y33.566 E41.55932 ; [2604]
G1 X19.461 Y33.29 E41.57523 ; [2605]
G1 X19.1 Y32.999 E41.59066 ; [2606]
G1 X18.756 Y32.69 E41.60604 ; [2607]
G1 X18.412 Y32.338 E41.62241 ; [2608]
G1 X18.123 Y32.013 E41.63687 ; [2609]
G1 X17.813 Y31.614 E41.65368 ; [2610]
G1 X17.55 Y31.231 E41.66913 ; [2611]
G1 X17.318 Y30.851 E41.68394 ; [2612]
G1 X17.1 Y30.445 E41.69926 ; [2613]
G1 X16.894 Y29.995 E41.71572 ; [2614]
G1 X16.718 Y29.545 E41.7318 ; [2615]
G1 X16.578 Y29.114 E41.74687 ; [2616]
G1 X16.465 Y28.682 E41.76172 ; [2617]
G1 X16.368 Y28.208 E41.77781 ; [2618]
G1 X16.302 Y27.745 E41.79337 ; [2619]
G1 X16.264 Y27.307 E41.80799 ; [2620]
G1 X16.251 Y26.849 E41.82323 ; [2621]
G1 X16.264 Y26.346 E41.83996 ; [2622]
G1 X16.302 Y25.914 E41.85439 ; [2623]
G1 X16.371 Y25.435 E41.87048 ; [2624]
G1 X16.47 Y24.959 E41.88666 ; [2625]
G1 X16.59 Y24.513 E41.90202 ; [2626]
G1 X16.722 Y24.108 E41.91618 ; [2627]
G1 X16.907 Y23.634 E41.93311 ; [2628]
G1 X17.105 Y23.207 E41.94876 ; [2629]
G1 X17.326 Y22.798 E41.96423 ; [2630]
G1 X17.568 Y22.402 E41.97966 ; [2631]
G1 X17.836 Y22.015 E41.99532 ; [2632]
G1 X18.123 Y21.652 E42.01071 ; [2633]
G1 X18.411 Y21.321 E42.0253 ; [2634]
G1 X18.759 Y20.971 E42.04172 ; [2635]
G1 X19.109 Y20.653 E42.05745 ; [2636]
G1 X19.473 Y20.364 E42.0729 ; [2637]
G1 X19.838 Y20.104 E42.08781 ; [2638]
G1 X20.231 Y19.856 E42.10327 ; [2639]
G1 X20.633 Y19.633 E42.11856 ; [2640]
G1 X21.052 Y19.432 E42.13401 ; [2641]
G1 X21.525 Y19.238 E42.15102 ; [2642]
G1 X21.955 Y19.091 E42.16613 ; [2643]
G1 X22.403 Y18.967 E42.18159 ; [2644]
G1 X22.874 Y18.864 E42.19763 ; [2645]
G1 X23.32 Y18.796 E42.21263 ; [2646]
G1 X23.786 Y18.75 E42.22821 ; [2647]
G1 X24.217 Y18.731 E42.24256 ; [2648]
G1 X24.713 Y18.737 E42.25905 ; [2649]
G1 X25.174 Y18.771 E42.27443 ; [2650]
G1 X25.634 Y18.831 E42.28986 ; [2651]
G1 X26.094 Y18.919 E42.30544 ; [2652]
G1 X26.533 Y19.028 E42.32048 ; [2653]
G1 X26.979 Y19.167 E42.33602 ; [2654]
G1 X27.412 Y19.33 E42.35141 ; [2655]
G1 X27.863 Y19.53 E42.36782 ; [2656]
G1 X28.274 Y19.742 E42.3832 ; [2657]
G1 X28.673 Y19.977 E42.3986 ; [2658]
G1 X29.055 Y20.232 E42.41387 ; [2659]
G1 X29.44 Y20.528 E42.43003 ; [2660]
G1 X29.777 Y20.812 E42.44468 ; [2661]
G1 X30.133 Y21.157 E42.46117 ; [2662]
G1 X30.448 Y21.497 E42.47659 ; [2663]
G1 X30.742 Y21.847 E42.49179 ; [2664]
G1 X31.015 Y22.223 E42.50725 ; [2665]
G1 X31.266 Y22.609 E42.52256 ; [2666]
G1 X31.491 Y23.002 E42.53762 ; [2667]
G1 X31.702 Y23.425 E42.55334 ; [2668]
G1 X31.895 Y23.876 E42.56966 ; [2669]
G1 X32.054 Y24.32 E42.58535 ; [2670]
G1 X32.186 Y24.768 E42.60088 ; [2671]
G1 X32.292 Y25.218 E42.61626 ; [2672]
G1 X32.368 Y25.665 E42.63134 ; [2673]
G1 X32.421 Y26.12 E42.64657 ; [2674]
G1 X32.448 Y26.584 E42.66203 ; [2675]
G1 X32.448 Y27.084 E42.67866 ; [2676]
G1 X32.422 Y27.539 E42.69382 ; [2677]
G1 X32.369 Y27.999 E42.70922 ; [2678]
