; [1] FLAVOR:Marlin
; [2] TIME:233
; [3] Filament used: 0.142581m
; [4] Layer height: 0.2
; [5] MINX:33.36
; [6] MINY:55.841
; [7] MINZ:0.2
; [8] MAXX:75.342
; [9] MAXY:97.821
; [10] MAXZ:2
; [11] Generated with Cura_SteamEngine 5.2.2
M82 ; [12] absolute extrusion mode
; [13] Ender 3 Custom Start G-code
G92 E0 ; [14] Reset Extruder (No Y coord)
G28 ; [15] Home all axes
M104 S175 ; [16] Start heating up the nozzle most of the way
M190 S60 ; [17] Start heating the bed, wait until target temperature reached
M109 S200 ; [18] Finish heating the nozzle
G92 A90 ; Assume the ring has been homed, set its position to 90°
; --- Printer state ---
; Ring(90.000°, ⌀186 → { 47.00,  83.80,   0.00}, ⊙{ 47.00,  -9.20,   0.00})
; Bed(0, 0, ⚓︎{-20.00,   0.00,   0.00})
; Anchor: {-20.00,   0.00,   0.00}
; Carrier: { 47.00,  83.80,   0.00}
; Print head: {  0.00,   0.00,   0.00}
G1 Z2.0 F3000 ; [19] Move Z Axis up little to prevent scratching of Heat Bed (No Y coord)
G1 X0.1 Y20 Z0.3 F5000.0 A-9.29114 ; [20] Move to start position (80.709°)
G1 X0.1 Y200.0 Z0.3 F1500.0 E15 A-75.28059 ; [21] Draw the first line (5.428°)
G1 X0.4 Y200.0 Z0.3 F5000.0 ; [22] Move to side a little - gcline.y (200.0) == prev_loc.y (200.0)
G1 X0.4 Y20 Z0.3 F1500.0 E30 A75.28059 ; [23] Draw the second line (80.709°)
G92 E0 ; [24] Reset Extruder (No Y coord)
G1 Z2.0 F3000 ; [25] Move Z Axis up little to prevent scratching of Heat Bed (No Y coord)
G1 X5 Y20 Z0.3 F5000.0 ; [26] Move over to prevent blob squish - gcline.y (20) == prev_loc.y (20)
G92 E0 ; [27]  (No Y coord)
G92 E0 ; [28]  (No Y coord)
G1 F1500 E-6.5 ; [29]  (No Y coord)
; [30] LAYER_COUNT:10
; [31] LAYER:0
M107 ; [32]
; ==== Start layer 0 ====
; ::: Layer 0 postamble :::
G0 F6000 X42.333 Y59.621 Z0.2 A-16.40026 ; [33]  (64.309°)
; [34] TYPE:SKIRT
G1 F1500 E0 ; [35]  (No Y coord)
G1 F1200 X42.768 Y59.325 E0.0175 A0.11688 ; [36]  (64.425°)
G1 X43.125 Y59.094 E0.03164 A0.09125 ; [37]  (64.517°)
G1 X43.584 Y58.812 E0.04956 A0.11144 ; [38]  (64.628°)
G1 X44.067 Y58.532 E0.06813 A0.1107 ; [39]  (64.739°)
G1 X44.532 Y58.278 E0.08575 A0.10047 ; [40]  (64.839°)
G1 X44.944 Y58.065 E0.10118 A0.08428 ; [41]  (64.924°)
G1 X45.471 Y57.81 E0.12065 A0.10094 ; [42]  (65.025°)
G1 X45.943 Y57.597 E0.13787 A0.08435 ; [43]  (65.109°)
G1 X46.447 Y57.384 E0.15607 A0.08438 ; [44]  (65.193°)
G1 X46.885 Y57.212 E0.17172 A0.06816 ; [45]  (65.261°)
G1 X47.391 Y57.028 E0.18963 A0.07294 ; [46]  (65.334°)
G1 X47.898 Y56.857 E0.20743 A0.06781 ; [47]  (65.402°)
G1 X48.446 Y56.688 E0.2265 A0.06703 ; [48]  (65.469°)
G1 X48.928 Y56.553 E0.24315 A0.05356 ; [49]  (65.523°)
G1 X49.44 Y56.423 E0.26072 A0.05159 ; [50]  (65.574°)
G1 X49.916 Y56.314 E0.27696 A0.04326 ; [51]  (65.618°)
G1 X50.459 Y56.203 E0.29539 A0.04407 ; [52]  (65.662°)
G1 X50.952 Y56.116 E0.31204 A0.03454 ; [53]  (65.696°)
G1 X51.505 Y56.033 E0.33064 A0.03296 ; [54]  (65.729°)
G1 X52.003 Y55.971 E0.34733 A0.02462 ; [55]  (65.754°)
G1 X52.585 Y55.914 E0.36678 A0.02264 ; [56]  (65.776°)
G1 X53.136 Y55.875 E0.38516 A0.01549 ; [57]  (65.792°)
G1 X53.706 Y55.85 E0.40413 A0.00993 ; [58]  (65.802°)
G1 X54.184 Y55.841 E0.42003 A0.00358 ; [59]  (65.805°)
G1 X54.717 Y55.844 E0.43776 A-0.00119 ; [60]  (65.804°)
G1 X55.223 Y55.859 E0.4546 A-0.00596 ; [61]  (65.798°)
G1 X55.742 Y55.887 E0.47189 A-0.01112 ; [62]  (65.787°)
G1 X56.222 Y55.924 E0.4879 A-0.0147 ; [63]  (65.773°)
G1 X56.821 Y55.986 E0.50793 A-0.02463 ; [64]  (65.748°)
G1 X57.357 Y56.057 E0.52591 A-0.0282 ; [65]  (65.720°)
G1 X57.893 Y56.142 E0.54396 A-0.03375 ; [66]  (65.686°)
G1 X58.374 Y56.23 E0.56023 A-0.03494 ; [67]  (65.651°)
G1 X58.884 Y56.335 E0.57754 A-0.04168 ; [68]  (65.609°)
G1 X59.366 Y56.447 E0.594 A-0.04445 ; [69]  (65.565°)
G1 X59.898 Y56.585 E0.61228 A-0.05476 ; [70]  (65.510°)
G1 X60.339 Y56.711 E0.62754 A-0.04999 ; [71]  (65.460°)
G1 X60.875 Y56.879 E0.64622 A-0.06663 ; [72]  (65.393°)
G1 X61.384 Y57.053 E0.66411 A-0.06899 ; [73]  (65.324°)
G1 X61.884 Y57.238 E0.68184 A-0.07333 ; [74]  (65.251°)
G1 X62.335 Y57.417 E0.69798 A-0.07093 ; [75]  (65.180°)
G1 X62.841 Y57.633 E0.71628 A-0.08556 ; [76]  (65.095°)
G1 X63.205 Y57.799 E0.72959 A-0.06574 ; [77]  (65.029°)
G1 X63.668 Y58.023 E0.74669 A-0.08867 ; [78]  (64.940°)
G1 X64.211 Y58.302 E0.767 A-0.1104 ; [79]  (64.830°)
G1 X64.759 Y58.603 E0.78779 A-0.11905 ; [80]  (64.711°)
G1 X65.22 Y58.874 E0.80558 A-0.10713 ; [81]  (64.604°)
G1 X65.676 Y59.157 E0.82343 A-0.11183 ; [82]  (64.492°)
G1 X66.065 Y59.412 E0.8389 A-0.10072 ; [83]  (64.391°)
G1 X66.521 Y59.728 E0.85735 A-0.12476 ; [84]  (64.266°)
G1 X66.899 Y60.004 E0.87292 A-0.10891 ; [85]  (64.157°)
G1 X67.307 Y60.317 E0.89002 A-0.12346 ; [86]  (64.034°)
G1 X67.757 Y60.679 E0.90923 A-0.14271 ; [87]  (63.891°)
G1 X68.233 Y61.085 E0.93004 A-0.15996 ; [88]  (63.731°)
G1 X68.583 Y61.401 E0.94572 A-0.12443 ; [89]  (63.607°)
G1 X68.966 Y61.764 E0.96327 A-0.14287 ; [90]  (63.464°)
G1 X69.292 Y62.088 E0.97856 A-0.12746 ; [91]  (63.337°)
G1 X69.641 Y62.45 E0.99529 A-0.14233 ; [92]  (63.194°)
G1 X70 Y62.841 E1.01294 A-0.15365 ; [93]  (63.041°)
G1 X70.433 Y63.343 E1.03499 A-0.19715 ; [94]  (62.843°)
G1 X70.815 Y63.813 E1.05513 A-0.18446 ; [95]  (62.659°)
G1 X71.129 Y64.218 E1.07218 A-0.15885 ; [96]  (62.500°)
G1 X71.38 Y64.558 E1.08624 A-0.13329 ; [97]  (62.367°)
G1 X71.672 Y64.973 E1.10311 A-0.16261 ; [98]  (62.204°)
G1 X71.931 Y65.36 E1.1186 A-0.15156 ; [99]  (62.053°)
G1 X72.258 Y65.881 E1.13906 A-0.20392 ; [100]  (61.849°)
G1 X72.55 Y66.375 E1.15815 A-0.19323 ; [101]  (61.656°)
G1 X72.803 Y66.826 E1.17535 A-0.1763 ; [102]  (61.479°)
G1 X73.02 Y67.236 E1.19077 A-0.16019 ; [103]  (61.319°)
G1 X73.262 Y67.721 E1.2088 A-0.18939 ; [104]  (61.130°)
G1 X73.465 Y68.155 E1.22474 A-0.16939 ; [105]  (60.960°)
G1 X73.68 Y68.645 E1.24254 A-0.19114 ; [106]  (60.769°)
G1 X73.882 Y69.138 E1.26026 A-0.1922 ; [107]  (60.577°)
G1 X74.082 Y69.666 E1.27903 A-0.20573 ; [108]  (60.371°)
G1 X74.234 Y70.099 E1.2943 A-0.16863 ; [109]  (60.203°)
G1 X74.406 Y70.63 E1.31286 A-0.20669 ; [110]  (59.996°)
G1 X74.547 Y71.108 E1.32944 A-0.18596 ; [111]  (59.810°)
G1 X74.69 Y71.644 E1.34789 A-0.20842 ; [112]  (59.601°)
G1 X74.816 Y72.167 E1.36578 A-0.20326 ; [113]  (59.398°)
G1 X74.931 Y72.7 E1.38392 A-0.20704 ; [114]  (59.191°)
G1 X75.027 Y73.208 E1.40111 A-0.19723 ; [115]  (58.994°)
G1 X75.119 Y73.777 E1.42028 A-0.22081 ; [116]  (58.773°)
G1 X75.182 Y74.243 E1.43592 A-0.18076 ; [117]  (58.592°)
G1 X75.24 Y74.772 E1.45362 A-0.20511 ; [118]  (58.387°)
G1 X75.285 Y75.294 E1.47105 A-0.2023 ; [119]  (58.185°)
G1 X75.319 Y75.837 E1.48915 A-0.21035 ; [120]  (57.975°)
G1 X75.336 Y76.302 E1.50462 A-0.18006 ; [121]  (57.795°)
G1 X75.342 Y76.885 E1.52401 A-0.22567 ; [122]  (57.569°)
G1 X75.333 Y77.431 E1.54218 A-0.21126 ; [123]  (57.358°)
G1 X75.311 Y77.965 E1.55995 A-0.20654 ; [124]  (57.151°)
G1 X75.279 Y78.456 E1.57632 A-0.18984 ; [125]  (56.961°)
G1 X75.228 Y79.014 E1.59495 A-0.21567 ; [126]  (56.746°)
G1 X75.17 Y79.512 E1.61163 A-0.19241 ; [127]  (56.553°)
G1 X75.088 Y80.086 E1.63091 A-0.2217 ; [128]  (56.331°)
G1 X75.002 Y80.591 E1.64795 A-0.19499 ; [129]  (56.136°)
G1 X74.901 Y81.109 E1.66551 A-0.19995 ; [130]  (55.937°)
G1 X74.794 Y81.595 E1.68206 A-0.18755 ; [131]  (55.749°)
G1 X74.665 Y82.117 E1.69994 A-0.20139 ; [132]  (55.548°)
G1 X74.538 Y82.584 E1.71604 A-0.18013 ; [133]  (55.367°)
G1 X74.372 Y83.137 E1.73524 A-0.21325 ; [134]  (55.154°)
G1 X74.211 Y83.626 E1.75236 A-0.18852 ; [135]  (54.966°)
G1 X74.037 Y84.116 E1.76966 A-0.18887 ; [136]  (54.777°)
G1 X73.866 Y84.563 E1.78558 A-0.17226 ; [137]  (54.605°)
G1 X73.645 Y85.099 E1.80486 A-0.20652 ; [138]  (54.398°)
G1 X73.43 Y85.583 E1.82248 A-0.18645 ; [139]  (54.212°)
G1 X73.206 Y86.055 E1.83985 A-0.1818 ; [140]  (54.030°)
G1 X72.998 Y86.469 E1.85526 A-0.15944 ; [141]  (53.870°)
G1 X72.734 Y86.963 E1.87389 A-0.19022 ; [142]  (53.680°)
G1 X72.483 Y87.405 E1.8908 A-0.17018 ; [143]  (53.510°)
G1 X72.176 Y87.914 E1.91057 A-0.19595 ; [144]  (53.314°)
G1 X71.868 Y88.394 E1.92954 A-0.18477 ; [145]  (53.129°)
G1 X71.566 Y88.84 E1.94745 A-0.17166 ; [146]  (52.958°)
G1 X71.29 Y89.227 E1.96326 A-0.14894 ; [147]  (52.809°)
G1 X70.983 Y89.637 E1.9803 A-0.15778 ; [148]  (52.651°)
G1 X70.726 Y89.964 E1.99413 A-0.12583 ; [149]  (52.525°)
G1 X70.392 Y90.368 E2.01157 A-0.15546 ; [150]  (52.370°)
G1 X70.017 Y90.801 E2.03062 A-0.16661 ; [151]  (52.203°)
G1 X69.602 Y91.254 E2.05105 A-0.1743 ; [152]  (52.029°)
G1 X69.259 Y91.608 E2.06744 A-0.1362 ; [153]  (51.892°)
G1 X68.897 Y91.965 E2.08436 A-0.13735 ; [154]  (51.755°)
G1 X68.541 Y92.3 E2.10061 A-0.12888 ; [155]  (51.626°)
G1 X68.1 Y92.694 E2.12028 A-0.15158 ; [156]  (51.475°)
G1 X67.708 Y93.025 E2.13735 A-0.12734 ; [157]  (51.347°)
G1 X67.273 Y93.373 E2.15588 A-0.13388 ; [158]  (51.213°)
G1 X66.867 Y93.682 E2.17285 A-0.11888 ; [159]  (51.094°)
G1 X66.375 Y94.036 E2.193 A-0.13619 ; [160]  (50.958°)
G1 X65.913 Y94.349 E2.21157 A-0.12042 ; [161]  (50.838°)
G1 X65.125 Y94.845 E2.24253 A-0.19083 ; [162]  (50.647°)
G1 X64.678 Y95.106 E2.25975 A-0.10042 ; [163]  (50.547°)
G1 X64.275 Y95.328 E2.27505 A-0.08542 ; [164]  (50.461°)
G1 X63.789 Y95.58 E2.29326 A-0.09696 ; [165]  (50.364°)
G1 X63.34 Y95.799 E2.30988 A-0.08427 ; [166]  (50.280°)
G1 X62.814 Y96.038 E2.32909 A-0.09197 ; [167]  (50.188°)
G1 X62.286 Y96.262 E2.34817 A-0.0862 ; [168]  (50.102°)
G1 X61.788 Y96.459 E2.36598 A-0.07581 ; [169]  (50.026°)
G1 X61.364 Y96.615 E2.38101 A-0.06003 ; [170]  (49.966°)
G1 X60.826 Y96.798 E2.39991 A-0.07043 ; [171]  (49.896°)
G1 X60.333 Y96.951 E2.41708 A-0.05888 ; [172]  (49.837°)
G1 X59.794 Y97.103 E2.4357 A-0.0585 ; [173]  (49.778°)
G1 X59.277 Y97.235 E2.45345 A-0.0508 ; [174]  (49.727°)
G1 X58.752 Y97.356 E2.47137 A-0.04657 ; [175]  (49.681°)
G1 X58.325 Y97.443 E2.48586 A-0.03349 ; [176]  (49.647°)
G1 X57.782 Y97.539 E2.50421 A-0.03695 ; [177]  (49.610°)
G1 X57.236 Y97.622 E2.52257 A-0.03195 ; [178]  (49.578°)
G1 X56.673 Y97.693 E2.54145 A-0.02733 ; [179]  (49.551°)
G1 X56.181 Y97.742 E2.55789 A-0.01886 ; [180]  (49.532°)
G1 X55.638 Y97.782 E2.576 A-0.0154 ; [181]  (49.517°)
G1 X55.136 Y97.807 E2.59272 A-0.00962 ; [182]  (49.507°)
G1 X54.567 Y97.821 E2.61165 A-0.00539 ; [183]  (49.502°)
G1 X54.069 Y97.82 E2.62821 A0.00038 ; [184]  (49.502°)
G1 X53.503 Y97.804 E2.64705 A0.00616 ; [185]  (49.508°)
G1 X52.961 Y97.775 E2.6651 A0.01116 ; [186]  (49.519°)
G1 X52.418 Y97.733 E2.68321 A0.01617 ; [187]  (49.536°)
G1 X51.973 Y97.687 E2.69809 A0.01771 ; [188]  (49.553°)
G1 X51.406 Y97.613 E2.71711 A0.02848 ; [189]  (49.582°)
G1 X50.862 Y97.528 E2.73542 A0.03272 ; [190]  (49.615°)
G1 X50.345 Y97.435 E2.7529 A0.0358 ; [191]  (49.650°)
G1 X49.878 Y97.339 E2.76875 A0.03695 ; [192]  (49.687°)
G1 X49.333 Y97.212 E2.78737 A0.04888 ; [193]  (49.736°)
G1 X48.843 Y97.085 E2.8042 A0.04888 ; [194]  (49.785°)
G1 X48.326 Y96.937 E2.82209 A0.05696 ; [195]  (49.842°)
G1 X47.855 Y96.79 E2.8385 A0.05657 ; [196]  (49.899°)
G1 X47.319 Y96.608 E2.85733 A0.07004 ; [197]  (49.969°)
G1 X46.813 Y96.421 E2.87527 A0.07196 ; [198]  (50.041°)
G1 X46.277 Y96.207 E2.89446 A0.08235 ; [199]  (50.123°)
G1 X45.817 Y96.009 E2.91112 A0.07619 ; [200]  (50.199°)
G1 X45.305 Y95.773 E2.92987 A0.09081 ; [201]  (50.290°)
G1 X44.901 Y95.574 E2.94485 A0.07657 ; [202]  (50.367°)
G1 X44.448 Y95.337 E2.96185 A0.09119 ; [203]  (50.458°)
G1 X43.975 Y95.076 E2.97982 A0.10042 ; [204]  (50.558°)
G1 X43.546 Y94.827 E2.99632 A0.0958 ; [205]  (50.654°)
G1 X43.136 Y94.576 E3.01231 A0.09657 ; [206]  (50.751°)
G1 X42.611 Y94.233 E3.03317 A0.13197 ; [207]  (50.883°)
G1 X42.2 Y93.948 E3.0498 A0.10965 ; [208]  (50.992°)
G1 X41.766 Y93.632 E3.06766 A0.12157 ; [209]  (51.114°)
G1 X41.369 Y93.327 E3.08431 A0.11734 ; [210]  (51.231°)
G1 X40.923 Y92.965 E3.10341 A0.13927 ; [211]  (51.370°)
G1 X40.523 Y92.623 E3.12092 A0.13158 ; [212]  (51.502°)
G1 X40.125 Y92.266 E3.1387 A0.13735 ; [213]  (51.639°)
G1 X39.758 Y91.92 E3.15548 A0.13312 ; [214]  (51.772°)
G1 X39.331 Y91.495 E3.17551 A0.16351 ; [215]  (51.936°)
G1 X38.985 Y91.131 E3.19222 A0.14005 ; [216]  (52.076°)
G1 X38.625 Y90.732 E3.21009 A0.15352 ; [217]  (52.229°)
G1 X38.295 Y90.349 E3.22691 A0.14737 ; [218]  (52.377°)
G1 X37.95 Y89.928 E3.24501 A0.162 ; [219]  (52.539°)
G1 X37.619 Y89.503 E3.26293 A0.16355 ; [220]  (52.702°)
G1 X37.282 Y89.047 E3.28179 A0.17549 ; [221]  (52.878°)
G1 X37.017 Y88.668 E3.29717 A0.14587 ; [222]  (53.024°)
G1 X36.735 Y88.245 E3.31408 A0.16281 ; [223]  (53.187°)
G1 X36.482 Y87.845 E3.32982 A0.15398 ; [224]  (53.341°)
G1 X36.192 Y87.358 E3.34867 A0.18748 ; [225]  (53.528°)
G1 X35.931 Y86.894 E3.36638 A0.17865 ; [226]  (53.707°)
G1 X35.675 Y86.411 E3.38456 A0.18599 ; [227]  (53.893°)
G1 X35.455 Y85.97 E3.40095 A0.16984 ; [228]  (54.062°)
G1 X35.214 Y85.455 E3.41986 A0.19837 ; [229]  (54.261°)
G1 X35.017 Y85.003 E3.43626 A0.17413 ; [230]  (54.435°)
G1 X34.818 Y84.514 E3.45382 A0.18842 ; [231]  (54.623°)
G1 X34.633 Y84.027 E3.47115 A0.18768 ; [232]  (54.811°)
G1 X34.454 Y83.518 E3.48909 A0.1962 ; [233]  (55.007°)
G1 X34.316 Y83.093 E3.50396 A0.16386 ; [234]  (55.171°)
G1 X34.161 Y82.573 E3.522 A0.20052 ; [235]  (55.372°)
G1 X34.022 Y82.06 E3.53968 A0.19787 ; [236]  (55.570°)
G1 X33.888 Y81.51 E3.55851 A0.2122 ; [237]  (55.782°)
G1 X33.793 Y81.071 E3.57345 A0.16942 ; [238]  (55.951°)
G1 X33.693 Y80.549 E3.59113 A0.2015 ; [239]  (56.153°)
G1 X33.602 Y80.002 E3.60957 A0.21122 ; [240]  (56.364°)
G1 X33.522 Y79.424 E3.62898 A0.22326 ; [241]  (56.587°)
G1 X33.465 Y78.916 E3.64598 A0.19629 ; [242]  (56.783°)
G1 X33.417 Y78.371 E3.66418 A0.21066 ; [243]  (56.994°)
G1 X33.386 Y77.872 E3.6808 A0.19294 ; [244]  (57.187°)
G1 X33.365 Y77.294 E3.70004 A0.22357 ; [245]  (57.411°)
G1 X33.36 Y76.763 E3.7177 A0.20547 ; [246]  (57.616°)
G1 X33.37 Y76.198 E3.7365 A0.21872 ; [247]  (57.835°)
G1 X33.39 Y75.721 E3.75238 A0.18473 ; [248]  (58.020°)
G1 X33.424 Y75.202 E3.76968 A0.20107 ; [249]  (58.221°)
G1 X33.464 Y74.755 E3.7846 A0.17324 ; [250]  (58.394°)
G1 X33.526 Y74.211 E3.80281 A0.21093 ; [251]  (58.605°)
G1 X33.608 Y73.625 E3.82249 A0.22732 ; [252]  (58.832°)
G1 X33.694 Y73.103 E3.84009 A0.20259 ; [253]  (59.035°)
G1 X33.779 Y72.654 E3.85529 A0.17434 ; [254]  (59.209°)
G1 X33.914 Y72.037 E3.8763 A0.23969 ; [255]  (59.449°)
G1 X34.045 Y71.512 E3.89429 A0.20406 ; [256]  (59.653°)
G1 X34.193 Y70.977 E3.91276 A0.20806 ; [257]  (59.861°)
G1 X34.344 Y70.48 E3.93003 A0.19338 ; [258]  (60.054°)
G1 X34.52 Y69.949 E3.94864 A0.20672 ; [259]  (60.261°)
G1 X34.68 Y69.505 E3.96434 A0.17294 ; [260]  (60.434°)
G1 X34.871 Y69.012 E3.98192 A0.19213 ; [261]  (60.626°)
G1 X35.068 Y68.538 E3.99899 A0.18482 ; [262]  (60.811°)
G1 X35.297 Y68.026 E4.01765 A0.19975 ; [263]  (61.011°)
G1 X35.523 Y67.552 E4.03511 A0.18503 ; [264]  (61.196°)
G1 X35.771 Y67.064 E4.05332 A0.1906 ; [265]  (61.386°)
G1 X35.99 Y66.658 E4.06866 A0.15866 ; [266]  (61.545°)
G1 X36.257 Y66.19 E4.08658 A0.18299 ; [267]  (61.728°)
G1 X36.503 Y65.783 E4.1024 A0.15922 ; [268]  (61.887°)
G1 X36.784 Y65.342 E4.11979 A0.17262 ; [269]  (62.060°)
G1 X37.078 Y64.904 E4.13734 A0.17154 ; [270]  (62.231°)
G1 X37.446 Y64.388 E4.15842 A0.20222 ; [271]  (62.433°)
G1 X37.785 Y63.941 E4.17708 A0.17529 ; [272]  (62.609°)
G1 X38.1 Y63.546 E4.19388 A0.15499 ; [273]  (62.764°)
G1 X38.39 Y63.198 E4.20895 A0.13661 ; [274]  (62.900°)
G1 X38.742 Y62.795 E4.22674 A0.15829 ; [275]  (63.059°)
G1 X39.061 Y62.448 E4.24242 A0.13637 ; [276]  (63.195°)
G1 X39.462 Y62.034 E4.26159 A0.16279 ; [277]  (63.358°)
G1 X39.849 Y61.655 E4.27961 A0.14911 ; [278]  (63.507°)
G1 X40.261 Y61.272 E4.29832 A0.15077 ; [279]  (63.658°)
G1 X40.623 Y60.952 E4.31439 A0.12603 ; [280]  (63.784°)
G1 X41.013 Y60.624 E4.33134 A0.12925 ; [281]  (63.913°)
G1 X41.407 Y60.307 E4.34816 A0.12498 ; [282]  (64.038°)
G1 X41.891 Y59.938 E4.3684 A0.14555 ; [283]  (64.183°)
G1 X42.333 Y59.621 E4.38649 A0.12511 ; [284]  (64.309°)
G0 F6000 X42.566 Y59.946 A-0.12827 ; [285]  (64.180°)
G1 F1200 X42.986 Y59.661 E4.40337 A0.11248 ; [286]  (64.293°)
G1 X43.343 Y59.43 E4.41751 A0.0912 ; [287]  (64.384°)
G1 X43.785 Y59.159 E4.43476 A0.10704 ; [288]  (64.491°)
G1 X44.268 Y58.879 E4.45333 A0.11064 ; [289]  (64.602°)
G1 X44.716 Y58.633 E4.47033 A0.09725 ; [290]  (64.699°)
G1 X45.128 Y58.42 E4.48575 A0.08423 ; [291]  (64.783°)
G1 X45.636 Y58.174 E4.50453 A0.09732 ; [292]  (64.881°)
G1 X46.108 Y57.961 E4.52175 A0.0843 ; [293]  (64.965°)
G1 X46.593 Y57.756 E4.53926 A0.08116 ; [294]  (65.046°)
G1 X47.031 Y57.584 E4.55491 A0.06812 ; [295]  (65.114°)
G1 X47.518 Y57.407 E4.57215 A0.07012 ; [296]  (65.184°)
G1 X48.025 Y57.236 E4.58994 A0.06776 ; [297]  (65.252°)
G1 X48.554 Y57.073 E4.60835 A0.06461 ; [298]  (65.317°)
G1 X49.036 Y56.938 E4.625 A0.05352 ; [299]  (65.370°)
G1 X49.529 Y56.812 E4.64193 A0.04997 ; [300]  (65.420°)
G1 X50.005 Y56.703 E4.65817 A0.04323 ; [301]  (65.463°)
G1 X50.529 Y56.597 E4.67595 A0.04205 ; [302]  (65.505°)
G1 X51.022 Y56.51 E4.6926 A0.03452 ; [303]  (65.540°)
G1 X51.554 Y56.43 E4.71049 A0.03175 ; [304]  (65.572°)
G1 X52.052 Y56.368 E4.72719 A0.02461 ; [305]  (65.596°)
G1 X52.614 Y56.313 E4.74597 A0.02183 ; [306]  (65.618°)
G1 X53.165 Y56.274 E4.76434 A0.01548 ; [307]  (65.634°)
G1 X53.713 Y56.25 E4.78258 A0.00953 ; [308]  (65.643°)
G1 X54.191 Y56.241 E4.79848 A0.00357 ; [309]  (65.647°)
G1 X54.705 Y56.244 E4.81558 A-0.00119 ; [310]  (65.645°)
G1 X55.211 Y56.259 E4.83242 A-0.00596 ; [311]  (65.639°)
G1 X55.712 Y56.285 E4.8491 A-0.01032 ; [312]  (65.629°)
G1 X56.192 Y56.322 E4.86512 A-0.01469 ; [313]  (65.614°)
G1 X56.769 Y56.383 E4.88441 A-0.02421 ; [314]  (65.590°)
G1 X57.305 Y56.454 E4.9024 A-0.02818 ; [315]  (65.562°)
G1 X57.821 Y56.535 E4.91977 A-0.03214 ; [316]  (65.530°)
G1 X58.302 Y56.623 E4.93603 A-0.03492 ; [317]  (65.495°)
G1 X58.793 Y56.725 E4.95271 A-0.04046 ; [318]  (65.455°)
G1 X59.275 Y56.837 E4.96917 A-0.04442 ; [319]  (65.410°)
G1 X59.788 Y56.97 E4.9868 A-0.05274 ; [320]  (65.357°)
G1 X60.229 Y57.096 E5.00205 A-0.04995 ; [321]  (65.307°)
G1 X60.746 Y57.258 E5.02007 A-0.06421 ; [322]  (65.243°)
G1 X61.255 Y57.432 E5.03796 A-0.06895 ; [323]  (65.174°)
G1 X61.736 Y57.61 E5.05502 A-0.07051 ; [324]  (65.104°)
G1 X62.187 Y57.789 E5.07116 A-0.07089 ; [325]  (65.033°)
G1 X62.675 Y57.997 E5.0888 A-0.08234 ; [326]  (64.951°)
G1 X63.039 Y58.163 E5.10211 A-0.0657 ; [327]  (64.885°)
G1 X63.485 Y58.379 E5.11859 A-0.08546 ; [328]  (64.799°)
G1 X64.028 Y58.658 E5.1389 A-0.11034 ; [329]  (64.689°)
G1 X64.556 Y58.948 E5.15893 A-0.11463 ; [330]  (64.574°)
G1 X65.017 Y59.219 E5.17672 A-0.10707 ; [331]  (64.467°)
G1 X65.456 Y59.492 E5.19391 A-0.10782 ; [332]  (64.360°)
G1 X65.845 Y59.747 E5.20938 A-0.10067 ; [333]  (64.259°)
G1 X66.285 Y60.051 E5.22717 A-0.11996 ; [334]  (64.139°)
G1 X66.663 Y60.327 E5.24274 A-0.10886 ; [335]  (64.030°)
G1 X67.056 Y60.629 E5.25922 A-0.11906 ; [336]  (63.911°)
G1 X67.506 Y60.991 E5.27843 A-0.14264 ; [337]  (63.768°)
G1 X67.965 Y61.382 E5.29849 A-0.15398 ; [338]  (63.614°)
G1 X68.315 Y61.698 E5.31417 A-0.12438 ; [339]  (63.490°)
G1 X68.684 Y62.048 E5.33109 A-0.13769 ; [340]  (63.352°)
G1 X69.01 Y62.372 E5.34637 A-0.1274 ; [341]  (63.225°)
G1 X69.346 Y62.721 E5.36249 A-0.13717 ; [342]  (63.088°)
G1 X69.705 Y63.112 E5.38014 A-0.15359 ; [343]  (62.934°)
G1 X70.123 Y63.595 E5.40139 A-0.18962 ; [344]  (62.745°)
G1 X70.505 Y64.065 E5.42153 A-0.18439 ; [345]  (62.560°)
G1 X70.807 Y64.455 E5.43794 A-0.15292 ; [346]  (62.407°)
G1 X71.058 Y64.795 E5.45199 A-0.13325 ; [347]  (62.274°)
G1 X71.339 Y65.195 E5.46825 A-0.15668 ; [348]  (62.117°)
G1 X71.598 Y65.582 E5.48374 A-0.15152 ; [349]  (61.966°)
G1 X71.914 Y66.084 E5.50347 A-0.19643 ; [350]  (61.769°)
G1 X72.206 Y66.578 E5.52255 A-0.19318 ; [351]  (61.576°)
G1 X72.45 Y67.013 E5.53914 A-0.17001 ; [352]  (61.406°)
G1 X72.667 Y67.423 E5.55457 A-0.16016 ; [353]  (61.246°)
G1 X72.9 Y67.891 E5.57196 A-0.18272 ; [354]  (61.063°)
G1 X73.103 Y68.325 E5.5879 A-0.16935 ; [355]  (60.894°)
G1 X73.31 Y68.797 E5.60504 A-0.18409 ; [356]  (60.710°)
G1 X73.512 Y69.29 E5.62276 A-0.19217 ; [357]  (60.518°)
G1 X73.705 Y69.798 E5.64083 A-0.19791 ; [358]  (60.320°)
G1 X73.857 Y70.231 E5.6561 A-0.16861 ; [359]  (60.151°)
G1 X74.022 Y70.743 E5.67399 A-0.19927 ; [360]  (59.952°)
G1 X74.163 Y71.221 E5.69056 A-0.18594 ; [361]  (59.766°)
G1 X74.301 Y71.737 E5.70833 A-0.20062 ; [362]  (59.565°)
G1 X74.427 Y72.26 E5.72622 A-0.20324 ; [363]  (59.362°)
G1 X74.538 Y72.775 E5.74374 A-0.20003 ; [364]  (59.162°)
G1 X74.634 Y73.283 E5.76094 A-0.19722 ; [365]  (58.965°)
G1 X74.722 Y73.831 E5.7794 A-0.21265 ; [366]  (58.752°)
G1 X74.785 Y74.297 E5.79504 A-0.18075 ; [367]  (58.571°)
G1 X74.842 Y74.807 E5.81211 A-0.19773 ; [368]  (58.374°)
G1 X74.887 Y75.329 E5.82953 A-0.2023 ; [369]  (58.171°)
G1 X74.919 Y75.852 E5.84696 A-0.2026 ; [370]  (57.969°)
G1 X74.936 Y76.317 E5.86244 A-0.18006 ; [371]  (57.789°)
G1 X74.942 Y76.879 E5.88113 A-0.21754 ; [372]  (57.571°)
G1 X74.933 Y77.425 E5.89929 A-0.21126 ; [373]  (57.360°)
G1 X74.912 Y77.939 E5.9164 A-0.1988 ; [374]  (57.161°)
G1 X74.88 Y78.43 E5.93277 A-0.18984 ; [375]  (56.971°)
G1 X74.831 Y78.967 E5.9507 A-0.20756 ; [376]  (56.764°)
G1 X74.773 Y79.465 E5.96738 A-0.19242 ; [377]  (56.571°)
G1 X74.694 Y80.019 E5.98599 A-0.21399 ; [378]  (56.357°)
G1 X74.608 Y80.524 E6.00303 A-0.195 ; [379]  (56.162°)
G1 X74.51 Y81.023 E6.01994 A-0.19263 ; [380]  (55.970°)
G1 X74.403 Y81.509 E6.0365 A-0.18756 ; [381]  (55.782°)
G1 X74.28 Y82.012 E6.05372 A-0.19407 ; [382]  (55.588°)
G1 X74.153 Y82.479 E6.06981 A-0.18014 ; [383]  (55.408°)
G1 X73.992 Y83.012 E6.08833 A-0.20555 ; [384]  (55.202°)
G1 X73.831 Y83.501 E6.10546 A-0.18853 ; [385]  (55.014°)
G1 X73.663 Y83.973 E6.12212 A-0.18194 ; [386]  (54.832°)
G1 X73.492 Y84.42 E6.13804 A-0.17227 ; [387]  (54.660°)
G1 X73.279 Y84.936 E6.15661 A-0.19883 ; [388]  (54.461°)
G1 X73.064 Y85.42 E6.17422 A-0.18646 ; [389]  (54.274°)
G1 X72.849 Y85.876 E6.19099 A-0.17565 ; [390]  (54.099°)
G1 X72.641 Y86.29 E6.2064 A-0.15945 ; [391]  (53.939°)
G1 X72.386 Y86.765 E6.22433 A-0.18292 ; [392]  (53.756°)
G1 X72.135 Y87.207 E6.24123 A-0.17019 ; [393]  (53.586°)
G1 X71.839 Y87.698 E6.2603 A-0.18903 ; [394]  (53.397°)
G1 X71.531 Y88.178 E6.27927 A-0.18477 ; [395]  (53.212°)
G1 X71.24 Y88.608 E6.29654 A-0.16551 ; [396]  (53.047°)
G1 X70.964 Y88.995 E6.31235 A-0.14895 ; [397]  (52.898°)
G1 X70.668 Y89.39 E6.32877 A-0.15202 ; [398]  (52.746°)
G1 X70.411 Y89.717 E6.3426 A-0.12584 ; [399]  (52.620°)
G1 X70.09 Y90.106 E6.35938 A-0.14969 ; [400]  (52.470°)
G1 X69.715 Y90.539 E6.37843 A-0.16661 ; [401]  (52.304°)
G1 X69.315 Y90.976 E6.39813 A-0.16814 ; [402]  (52.136°)
G1 X68.972 Y91.33 E6.41453 A-0.1362 ; [403]  (51.999°)
G1 X68.623 Y91.674 E6.43083 A-0.13235 ; [404]  (51.867°)
G1 X68.267 Y92.009 E6.44708 A-0.12889 ; [405]  (51.738°)
G1 X67.842 Y92.388 E6.46602 A-0.14581 ; [406]  (51.592°)
G1 X67.45 Y92.719 E6.48309 A-0.12734 ; [407]  (51.465°)
G1 X67.031 Y93.055 E6.50095 A-0.12927 ; [408]  (51.336°)
G1 X66.625 Y93.364 E6.51792 A-0.11888 ; [409]  (51.217°)
G1 X66.15 Y93.705 E6.53737 A-0.13119 ; [410]  (51.086°)
G1 X65.688 Y94.018 E6.55593 A-0.12042 ; [411]  (50.965°)
G1 X64.916 Y94.504 E6.58627 A-0.18698 ; [412]  (50.778°)
G1 X64.485 Y94.755 E6.60286 A-0.09657 ; [413]  (50.682°)
G1 X64.082 Y94.977 E6.61816 A-0.08542 ; [414]  (50.596°)
G1 X63.614 Y95.22 E6.6357 A-0.0935 ; [415]  (50.503°)
G1 X63.165 Y95.439 E6.65232 A-0.08426 ; [416]  (50.418°)
G1 X62.658 Y95.67 E6.67085 A-0.08888 ; [417]  (50.330°)
G1 X62.13 Y95.894 E6.68992 A-0.08619 ; [418]  (50.243°)
G1 X61.65 Y96.084 E6.70709 A-0.07311 ; [419]  (50.170°)
G1 X61.226 Y96.24 E6.72212 A-0.06003 ; [420]  (50.110°)
G1 X60.708 Y96.416 E6.74032 A-0.06773 ; [421]  (50.043°)
G1 X60.215 Y96.569 E6.75749 A-0.05888 ; [422]  (49.984°)
G1 X59.695 Y96.716 E6.77546 A-0.05657 ; [423]  (49.927°)
G1 X59.178 Y96.848 E6.79321 A-0.0508 ; [424]  (49.876°)
G1 X58.672 Y96.964 E6.81047 A-0.04464 ; [425]  (49.832°)
G1 X58.245 Y97.051 E6.82497 A-0.03348 ; [426]  (49.798°)
G1 X57.722 Y97.144 E6.84263 A-0.03579 ; [427]  (49.762°)
G1 X57.176 Y97.227 E6.861 A-0.03194 ; [428]  (49.730°)
G1 X56.633 Y97.295 E6.8792 A-0.02617 ; [429]  (49.704°)
G1 X56.141 Y97.344 E6.89565 A-0.01886 ; [430]  (49.685°)
G1 X55.618 Y97.383 E6.91309 A-0.01501 ; [431]  (49.670°)
G1 X55.116 Y97.408 E6.92981 A-0.00962 ; [432]  (49.661°)
G1 X54.568 Y97.421 E6.94804 A-0.005 ; [433]  (49.656°)
G1 X54.07 Y97.42 E6.9646 A0.00038 ; [434]  (49.656°)
G1 X53.525 Y97.405 E6.98274 A0.00577 ; [435]  (49.662°)
G1 X52.983 Y97.376 E7.00079 A0.01116 ; [436]  (49.673°)
G1 X52.459 Y97.335 E7.01827 A0.01578 ; [437]  (49.689°)
G1 X52.014 Y97.289 E7.03315 A0.0177 ; [438]  (49.707°)
G1 X51.468 Y97.218 E7.05147 A0.02733 ; [439]  (49.734°)
G1 X50.924 Y97.133 E7.06978 A0.03271 ; [440]  (49.767°)
G1 X50.426 Y97.043 E7.08661 A0.03464 ; [441]  (49.801°)
G1 X49.959 Y96.947 E7.10247 A0.03695 ; [442]  (49.838°)
G1 X49.434 Y96.825 E7.12039 A0.04695 ; [443]  (49.885°)
G1 X48.944 Y96.698 E7.13723 A0.04888 ; [444]  (49.934°)
G1 X48.445 Y96.556 E7.15449 A0.05465 ; [445]  (49.989°)
G1 X47.974 Y96.409 E7.1709 A0.05657 ; [446]  (50.045°)
G1 X47.458 Y96.233 E7.18903 A0.06773 ; [447]  (50.113°)
G1 X46.952 Y96.046 E7.20697 A0.07196 ; [448]  (50.185°)
G1 X46.435 Y95.839 E7.22549 A0.07965 ; [449]  (50.265°)
G1 X45.975 Y95.641 E7.24215 A0.07619 ; [450]  (50.341°)
G1 X45.482 Y95.414 E7.2602 A0.08735 ; [451]  (50.428°)
G1 X45.078 Y95.215 E7.27518 A0.07657 ; [452]  (50.505°)
G1 X44.641 Y94.987 E7.29158 A0.08773 ; [453]  (50.592°)
G1 X44.168 Y94.726 E7.30954 A0.10042 ; [454]  (50.693°)
G1 X43.754 Y94.485 E7.32548 A0.09272 ; [455]  (50.786°)
G1 X43.344 Y94.234 E7.34147 A0.09657 ; [456]  (50.882°)
G1 X42.839 Y93.905 E7.36151 A0.12658 ; [457]  (51.009°)
G1 X42.428 Y93.62 E7.37815 A0.10965 ; [458]  (51.118°)
G1 X42.01 Y93.315 E7.39536 A0.11734 ; [459]  (51.236°)
G1 X41.613 Y93.01 E7.41201 A0.11734 ; [460]  (51.353°)
G1 X41.183 Y92.661 E7.43043 A0.13427 ; [461]  (51.487°)
G1 X40.783 Y92.319 E7.44793 A0.13158 ; [462]  (51.619°)
G1 X40.4 Y91.975 E7.46506 A0.13235 ; [463]  (51.751°)
G1 X40.033 Y91.629 E7.48183 A0.13312 ; [464]  (51.884°)
G1 X39.621 Y91.219 E7.50116 A0.15775 ; [465]  (52.042°)
G1 X39.275 Y90.855 E7.51787 A0.14005 ; [466]  (52.182°)
G1 X38.928 Y90.471 E7.53508 A0.14775 ; [467]  (52.330°)
G1 X38.598 Y90.088 E7.5519 A0.14737 ; [468]  (52.477°)
G1 X38.265 Y89.682 E7.56936 A0.15623 ; [469]  (52.633°)
G1 X37.934 Y89.257 E7.58728 A0.16355 ; [470]  (52.797°)
G1 X37.61 Y88.818 E7.60542 A0.16895 ; [471]  (52.966°)
G1 X37.345 Y88.439 E7.62081 A0.14587 ; [472]  (53.112°)
G1 X37.074 Y88.031 E7.6371 A0.15705 ; [473]  (53.269°)
G1 X36.821 Y87.631 E7.65284 A0.15398 ; [474]  (53.423°)
G1 X36.54 Y87.162 E7.67102 A0.18056 ; [475]  (53.603°)
G1 X36.279 Y86.698 E7.68873 A0.17866 ; [476]  (53.782°)
G1 X36.033 Y86.233 E7.70623 A0.17907 ; [477]  (53.961°)
G1 X35.813 Y85.792 E7.72262 A0.16985 ; [478]  (54.131°)
G1 X35.581 Y85.295 E7.74086 A0.19145 ; [479]  (54.322°)
G1 X35.384 Y84.843 E7.75726 A0.17414 ; [480]  (54.497°)
G1 X35.192 Y84.372 E7.77418 A0.18149 ; [481]  (54.678°)
G1 X35.007 Y83.885 E7.7915 A0.18769 ; [482]  (54.866°)
G1 X34.834 Y83.395 E7.80879 A0.18889 ; [483]  (55.055°)
G1 X34.696 Y82.97 E7.82365 A0.16386 ; [484]  (55.219°)
G1 X34.547 Y82.468 E7.84107 A0.19359 ; [485]  (55.412°)
G1 X34.408 Y81.955 E7.85874 A0.19788 ; [486]  (55.610°)
G1 X34.279 Y81.425 E7.87689 A0.20449 ; [487]  (55.815°)
G1 X34.184 Y80.986 E7.89183 A0.16943 ; [488]  (55.984°)
G1 X34.088 Y80.484 E7.90883 A0.19379 ; [489]  (56.178°)
G1 X33.997 Y79.937 E7.92727 A0.21122 ; [490]  (56.389°)
G1 X33.919 Y79.379 E7.94601 A0.21554 ; [491]  (56.605°)
G1 X33.862 Y78.871 E7.96301 A0.19629 ; [492]  (56.801°)
G1 X33.816 Y78.346 E7.98054 A0.20293 ; [493]  (57.004°)
G1 X33.785 Y77.847 E7.99717 A0.19295 ; [494]  (57.197°)
G1 X33.765 Y77.29 E8.01571 A0.21545 ; [495]  (57.412°)
G1 X33.76 Y76.759 E8.03337 A0.20547 ; [496]  (57.618°)
G1 X33.769 Y76.215 E8.05146 A0.21059 ; [497]  (57.828°)
G1 X33.789 Y75.738 E8.06734 A0.18472 ; [498]  (58.013°)
G1 X33.822 Y75.237 E8.08404 A0.19409 ; [499]  (58.207°)
G1 X33.862 Y74.79 E8.09897 A0.17324 ; [500]  (58.380°)
G1 X33.922 Y74.266 E8.11651 A0.20316 ; [501]  (58.583°)
G1 X34.004 Y73.68 E8.13619 A0.22731 ; [502]  (58.811°)
G1 X34.087 Y73.177 E8.15315 A0.19521 ; [503]  (59.006°)
G1 X34.172 Y72.728 E8.16835 A0.17433 ; [504]  (59.180°)
G1 X34.302 Y72.134 E8.18857 A0.23074 ; [505]  (59.411°)
G1 X34.433 Y71.609 E8.20657 A0.20404 ; [506]  (59.615°)
G1 X34.576 Y71.094 E8.22434 A0.20026 ; [507]  (59.815°)
G1 X34.727 Y70.597 E8.24162 A0.19336 ; [508]  (60.009°)
G1 X34.897 Y70.084 E8.2596 A0.19969 ; [509]  (60.208°)
G1 X35.057 Y69.64 E8.27529 A0.17292 ; [510]  (60.381°)
G1 X35.241 Y69.166 E8.2922 A0.18469 ; [511]  (60.566°)
G1 X35.438 Y68.692 E8.30928 A0.18479 ; [512]  (60.751°)
G1 X35.658 Y68.198 E8.32726 A0.19269 ; [513]  (60.943°)
G1 X35.884 Y67.724 E8.34473 A0.18499 ; [514]  (61.128°)
G1 X36.123 Y67.254 E8.36227 A0.18353 ; [515]  (61.312°)
G1 X36.342 Y66.848 E8.37761 A0.15862 ; [516]  (61.471°)
G1 X36.599 Y66.397 E8.39487 A0.1763 ; [517]  (61.647°)
G1 X36.845 Y65.99 E8.41069 A0.15918 ; [518]  (61.806°)
G1 X37.116 Y65.565 E8.42746 A0.16631 ; [519]  (61.972°)
G1 X37.41 Y65.127 E8.445 A0.17149 ; [520]  (62.144°)
G1 X37.765 Y64.63 E8.46532 A0.19471 ; [521]  (62.339°)
G1 X38.104 Y64.183 E8.48397 A0.17523 ; [522]  (62.514°)
G1 X38.407 Y63.802 E8.50017 A0.14944 ; [523]  (62.663°)
G1 X38.697 Y63.454 E8.51523 A0.13657 ; [524]  (62.800°)
G1 X39.036 Y63.066 E8.53237 A0.15234 ; [525]  (62.952°)
G1 X39.355 Y62.719 E8.54805 A0.13631 ; [526]  (63.089°)
G1 X39.742 Y62.32 E8.56653 A0.15682 ; [527]  (63.245°)
G1 X40.129 Y61.941 E8.58455 A0.14905 ; [528]  (63.394°)
G1 X40.526 Y61.572 E8.60258 A0.14519 ; [529]  (63.540°)
G1 X40.888 Y61.252 E8.61865 A0.12598 ; [530]  (63.666°)
G1 X41.263 Y60.935 E8.63498 A0.12486 ; [531]  (63.790°)
G1 X41.657 Y60.618 E8.6518 A0.12492 ; [532]  (63.915°)
G1 X42.124 Y60.263 E8.67131 A0.13996 ; [533]  (64.055°)
G1 X42.566 Y59.946 E8.6894 A0.12505 ; [534]  (64.180°)
G0 F6000 X42.799 Y60.271 A-0.1282 ; [535]  (64.052°)
G1 F1200 X43.203 Y59.996 E8.70565 A0.10847 ; [536]  (64.161°)
G1 X43.56 Y59.765 E8.7198 A0.09115 ; [537]  (64.252°)
G1 X43.985 Y59.505 E8.73637 A0.10264 ; [538]  (64.354°)
G1 X44.468 Y59.225 E8.75494 A0.11058 ; [539]  (64.465°)
G1 X44.9 Y58.988 E8.77133 A0.09364 ; [540]  (64.559°)
G1 X45.312 Y58.775 E8.78675 A0.08419 ; [541]  (64.643°)
G1 X45.8 Y58.539 E8.80478 A0.09331 ; [542]  (64.736°)
G1 X46.272 Y58.326 E8.822 A0.08425 ; [543]  (64.820°)
G1 X46.74 Y58.129 E8.83889 A0.07795 ; [544]  (64.898°)
G1 X47.178 Y57.957 E8.85454 A0.06807 ; [545]  (64.966°)
G1 X47.646 Y57.786 E8.87112 A0.0677 ; [546]  (65.034°)
G1 X48.153 Y57.615 E8.88891 A0.06772 ; [547]  (65.102°)
G1 X48.662 Y57.458 E8.90663 A0.06219 ; [548]  (65.164°)
G1 X49.144 Y57.323 E8.92328 A0.05349 ; [549]  (65.217°)
G1 X49.618 Y57.202 E8.93955 A0.04795 ; [550]  (65.265°)
G1 X50.094 Y57.093 E8.95579 A0.04321 ; [551]  (65.309°)
G1 X50.598 Y56.991 E8.97289 A0.04044 ; [552]  (65.349°)
G1 X51.091 Y56.904 E8.98954 A0.0345 ; [553]  (65.384°)
G1 X51.604 Y56.827 E9.0068 A0.03054 ; [554]  (65.414°)
G1 X52.102 Y56.765 E9.02349 A0.02459 ; [555]  (65.439°)
G1 X52.642 Y56.712 E9.04154 A0.02102 ; [556]  (65.460°)
G1 X53.193 Y56.673 E9.05991 A0.01547 ; [557]  (65.475°)
G1 X53.721 Y56.65 E9.07749 A0.00912 ; [558]  (65.484°)
G1 X54.199 Y56.641 E9.09339 A0.00357 ; [559]  (65.488°)
G1 X54.693 Y56.643 E9.10982 A-0.00079 ; [560]  (65.487°)
G1 X55.199 Y56.658 E9.12665 A-0.00595 ; [561]  (65.481°)
G1 X55.681 Y56.684 E9.14271 A-0.01031 ; [562]  (65.471°)
G1 X56.161 Y56.721 E9.15872 A-0.01468 ; [563]  (65.456°)
G1 X56.716 Y56.779 E9.17728 A-0.02301 ; [564]  (65.433°)
G1 X57.252 Y56.85 E9.19526 A-0.02816 ; [565]  (65.405°)
G1 X57.749 Y56.929 E9.212 A-0.03133 ; [566]  (65.374°)
G1 X58.23 Y57.017 E9.22827 A-0.03489 ; [567]  (65.339°)
G1 X58.703 Y57.115 E9.24433 A-0.03885 ; [568]  (65.300°)
G1 X59.185 Y57.227 E9.26079 A-0.04439 ; [569]  (65.256°)
G1 X59.678 Y57.354 E9.27772 A-0.05033 ; [570]  (65.205°)
G1 X60.119 Y57.48 E9.29298 A-0.04992 ; [571]  (65.155°)
G1 X60.616 Y57.636 E9.3103 A-0.06179 ; [572]  (65.093°)
G1 X61.125 Y57.81 E9.32819 A-0.0689 ; [573]  (65.025°)
G1 X61.589 Y57.981 E9.34464 A-0.0677 ; [574]  (64.957°)
G1 X62.04 Y58.16 E9.36078 A-0.07084 ; [575]  (64.886°)
G1 X62.509 Y58.361 E9.37775 A-0.07952 ; [576]  (64.807°)
G1 X63.303 Y58.735 E9.40694 A-0.1479 ; [577]  (64.659°)
G1 X63.846 Y59.014 E9.42725 A-0.11027 ; [578]  (64.548°)
G1 X64.353 Y59.293 E9.4465 A-0.11022 ; [579]  (64.438°)
G1 X64.814 Y59.564 E9.46428 A-0.10701 ; [580]  (64.331°)
G1 X65.237 Y59.826 E9.48083 A-0.10342 ; [581]  (64.228°)
G1 X65.626 Y60.081 E9.4963 A-0.10061 ; [582]  (64.127°)
G1 X66.049 Y60.374 E9.51342 A-0.11556 ; [583]  (64.012°)
G1 X66.427 Y60.65 E9.52898 A-0.1088 ; [584]  (63.903°)
G1 X66.805 Y60.94 E9.54483 A-0.11427 ; [585]  (63.788°)
G1 X67.255 Y61.302 E9.56404 A-0.14258 ; [586]  (63.646°)
G1 X67.697 Y61.679 E9.58336 A-0.1484 ; [587]  (63.497°)
G1 X68.047 Y61.995 E9.59904 A-0.12433 ; [588]  (63.373°)
G1 X68.402 Y62.331 E9.6153 A-0.13213 ; [589]  (63.241°)
G1 X68.728 Y62.655 E9.63059 A-0.12735 ; [590]  (63.114°)
G1 X69.051 Y62.992 E9.64611 A-0.1324 ; [591]  (62.981°)
G1 X69.41 Y63.383 E9.66377 A-0.15354 ; [592]  (62.828°)
G1 X69.812 Y63.848 E9.68421 A-0.18248 ; [593]  (62.645°)
G1 X70.194 Y64.318 E9.70436 A-0.18433 ; [594]  (62.461°)
G1 X70.485 Y64.693 E9.72014 A-0.14699 ; [595]  (62.314°)
G1 X70.736 Y65.033 E9.7342 A-0.13321 ; [596]  (62.181°)
G1 X71.007 Y65.418 E9.74986 A-0.15076 ; [597]  (62.030°)
G1 X71.266 Y65.805 E9.76535 A-0.15147 ; [598]  (61.878°)
G1 X71.57 Y66.288 E9.78433 A-0.18894 ; [599]  (61.690°)
G1 X71.862 Y66.782 E9.80342 A-0.19313 ; [600]  (61.496°)
G1 X72.096 Y67.201 E9.81938 A-0.16372 ; [601]  (61.333°)
G1 X72.313 Y67.611 E9.83481 A-0.16012 ; [602]  (61.173°)
G1 X72.537 Y68.06 E9.8515 A-0.17526 ; [603]  (60.997°)
G1 X72.74 Y68.494 E9.86743 A-0.16932 ; [604]  (60.828°)
G1 X72.939 Y68.949 E9.88395 A-0.17742 ; [605]  (60.651°)
G1 X73.141 Y69.442 E9.90167 A-0.19214 ; [606]  (60.458°)
G1 X73.327 Y69.931 E9.91907 A-0.19048 ; [607]  (60.268°)
G1 X73.479 Y70.364 E9.93433 A-0.16858 ; [608]  (60.099°)
G1 X73.638 Y70.856 E9.95153 A-0.19146 ; [609]  (59.908°)
G1 X73.779 Y71.334 E9.96811 A-0.18592 ; [610]  (59.722°)
G1 X73.912 Y71.831 E9.98522 A-0.19322 ; [611]  (59.529°)
G1 X74.038 Y72.354 E10.00311 A-0.20322 ; [612]  (59.326°)
G1 X74.145 Y72.849 E10.01996 A-0.19225 ; [613]  (59.133°)
G1 X74.241 Y73.357 E10.03715 A-0.19721 ; [614]  (58.936°)
G1 X74.326 Y73.884 E10.05491 A-0.20449 ; [615]  (58.732°)
G1 X74.389 Y74.35 E10.07055 A-0.18074 ; [616]  (58.551°)
G1 X74.443 Y74.841 E10.08697 A-0.19036 ; [617]  (58.361°)
G1 X74.488 Y75.363 E10.1044 A-0.20229 ; [618]  (58.158°)
G1 X74.519 Y75.866 E10.12116 A-0.19485 ; [619]  (57.963°)
G1 X74.536 Y76.331 E10.13664 A-0.18006 ; [620]  (57.783°)
G1 X74.542 Y76.872 E10.15463 A-0.20941 ; [621]  (57.574°)
G1 X74.533 Y77.418 E10.1728 A-0.21126 ; [622]  (57.363°)
G1 X74.512 Y77.913 E10.18927 A-0.19146 ; [623]  (57.171°)
G1 X74.48 Y78.404 E10.20564 A-0.18984 ; [624]  (56.981°)
G1 X74.434 Y78.921 E10.2229 A-0.19983 ; [625]  (56.782°)
G1 X74.376 Y79.419 E10.23958 A-0.19242 ; [626]  (56.589°)
G1 X74.299 Y79.951 E10.25746 A-0.2055 ; [627]  (56.384°)
G1 X74.213 Y80.456 E10.2745 A-0.19501 ; [628]  (56.189°)
G1 X74.119 Y80.937 E10.2908 A-0.18569 ; [629]  (56.003°)
G1 X74.012 Y81.423 E10.30735 A-0.18757 ; [630]  (55.815°)
G1 X73.894 Y81.907 E10.32392 A-0.18675 ; [631]  (55.629°)
G1 X73.767 Y82.374 E10.34001 A-0.18015 ; [632]  (55.448°)
G1 X73.612 Y82.887 E10.35784 A-0.19784 ; [633]  (55.251°)
G1 X73.451 Y83.376 E10.37496 A-0.18854 ; [634]  (55.062°)
G1 X73.29 Y83.83 E10.39098 A-0.17501 ; [635]  (54.887°)
G1 X73.119 Y84.277 E10.4069 A-0.17228 ; [636]  (54.715°)
G1 X72.914 Y84.774 E10.42478 A-0.19152 ; [637]  (54.523°)
G1 X72.699 Y85.258 E10.4424 A-0.18647 ; [638]  (54.337°)
G1 X72.491 Y85.696 E10.45852 A-0.16872 ; [639]  (54.168°)
G1 X72.283 Y86.11 E10.47393 A-0.15946 ; [640]  (54.009°)
G1 X72.039 Y86.568 E10.49119 A-0.17638 ; [641]  (53.832°)
G1 X71.788 Y87.01 E10.5081 A-0.1702 ; [642]  (53.662°)
G1 X71.503 Y87.481 E10.52641 A-0.18134 ; [643]  (53.481°)
G1 X71.195 Y87.961 E10.54538 A-0.18478 ; [644]  (53.296°)
G1 X70.914 Y88.376 E10.56205 A-0.15974 ; [645]  (53.136°)
G1 X70.638 Y88.763 E10.57786 A-0.14895 ; [646]  (52.987°)
G1 X70.354 Y89.143 E10.59364 A-0.14625 ; [647]  (52.841°)
G1 X70.097 Y89.47 E10.60747 A-0.12584 ; [648]  (52.715°)
G1 X69.787 Y89.845 E10.62365 A-0.14431 ; [649]  (52.571°)
G1 X69.412 Y90.278 E10.6427 A-0.16662 ; [650]  (52.404°)
G1 X69.027 Y90.698 E10.66165 A-0.16161 ; [651]  (52.243°)
G1 X68.684 Y91.052 E10.67805 A-0.13621 ; [652]  (52.106°)
G1 X68.349 Y91.382 E10.69369 A-0.12697 ; [653]  (51.979°)
G1 X67.993 Y91.717 E10.70995 A-0.12889 ; [654]  (51.850°)
G1 X67.584 Y92.082 E10.72818 A-0.14043 ; [655]  (51.710°)
G1 X67.192 Y92.413 E10.74524 A-0.12735 ; [656]  (51.583°)
G1 X66.788 Y92.737 E10.76247 A-0.12465 ; [657]  (51.458°)
G1 X66.382 Y93.046 E10.77944 A-0.11888 ; [658]  (51.339°)
G1 X65.926 Y93.373 E10.7981 A-0.12581 ; [659]  (51.213°)
G1 X65.464 Y93.686 E10.81666 A-0.12042 ; [660]  (51.093°)
G1 X65.08 Y93.935 E10.83189 A-0.0958 ; [661]  (50.997°)
G1 X64.707 Y94.164 E10.84644 A-0.0881 ; [662]  (50.909°)
G1 X64.292 Y94.405 E10.8624 A-0.09272 ; [663]  (50.816°)
G1 X63.889 Y94.627 E10.87771 A-0.08541 ; [664]  (50.731°)
G1 X63.439 Y94.861 E10.89458 A-0.09003 ; [665]  (50.641°)
G1 X62.99 Y95.08 E10.91119 A-0.08426 ; [666]  (50.557°)
G1 X62.502 Y95.302 E10.92902 A-0.08542 ; [667]  (50.471°)
G1 X61.974 Y95.526 E10.9481 A-0.08619 ; [668]  (50.385°)
G1 X61.512 Y95.709 E10.96463 A-0.07042 ; [669]  (50.315°)
G1 X61.088 Y95.865 E10.97965 A-0.06003 ; [670]  (50.255°)
G1 X60.589 Y96.034 E10.99718 A-0.06503 ; [671]  (50.190°)
G1 X60.096 Y96.187 E11.01435 A-0.05888 ; [672]  (50.131°)
G1 X59.596 Y96.328 E11.03162 A-0.05426 ; [673]  (50.076°)
G1 X59.079 Y96.46 E11.04937 A-0.0508 ; [674]  (50.026°)
G1 X58.592 Y96.572 E11.06599 A-0.0431 ; [675]  (49.983°)
G1 X58.165 Y96.659 E11.08049 A-0.03348 ; [676]  (49.949°)
G1 X57.662 Y96.748 E11.09748 A-0.03425 ; [677]  (49.915°)
G1 X57.116 Y96.831 E11.11584 A-0.03194 ; [678]  (49.883°)
G1 X56.594 Y96.897 E11.13334 A-0.0254 ; [679]  (49.857°)
G1 X56.102 Y96.946 E11.14979 A-0.01886 ; [680]  (49.839°)
G1 X55.598 Y96.983 E11.1666 A-0.01424 ; [681]  (49.824°)
G1 X55.096 Y97.008 E11.18332 A-0.00962 ; [682]  (49.815°)
G1 X54.569 Y97.021 E11.20085 A-0.005 ; [683]  (49.810°)
G1 X54.071 Y97.02 E11.21741 A0.00038 ; [684]  (49.810°)
G1 X53.546 Y97.005 E11.23488 A0.00577 ; [685]  (49.816°)
G1 X53.004 Y96.976 E11.25293 A0.01116 ; [686]  (49.827°)
G1 X52.5 Y96.937 E11.26975 A0.01501 ; [687]  (49.842°)
G1 X52.055 Y96.891 E11.28463 A0.0177 ; [688]  (49.860°)
G1 X51.529 Y96.823 E11.30227 A0.02617 ; [689]  (49.886°)
G1 X50.985 Y96.738 E11.32058 A0.03271 ; [690]  (49.919°)
G1 X50.506 Y96.651 E11.33677 A0.03348 ; [691]  (49.952°)
G1 X50.039 Y96.555 E11.35263 A0.03694 ; [692]  (49.989°)
G1 X49.534 Y96.438 E11.36987 A0.04503 ; [693]  (50.034°)
G1 X49.044 Y96.311 E11.38671 A0.04887 ; [694]  (50.083°)
G1 X48.564 Y96.174 E11.40331 A0.05272 ; [695]  (50.136°)
G1 X48.093 Y96.027 E11.41972 A0.05657 ; [696]  (50.192°)
G1 X47.596 Y95.858 E11.43718 A0.06503 ; [697]  (50.257°)
G1 X47.09 Y95.671 E11.45512 A0.07196 ; [698]  (50.329°)
G1 X46.593 Y95.472 E11.47293 A0.07657 ; [699]  (50.406°)
G1 X46.133 Y95.274 E11.48958 A0.07619 ; [700]  (50.482°)
G1 X45.659 Y95.055 E11.50695 A0.08426 ; [701]  (50.566°)
G1 X45.255 Y94.856 E11.52193 A0.07657 ; [702]  (50.643°)
G1 X44.834 Y94.637 E11.53771 A0.08426 ; [703]  (50.727°)
G1 X44.361 Y94.376 E11.55568 A0.10042 ; [704]  (50.827°)
G1 X43.963 Y94.144 E11.571 A0.08926 ; [705]  (50.917°)
G1 X43.553 Y93.893 E11.58699 A0.09657 ; [706]  (51.013°)
G1 X43.067 Y93.576 E11.60629 A0.12196 ; [707]  (51.135°)
G1 X42.656 Y93.291 E11.62293 A0.10965 ; [708]  (51.245°)
G1 X42.254 Y92.998 E11.63947 A0.11272 ; [709]  (51.358°)
G1 X41.857 Y92.693 E11.65612 A0.11734 ; [710]  (51.475°)
G1 X41.443 Y92.357 E11.67386 A0.12927 ; [711]  (51.604°)
G1 X41.043 Y92.015 E11.69136 A0.13158 ; [712]  (51.736°)
G1 X40.674 Y91.684 E11.70785 A0.12735 ; [713]  (51.863°)
G1 X40.307 Y91.338 E11.72462 A0.13312 ; [714]  (51.996°)
G1 X39.911 Y90.943 E11.74323 A0.15198 ; [715]  (52.148°)
G1 X39.565 Y90.579 E11.75993 A0.14006 ; [716]  (52.288°)
G1 X39.231 Y90.21 E11.77649 A0.14199 ; [717]  (52.430°)
G1 X38.901 Y89.827 E11.7933 A0.14738 ; [718]  (52.578°)
G1 X38.581 Y89.436 E11.81011 A0.15047 ; [719]  (52.728°)
G1 X38.25 Y89.011 E11.82802 A0.16356 ; [720]  (52.892°)
G1 X37.938 Y88.589 E11.84548 A0.16242 ; [721]  (53.054°)
G1 X37.673 Y88.21 E11.86086 A0.14588 ; [722]  (53.200°)
G1 X37.412 Y87.817 E11.87655 A0.15128 ; [723]  (53.351°)
G1 X37.159 Y87.417 E11.89229 A0.15399 ; [724]  (53.505°)
G1 X36.889 Y86.966 E11.90977 A0.17364 ; [725]  (53.679°)
G1 X36.628 Y86.502 E11.92748 A0.17867 ; [726]  (53.858°)
G1 X36.391 Y86.054 E11.94434 A0.17253 ; [727]  (54.030°)
G1 X36.171 Y85.613 E11.96073 A0.16986 ; [728]  (54.200°)
G1 X35.948 Y85.135 E11.97827 A0.18414 ; [729]  (54.384°)
G1 X35.751 Y84.683 E11.99467 A0.17415 ; [730]  (54.558°)
G1 X35.566 Y84.23 E12.01095 A0.17457 ; [731]  (54.733°)
G1 X35.381 Y83.743 E12.02827 A0.1877 ; [732]  (54.921°)
G1 X35.215 Y83.271 E12.04492 A0.18196 ; [733]  (55.103°)
G1 X35.077 Y82.846 E12.05978 A0.16387 ; [734]  (55.266°)
G1 X34.933 Y82.364 E12.07651 A0.18589 ; [735]  (55.452°)
G1 X34.794 Y81.851 E12.09419 A0.19789 ; [736]  (55.650°)
G1 X34.67 Y81.34 E12.11168 A0.19717 ; [737]  (55.847°)
G1 X34.575 Y80.901 E12.12662 A0.16943 ; [738]  (56.017°)
G1 X34.482 Y80.418 E12.14298 A0.18646 ; [739]  (56.203°)
G1 X34.391 Y79.871 E12.16142 A0.21123 ; [740]  (56.414°)
G1 X34.317 Y79.334 E12.17945 A0.20744 ; [741]  (56.622°)
G1 X34.26 Y78.826 E12.19645 A0.1963 ; [742]  (56.818°)
G1 X34.216 Y78.321 E12.21331 A0.1952 ; [743]  (57.013°)
G1 X34.185 Y77.822 E12.22994 A0.19295 ; [744]  (57.206°)
G1 X34.165 Y77.286 E12.24778 A0.20733 ; [745]  (57.414°)
G1 X34.16 Y76.755 E12.26544 A0.20547 ; [746]  (57.619°)
G1 X34.169 Y76.232 E12.28284 A0.20246 ; [747]  (57.822°)
G1 X34.189 Y75.755 E12.29872 A0.18472 ; [748]  (58.006°)
G1 X34.221 Y75.273 E12.31478 A0.18673 ; [749]  (58.193°)
G1 X34.261 Y74.826 E12.32971 A0.17323 ; [750]  (58.366°)
G1 X34.318 Y74.321 E12.34661 A0.19579 ; [751]  (58.562°)
G1 X34.4 Y73.735 E12.36629 A0.2273 ; [752]  (58.789°)
G1 X34.48 Y73.252 E12.38258 A0.18744 ; [753]  (58.977°)
G1 X34.565 Y72.803 E12.39778 A0.17432 ; [754]  (59.151°)
G1 X34.69 Y72.231 E12.41725 A0.22217 ; [755]  (59.373°)
G1 X34.821 Y71.706 E12.43525 A0.20403 ; [756]  (59.577°)
G1 X34.959 Y71.21 E12.45237 A0.19285 ; [757]  (59.770°)
G1 X35.11 Y70.713 E12.46965 A0.19334 ; [758]  (59.964°)
G1 X35.273 Y70.22 E12.48692 A0.19188 ; [759]  (60.155°)
G1 X35.433 Y69.776 E12.50262 A0.17289 ; [760]  (60.328°)
G1 X35.61 Y69.319 E12.51892 A0.17804 ; [761]  (60.506°)
G1 X35.807 Y68.845 E12.53599 A0.18476 ; [762]  (60.691°)
G1 X36.019 Y68.37 E12.55329 A0.18525 ; [763]  (60.876°)
G1 X36.245 Y67.896 E12.57075 A0.18496 ; [764]  (61.061°)
G1 X36.475 Y67.444 E12.58762 A0.17647 ; [765]  (61.238°)
G1 X36.694 Y67.038 E12.60297 A0.15859 ; [766]  (61.396°)
G1 X36.942 Y66.604 E12.61959 A0.16961 ; [767]  (61.566°)
G1 X37.188 Y66.197 E12.63541 A0.15914 ; [768]  (61.725°)
G1 X37.448 Y65.788 E12.65153 A0.16001 ; [769]  (61.885°)
G1 X37.742 Y65.35 E12.66907 A0.17144 ; [770]  (62.057°)
G1 X38.084 Y64.871 E12.68865 A0.1876 ; [771]  (62.244°)
G1 X38.423 Y64.424 E12.70731 A0.17518 ; [772]  (62.419°)
G1 X38.714 Y64.058 E12.72286 A0.14351 ; [773]  (62.563°)
G1 X39.004 Y63.71 E12.73793 A0.13652 ; [774]  (62.699°)
G1 X39.331 Y63.337 E12.75442 A0.1464 ; [775]  (62.846°)
G1 X39.65 Y62.99 E12.7701 A0.13626 ; [776]  (62.982°)
G1 X40.022 Y62.606 E12.78788 A0.15087 ; [777]  (63.133°)
G1 X40.409 Y62.227 E12.8059 A0.14899 ; [778]  (63.282°)
G1 X40.79 Y61.872 E12.82322 A0.13963 ; [779]  (63.422°)
G1 X41.152 Y61.552 E12.83929 A0.12592 ; [780]  (63.547°)
G1 X41.514 Y61.247 E12.85503 A0.12008 ; [781]  (63.668°)
G1 X41.908 Y60.93 E12.87185 A0.12486 ; [782]  (63.792°)
G1 X42.357 Y60.588 E12.89063 A0.13477 ; [783]  (63.927°)
G1 X42.799 Y60.271 E12.90872 A0.12498 ; [784]  (64.052°)
G1 F1500 E6.40872 ; [785]  (No Y coord)
; [786] MESH:Router test 2.3mf
G0 F6000 X52.969 Y75.26 A-5.85401 ; [787]  (58.198°)
G0 X54.694 Y78.707 A-1.33391 ; [788]  (56.864°)
; [789] TYPE:WALL-INNER
G1 F1500 E12.90872 ; [790]  (No Y coord)
G1 F1200 X55.144 Y78.554 E12.92453 A0.05914 ; [791]  (56.923°)
G1 X55.374 Y78.437 E12.93311 A0.04523 ; [792]  (56.969°)
G1 X55.591 Y78.266 E12.9423 A0.06611 ; [793]  (57.035°)
G1 X55.865 Y77.974 E12.95562 A0.1129 ; [794]  (57.148°)
G1 X56.061 Y77.651 E12.96818 A0.12492 ; [795]  (57.273°)
G1 X56.191 Y77.297 E12.98072 A0.13694 ; [796]  (57.409°)
G1 X56.247 Y77.026 E12.98993 A0.10485 ; [797]  (57.514°)
G1 X56.247 Y76.749 E12.99914 A0.1072 ; [798]  (57.622°)
G1 X56.188 Y76.363 E13.01213 A0.14942 ; [799]  (57.771°)
G1 X56.029 Y75.923 E13.02769 A0.17037 ; [800]  (57.941°)
G1 X55.698 Y75.482 E13.04603 A0.17082 ; [801]  (58.112°)
G1 X55.468 Y75.299 E13.05581 A0.0709 ; [802]  (58.183°)
G1 X55.143 Y75.107 E13.06836 A0.0744 ; [803]  (58.257°)
G1 X54.771 Y74.98 E13.08143 A0.04922 ; [804]  (58.307°)
G1 X54.489 Y74.93 E13.09096 A0.01938 ; [805]  (58.326°)
G1 X54.226 Y74.937 E13.09971 A-0.00271 ; [806]  (58.323°)
G1 X53.843 Y75.004 E13.11264 A-0.02597 ; [807]  (58.297°)
G1 X53.561 Y75.095 E13.1225 A-0.03527 ; [808]  (58.262°)
G1 X53.085 Y75.4 E13.1413 A-0.11818 ; [809]  (58.144°)
G1 X52.779 Y75.766 E13.15717 A-0.14178 ; [810]  (58.002°)
G1 X52.636 Y75.998 E13.16623 A-0.08985 ; [811]  (57.912°)
G1 X52.543 Y76.255 E13.17532 A-0.09951 ; [812]  (57.813°)
G1 X52.447 Y76.723 E13.19121 A-0.18117 ; [813]  (57.632°)
G1 X52.465 Y77.099 E13.20373 A-0.14551 ; [814]  (57.486°)
G1 X52.562 Y77.494 E13.21726 A-0.15282 ; [815]  (57.333°)
G1 X52.827 Y77.98 E13.23567 A-0.18797 ; [816]  (57.145°)
G1 X53.181 Y78.324 E13.25209 A-0.13301 ; [817]  (57.012°)
G1 X53.39 Y78.474 E13.26065 A-0.05799 ; [818]  (56.954°)
G1 X53.645 Y78.592 E13.26999 A-0.04561 ; [819]  (56.909°)
G1 X54.025 Y78.699 E13.28312 A-0.04136 ; [820]  (56.867°)
G1 X54.403 Y78.728 E13.29573 A-0.01121 ; [821]  (56.856°)
G1 X54.694 Y78.707 E13.30544 A0.00812 ; [822]  (56.864°)
G0 F6000 X53.955 Y79.095 A-0.14995 ; [823]  (56.714°)
; [824] TYPE:WALL-OUTER
G1 F1200 X54.402 Y79.129 E13.32035 A-0.01314 ; [825]  (56.701°)
G1 X54.774 Y79.102 E13.33275 A0.01043 ; [826]  (56.712°)
G1 X55.3 Y78.924 E13.35122 A0.06878 ; [827]  (56.780°)
G1 X55.59 Y78.776 E13.36205 A0.0572 ; [828]  (56.838°)
G1 X55.863 Y78.562 E13.37359 A0.08271 ; [829]  (56.920°)
G1 X56.185 Y78.217 E13.38928 A0.13337 ; [830]  (57.054°)
G1 X56.423 Y77.825 E13.40454 A0.15158 ; [831]  (57.205°)
G1 X56.577 Y77.407 E13.41935 A0.16168 ; [832]  (57.367°)
G1 X56.647 Y77.067 E13.4309 A0.13155 ; [833]  (57.498°)
G1 X56.647 Y76.719 E13.44247 A0.13467 ; [834]  (57.633°)
G1 X56.578 Y76.263 E13.45781 A0.17652 ; [835]  (57.810°)
G1 X56.384 Y75.73 E13.47668 A0.20641 ; [836]  (58.016°)
G1 X55.987 Y75.201 E13.49868 A0.20494 ; [837]  (58.221°)
G1 X55.696 Y74.969 E13.51105 A0.08991 ; [838]  (58.311°)
G1 X55.311 Y74.741 E13.52594 A0.08838 ; [839]  (58.399°)
G1 X54.871 Y74.592 E13.54139 A0.05776 ; [840]  (58.457°)
G1 X54.519 Y74.529 E13.55328 A0.02443 ; [841]  (58.481°)
G1 X54.186 Y74.538 E13.56436 A-0.00349 ; [842]  (58.478°)
G1 X53.747 Y74.614 E13.57918 A-0.02947 ; [843]  (58.449°)
G1 X53.389 Y74.73 E13.59169 A-0.04497 ; [844]  (58.404°)
G1 X52.818 Y75.096 E13.61425 A-0.14186 ; [845]  (58.262°)
G1 X52.453 Y75.531 E13.63314 A-0.16855 ; [846]  (58.093°)
G1 X52.274 Y75.824 E13.64456 A-0.11349 ; [847]  (57.980°)
G1 X52.157 Y76.147 E13.65599 A-0.12509 ; [848]  (57.855°)
G1 X52.045 Y76.692 E13.67449 A-0.21099 ; [849]  (57.644°)
G1 X52.067 Y77.157 E13.68997 A-0.17995 ; [850]  (57.464°)
G1 X52.186 Y77.64 E13.70652 A-0.18685 ; [851]  (57.277°)
G1 X52.505 Y78.224 E13.72865 A-0.22584 ; [852]  (57.051°)
G1 X52.923 Y78.632 E13.74808 A-0.15772 ; [853]  (56.893°)
G1 X53.188 Y78.822 E13.75892 A-0.07344 ; [854]  (56.820°)
G1 X53.506 Y78.968 E13.77056 A-0.05642 ; [855]  (56.763°)
G1 X53.955 Y79.095 E13.78608 A-0.04908 ; [856]  (56.714°)
G0 F6000 X54.55 Y78.377 A0.27751 ; [857]  (56.992°)
; [858] TYPE:SKIN
G1 F1200 X55.114 Y78.182 E13.80593 A0.07539 ; [859]  (57.067°)
G1 X55.348 Y77.998 E13.81583 A0.07115 ; [860]  (57.138°)
G1 X55.578 Y77.752 E13.82703 A0.09513 ; [861]  (57.233°)
G1 X55.736 Y77.492 E13.83715 A0.10057 ; [862]  (57.334°)
G1 X55.842 Y77.2 E13.84748 A0.11297 ; [863]  (57.447°)
G1 X55.905 Y76.895 E13.85784 A0.11802 ; [864]  (57.565°)
G1 X55.836 Y76.451 E13.87279 A0.17185 ; [865]  (57.737°)
G1 X55.707 Y76.093 E13.88544 A0.13861 ; [866]  (57.875°)
G1 X55.387 Y75.67 E13.90309 A0.16382 ; [867]  (58.039°)
G1 X54.99 Y75.436 E13.91841 A0.09065 ; [868]  (58.130°)
G1 X54.682 Y75.331 E13.92924 A0.04068 ; [869]  (58.171°)
G1 X54.377 Y75.278 E13.93953 A0.02054 ; [870]  (58.191°)
G1 X53.786 Y75.378 E13.95947 A-0.03875 ; [871]  (58.152°)
G1 X53.323 Y75.675 E13.97776 A-0.11506 ; [872]  (58.037°)
G1 X53.072 Y75.977 E13.99082 A-0.11697 ; [873]  (57.920°)
G1 X52.916 Y76.232 E14.00077 A-0.09874 ; [874]  (57.822°)
G1 X52.81 Y76.754 E14.01848 A-0.20207 ; [875]  (57.620°)
G1 X52.817 Y76.918 E14.02394 A-0.06347 ; [876]  (57.556°)
G1 X52.823 Y77.044 E14.02814 A-0.04876 ; [877]  (57.507°)
G1 X52.902 Y77.365 E14.03913 A-0.1242 ; [878]  (57.383°)
G1 X53.116 Y77.756 E14.05396 A-0.15124 ; [879]  (57.232°)
G1 X53.493 Y78.124 E14.07148 A-0.14231 ; [880]  (57.090°)
G1 X53.769 Y78.252 E14.0816 A-0.04949 ; [881]  (57.040°)
G1 X54.09 Y78.343 E14.0927 A-0.03518 ; [882]  (57.005°)
G1 X54.55 Y78.377 E14.10804 A-0.01314 ; [883]  (56.992°)
G0 F6000 X54.565 Y78.616 A-0.09239 ; [884]  (56.899°)
G0 X53.701 Y78.44 A0.06803 ; [885]  (56.967°)
G0 X53.299 Y78.183 A0.09936 ; [886]  (57.067°)
G0 X52.833 Y77.782 A0.15506 ; [887]  (57.222°)
G0 X53.239 Y77.563 A0.0847 ; [888]  (57.307°)
G1 F1200 X53.652 Y77.976 E14.12746 A-0.15973 ; [889]  (57.147°)
G0 F6000 X54.406 Y78.164 A-0.07269 ; [890]  (57.074°)
G1 F1200 X53.011 Y76.769 E14.19308 A0.53964 ; [891]  (57.614°)
G0 F6000 X53.107 Y76.3 A0.18155 ; [892]  (57.795°)
G1 F1200 X54.863 Y78.056 E14.27568 A-0.67943 ; [893]  (57.116°)
G0 F6000 X55.217 Y77.844 A0.08198 ; [894]  (57.198°)
G1 F1200 X53.339 Y75.966 E14.36401 A0.72677 ; [895]  (57.925°)
G0 F6000 X53.644 Y75.706 A0.1007 ; [896]  (58.025°)
G1 F1200 X55.474 Y77.536 E14.45009 A-0.70835 ; [897]  (57.317°)
G0 F6000 X55.649 Y77.145 A0.15127 ; [898]  (57.468°)
G1 F1200 X54.042 Y75.538 E14.52568 A0.62216 ; [899]  (58.090°)
G0 F6000 X54.585 Y75.516 A0.00852 ; [900]  (58.099°)
G1 F1200 X55.654 Y76.584 E14.57594 A-0.41357 ; [901]  (57.685°)
G1 F1500 E8.07594 ; [902]  (No Y coord)
; [903] MESH:Router test 2.3mf(1)
G0 F6000 X56.11 Y76.513 A0.02748 ; [904]  (57.713°)
G0 X56.036 Y77.252 A-0.28599 ; [905]  (57.427°)
G0 X55.766 Y77.813 A-0.217 ; [906]  (57.210°)
G0 X54.729 Y78.886 A-0.41482 ; [907]  (56.795°)
G0 X54.807 Y79.966 A-0.41724 ; [908]  (56.378°)
G0 X53.867 Y83.649 A-1.421 ; [909]  (54.957°)
G0 X53.285 Y84.861 A-0.46709 ; [910]  (54.490°)
; [911] TYPE:WALL-INNER
G1 F1500 E14.57594 ; [912]  (No Y coord)
G1 F1200 X52.841 Y84.789 E14.5909 A0.02774 ; [913]  (54.517°)
G1 X52.406 Y84.696 E14.60569 A0.03583 ; [914]  (54.553°)
G1 X51.919 Y84.557 E14.62254 A0.05356 ; [915]  (54.607°)
G1 X51.495 Y84.41 E14.63746 A0.05665 ; [916]  (54.663°)
G1 X51.062 Y84.235 E14.653 A0.06744 ; [917]  (54.731°)
G1 X50.626 Y84.024 E14.66911 A0.08132 ; [918]  (54.812°)
G1 X50.218 Y83.797 E14.68464 A0.0875 ; [919]  (54.900°)
G1 X49.852 Y83.566 E14.69903 A0.08905 ; [920]  (54.989°)
G1 X49.461 Y83.29 E14.71495 A0.1064 ; [921]  (55.095°)
G1 X49.1 Y82.999 E14.73037 A0.1122 ; [922]  (55.207°)
G1 X48.756 Y82.69 E14.74575 A0.11916 ; [923]  (55.327°)
G1 X48.41 Y82.337 E14.76219 A0.13615 ; [924]  (55.463°)
G1 X48.098 Y81.983 E14.77789 A0.13655 ; [925]  (55.599°)
G1 X47.828 Y81.632 E14.79262 A0.13542 ; [926]  (55.735°)
G1 X47.562 Y81.249 E14.80813 A0.1478 ; [927]  (55.882°)
G1 X47.326 Y80.862 E14.8232 A0.14937 ; [928]  (56.032°)
G1 X47.1 Y80.445 E14.83898 A0.16098 ; [929]  (56.193°)
G1 X46.894 Y79.995 E14.85544 A0.17377 ; [930]  (56.367°)
G1 X46.73 Y79.579 E14.87031 A0.16068 ; [931]  (56.527°)
G1 X46.578 Y79.114 E14.88658 A0.17965 ; [932]  (56.707°)
G1 X46.467 Y78.689 E14.90119 A0.16425 ; [933]  (56.871°)
G1 X46.375 Y78.247 E14.91621 A0.17086 ; [934]  (57.042°)
G1 X46.302 Y77.745 E14.93308 A0.19412 ; [935]  (57.236°)
G1 X46.264 Y77.307 E14.9477 A0.16943 ; [936]  (57.406°)
G1 X46.251 Y76.871 E14.96221 A0.16871 ; [937]  (57.574°)
G1 X46.264 Y76.346 E14.97968 A0.20322 ; [938]  (57.778°)
G1 X46.304 Y75.902 E14.9945 A0.17193 ; [939]  (57.949°)
G1 X46.375 Y75.419 E15.01074 A0.18709 ; [940]  (58.137°)
G1 X46.47 Y74.959 E15.02636 A0.17825 ; [941]  (58.315°)
G1 X46.582 Y74.538 E15.04085 A0.1632 ; [942]  (58.478°)
G1 X46.724 Y74.105 E15.05601 A0.16791 ; [943]  (58.646°)
G1 X46.892 Y73.668 E15.07158 A0.16953 ; [944]  (58.815°)
G1 X47.095 Y73.227 E15.08773 A0.17114 ; [945]  (58.987°)
G1 X47.309 Y72.827 E15.10282 A0.15529 ; [946]  (59.142°)
G1 X47.568 Y72.402 E15.11937 A0.16506 ; [947]  (59.307°)
G1 X47.836 Y72.015 E15.13503 A0.15036 ; [948]  (59.457°)
G1 X48.123 Y71.652 E15.15042 A0.14109 ; [949]  (59.598°)
G1 X48.412 Y71.32 E15.16506 A0.12908 ; [950]  (59.727°)
G1 X48.743 Y70.986 E15.1807 A0.1299 ; [951]  (59.857°)
G1 X49.091 Y70.669 E15.19636 A0.12333 ; [952]  (59.981°)
G1 X49.455 Y70.377 E15.21188 A0.11364 ; [953]  (60.094°)
G1 X49.823 Y70.114 E15.22692 A0.10238 ; [954]  (60.197°)
G1 X50.23 Y69.857 E15.24293 A0.10008 ; [955]  (60.297°)
G1 X50.615 Y69.643 E15.25758 A0.08335 ; [956]  (60.380°)
G1 X51.047 Y69.435 E15.27353 A0.08103 ; [957]  (60.461°)
G1 X51.504 Y69.246 E15.28998 A0.07365 ; [958]  (60.535°)
G1 X51.955 Y69.091 E15.30584 A0.06041 ; [959]  (60.595°)
G1 X52.391 Y68.97 E15.32089 A0.04717 ; [960]  (60.642°)
G1 X52.833 Y68.872 E15.33594 A0.03821 ; [961]  (60.681°)
G1 X53.299 Y68.799 E15.35163 A0.02846 ; [962]  (60.709°)
G1 X53.786 Y68.75 E15.36791 A0.01911 ; [963]  (60.728°)
G1 X54.254 Y68.73 E15.38349 A0.0078 ; [964]  (60.736°)
G1 X54.714 Y68.737 E15.39879 A-0.00273 ; [965]  (60.733°)
G1 X55.174 Y68.771 E15.41414 A-0.01326 ; [966]  (60.720°)
G1 X55.614 Y68.828 E15.42889 A-0.02222 ; [967]  (60.698°)
G1 X56.078 Y68.915 E15.44459 A-0.03392 ; [968]  (60.664°)
G1 X56.558 Y69.036 E15.46106 A-0.04717 ; [969]  (60.617°)
G1 X56.979 Y69.167 E15.47572 A-0.05106 ; [970]  (60.566°)
G1 X57.44 Y69.342 E15.49212 A-0.0682 ; [971]  (60.497°)
G1 X57.835 Y69.517 E15.50649 A-0.06819 ; [972]  (60.429°)
G1 X58.257 Y69.732 E15.52225 A-0.08375 ; [973]  (60.345°)
G1 X58.655 Y69.965 E15.53758 A-0.09074 ; [974]  (60.255°)
G1 X59.055 Y70.233 E15.5536 A-0.10435 ; [975]  (60.150°)
G1 X59.425 Y70.515 E15.56907 A-0.10977 ; [976]  (60.041°)
G1 X59.761 Y70.8 E15.58373 A-0.1109 ; [977]  (59.930°)
G1 X60.117 Y71.14 E15.6001 A-0.13226 ; [978]  (59.797°)
G1 X60.448 Y71.497 E15.61629 A-0.13883 ; [979]  (59.659°)
G1 X60.742 Y71.849 E15.63155 A-0.13683 ; [980]  (59.522°)
G1 X61.015 Y72.223 E15.64695 A-0.14533 ; [981]  (59.376°)
G1 X61.266 Y72.609 E15.66226 A-0.14994 ; [982]  (59.227°)
G1 X61.497 Y73.012 E15.67771 A-0.15649 ; [983]  (59.070°)
G1 X61.694 Y73.407 E15.69239 A-0.15333 ; [984]  (58.917°)
G1 X61.886 Y73.857 E15.70866 A-0.17461 ; [985]  (58.742°)
G1 X62.034 Y74.257 E15.72285 A-0.15515 ; [986]  (58.587°)
G1 X62.177 Y74.735 E15.73944 A-0.18533 ; [987]  (58.402°)
G1 X62.292 Y75.218 E15.75596 A-0.1872 ; [988]  (58.214°)
G1 X62.364 Y75.644 E15.77033 A-0.16505 ; [989]  (58.049°)
G1 X62.421 Y76.124 E15.7864 A-0.1859 ; [990]  (57.863°)
G1 X62.447 Y76.557 E15.80083 A-0.16764 ; [991]  (57.696°)
G1 X62.448 Y77.084 E15.81836 A-0.20396 ; [992]  (57.492°)
G1 X62.422 Y77.54 E15.83355 A-0.17642 ; [993]  (57.315°)
G1 X62.369 Y77.999 E15.84892 A-0.17752 ; [994]  (57.138°)
G1 X62.29 Y78.445 E15.86398 A-0.17244 ; [995]  (56.965°)
G1 X62.184 Y78.905 E15.87968 A-0.1778 ; [996]  (56.788°)
G1 X62.052 Y79.344 E15.89493 A-0.16963 ; [997]  (56.618°)
G1 X61.896 Y79.783 E15.91043 A-0.16959 ; [998]  (56.448°)
G1 X61.714 Y80.209 E15.92583 A-0.16452 ; [999]  (56.284°)
G1 X61.491 Y80.659 E15.94254 A-0.17375 ; [1000]  (56.110°)
G1 X61.267 Y81.053 E15.95761 A-0.15209 ; [1001]  (55.958°)
G1 X61.025 Y81.423 E15.97232 A-0.14279 ; [1002]  (55.815°)
G1 X60.755 Y81.795 E15.98761 A-0.14354 ; [1003]  (55.672°)
G1 X60.461 Y82.151 E16.00296 A-0.13734 ; [1004]  (55.534°)
G1 X60.132 Y82.508 E16.01911 A-0.1377 ; [1005]  (55.397°)
G1 X59.771 Y82.851 E16.03567 A-0.13228 ; [1006]  (55.264°)
G1 X59.424 Y83.149 E16.05088 A-0.11491 ; [1007]  (55.150°)
G1 X59.054 Y83.427 E16.06628 A-0.10718 ; [1008]  (55.042°)
G1 X58.671 Y83.685 E16.08164 A-0.09946 ; [1009]  (54.943°)
G1 X58.273 Y83.921 E16.09703 A-0.09097 ; [1010]  (54.852°)
G1 X57.863 Y84.13 E16.11233 A-0.08055 ; [1011]  (54.771°)
G1 X57.44 Y84.319 E16.12774 A-0.07284 ; [1012]  (54.699°)
G1 X56.991 Y84.489 E16.14371 A-0.06551 ; [1013]  (54.633°)
G1 X56.546 Y84.629 E16.15923 A-0.05395 ; [1014]  (54.579°)
G1 X56.098 Y84.743 E16.1746 A-0.04393 ; [1015]  (54.535°)
G1 X55.631 Y84.83 E16.1904 A-0.03352 ; [1016]  (54.502°)
G1 X55.149 Y84.893 E16.20657 A-0.02427 ; [1017]  (54.477°)
G1 X54.733 Y84.923 E16.22044 A-0.01156 ; [1018]  (54.466°)
G1 X54.24 Y84.93 E16.23684 A-0.0027 ; [1019]  (54.463°)
G1 X53.751 Y84.909 E16.25312 A0.00809 ; [1020]  (54.471°)
G1 X53.285 Y84.861 E16.2687 A0.01849 ; [1021]  (54.490°)
G0 F6000 X53.791 Y84.511 A0.13486 ; [1022]  (54.625°)
; [1023] TYPE:WALL-OUTER
G1 F1200 X53.349 Y84.466 E16.28348 A0.01734 ; [1024]  (54.642°)
G1 X52.925 Y84.397 E16.29777 A0.02659 ; [1025]  (54.668°)
G1 X52.477 Y84.301 E16.313 A0.037 ; [1026]  (54.705°)
G1 X52.049 Y84.179 E16.32781 A0.04702 ; [1027]  (54.753°)
G1 X51.619 Y84.029 E16.34295 A0.05781 ; [1028]  (54.810°)
G1 X51.214 Y83.864 E16.3575 A0.0636 ; [1029]  (54.874°)
G1 X50.82 Y83.674 E16.37205 A0.07324 ; [1030]  (54.947°)
G1 X50.432 Y83.459 E16.3868 A0.08288 ; [1031]  (55.030°)
G1 X50.057 Y83.222 E16.40156 A0.09137 ; [1032]  (55.121°)
G1 X49.694 Y82.964 E16.41637 A0.09948 ; [1033]  (55.221°)
G1 X49.35 Y82.685 E16.4311 A0.10759 ; [1034]  (55.328°)
G1 X49.02 Y82.388 E16.44587 A0.11455 ; [1035]  (55.443°)
G1 X48.71 Y82.071 E16.46061 A0.12228 ; [1036]  (55.565°)
G1 X48.414 Y81.737 E16.47546 A0.12886 ; [1037]  (55.694°)
G1 X48.156 Y81.404 E16.48947 A0.12849 ; [1038]  (55.823°)
G1 X47.904 Y81.04 E16.50419 A0.14048 ; [1039]  (55.963°)
G1 X47.669 Y80.655 E16.5192 A0.14861 ; [1040]  (56.112°)
G1 X47.452 Y80.253 E16.53439 A0.15521 ; [1041]  (56.267°)
G1 X47.266 Y79.848 E16.54921 A0.15641 ; [1042]  (56.423°)
G1 X47.098 Y79.421 E16.56447 A0.16494 ; [1043]  (56.588°)
G1 X46.965 Y79.012 E16.57878 A0.15803 ; [1044]  (56.746°)
G1 X46.859 Y78.607 E16.5927 A0.15653 ; [1045]  (56.903°)
G1 X46.769 Y78.177 E16.60731 A0.16623 ; [1046]  (57.069°)
G1 X46.701 Y77.71 E16.62301 A0.18059 ; [1047]  (57.250°)
G1 X46.663 Y77.279 E16.6374 A0.16672 ; [1048]  (57.416°)
G1 X46.651 Y76.859 E16.65138 A0.16252 ; [1049]  (57.579°)
G1 X46.663 Y76.381 E16.66728 A0.18502 ; [1050]  (57.764°)
G1 X46.7 Y75.959 E16.68137 A0.1634 ; [1051]  (57.927°)
G1 X46.766 Y75.504 E16.69666 A0.17624 ; [1052]  (58.104°)
G1 X46.856 Y75.063 E16.71163 A0.17088 ; [1053]  (58.274°)
G1 X46.97 Y74.638 E16.72627 A0.16474 ; [1054]  (58.439°)
G1 X47.097 Y74.249 E16.73988 A0.15083 ; [1055]  (58.590°)
G1 X47.271 Y73.801 E16.75586 A0.17377 ; [1056]  (58.764°)
G1 X47.448 Y73.416 E16.76996 A0.14939 ; [1057]  (58.913°)
G1 X47.668 Y73.006 E16.78543 A0.15915 ; [1058]  (59.072°)
G1 X47.898 Y72.629 E16.80012 A0.14639 ; [1059]  (59.219°)
G1 X48.15 Y72.263 E16.8149 A0.14217 ; [1060]  (59.361°)
G1 X48.425 Y71.915 E16.82965 A0.13522 ; [1061]  (59.496°)
G1 X48.71 Y71.587 E16.8441 A0.12749 ; [1062]  (59.624°)
G1 X49.014 Y71.281 E16.85845 A0.11898 ; [1063]  (59.743°)
G1 X49.342 Y70.981 E16.87323 A0.11668 ; [1064]  (59.859°)
G1 X49.688 Y70.703 E16.888 A0.10816 ; [1065]  (59.967°)
G1 X50.066 Y70.433 E16.90345 A0.10507 ; [1066]  (60.073°)
G1 X50.425 Y70.207 E16.91756 A0.08797 ; [1067]  (60.160°)
G1 X50.811 Y69.992 E16.93225 A0.08371 ; [1068]  (60.244°)
G1 X51.217 Y69.797 E16.94723 A0.07594 ; [1069]  (60.320°)
G1 X51.635 Y69.624 E16.96228 A0.06739 ; [1070]  (60.388°)
G1 X52.051 Y69.48 E16.97692 A0.0561 ; [1071]  (60.444°)
G1 X52.49 Y69.358 E16.99207 A0.04754 ; [1072]  (60.491°)
G1 X52.915 Y69.264 E17.00655 A0.03663 ; [1073]  (60.528°)
G1 X53.341 Y69.197 E17.02089 A0.02611 ; [1074]  (60.554°)
G1 X53.792 Y69.15 E17.03598 A0.01832 ; [1075]  (60.572°)
G1 X54.248 Y69.13 E17.05116 A0.0078 ; [1076]  (60.580°)
G1 X54.679 Y69.138 E17.0655 A-0.00312 ; [1077]  (60.577°)
G1 X55.131 Y69.17 E17.08057 A-0.01247 ; [1078]  (60.564°)
G1 X55.551 Y69.225 E17.09466 A-0.02144 ; [1079]  (60.543°)
G1 X55.997 Y69.308 E17.10974 A-0.03235 ; [1080]  (60.511°)
G1 X56.438 Y69.418 E17.12486 A-0.04286 ; [1081]  (60.468°)
G1 X56.892 Y69.562 E17.1407 A-0.0561 ; [1082]  (60.412°)
G1 X57.278 Y69.708 E17.15443 A-0.05687 ; [1083]  (60.355°)
G1 X57.673 Y69.883 E17.1688 A-0.06816 ; [1084]  (60.287°)
G1 X58.051 Y70.078 E17.18294 A-0.07593 ; [1085]  (60.211°)
G1 X58.439 Y70.304 E17.19788 A-0.08799 ; [1086]  (60.123°)
G1 X58.83 Y70.565 E17.21351 A-0.10159 ; [1087]  (60.021°)
G1 X59.181 Y70.834 E17.22822 A-0.10467 ; [1088]  (59.916°)
G1 X59.503 Y71.108 E17.24229 A-0.10659 ; [1089]  (59.810°)
G1 X59.824 Y71.413 E17.25701 A-0.11861 ; [1090]  (59.691°)
G1 X60.14 Y71.753 E17.27245 A-0.13218 ; [1091]  (59.559°)
G1 X60.425 Y72.095 E17.28726 A-0.13291 ; [1092]  (59.426°)
G1 X60.687 Y72.455 E17.30207 A-0.13986 ; [1093]  (59.286°)
G1 X60.929 Y72.827 E17.31683 A-0.14447 ; [1094]  (59.142°)
G1 X61.149 Y73.212 E17.33158 A-0.14947 ; [1095]  (58.992°)
G1 X61.333 Y73.582 E17.34532 A-0.1436 ; [1096]  (58.849°)
G1 X61.51 Y73.996 E17.3603 A-0.16062 ; [1097]  (58.688°)
G1 X61.662 Y74.408 E17.3749 A-0.15978 ; [1098]  (58.528°)
G1 X61.79 Y74.838 E17.38982 A-0.16671 ; [1099]  (58.362°)
G1 X61.901 Y75.307 E17.40585 A-0.18176 ; [1100]  (58.180°)
G1 X61.969 Y75.71 E17.41945 A-0.15612 ; [1101]  (58.024°)
G1 X62.021 Y76.148 E17.43412 A-0.16963 ; [1102]  (57.854°)
G1 X62.047 Y76.581 E17.44854 A-0.16763 ; [1103]  (57.687°)
G1 X62.049 Y77.047 E17.46404 A-0.18035 ; [1104]  (57.506°)
G1 X62.022 Y77.501 E17.47917 A-0.17565 ; [1105]  (57.331°)
G1 X61.971 Y77.943 E17.49397 A-0.17095 ; [1106]  (57.160°)
G1 X61.898 Y78.363 E17.50815 A-0.16239 ; [1107]  (56.997°)
G1 X61.796 Y78.805 E17.52324 A-0.17085 ; [1108]  (56.826°)
G1 X61.665 Y79.238 E17.53828 A-0.16732 ; [1109]  (56.659°)
G1 X61.516 Y79.653 E17.55295 A-0.16033 ; [1110]  (56.499°)
G1 X61.341 Y80.062 E17.56774 A-0.15797 ; [1111]  (56.341°)
G1 X61.143 Y80.46 E17.58253 A-0.15368 ; [1112]  (56.187°)
G1 X60.922 Y80.846 E17.59732 A-0.14902 ; [1113]  (56.038°)
G1 X60.693 Y81.197 E17.61126 A-0.13548 ; [1114]  (55.903°)
G1 X60.432 Y81.557 E17.62605 A-0.13892 ; [1115]  (55.764°)
G1 X60.155 Y81.892 E17.64051 A-0.12925 ; [1116]  (55.634°)
G1 X59.831 Y82.241 E17.65635 A-0.13463 ; [1117]  (55.500°)
G1 X59.511 Y82.547 E17.67107 A-0.11803 ; [1118]  (55.382°)
G1 X59.173 Y82.835 E17.68584 A-0.11107 ; [1119]  (55.271°)
G1 X58.818 Y83.103 E17.70064 A-0.10334 ; [1120]  (55.167°)
G1 X58.457 Y83.346 E17.71511 A-0.09369 ; [1121]  (55.074°)
G1 X58.068 Y83.576 E17.73014 A-0.08867 ; [1122]  (54.985°)
G1 X57.681 Y83.774 E17.7446 A-0.07633 ; [1123]  (54.909°)
G1 X57.268 Y83.956 E17.75961 A-0.07015 ; [1124]  (54.838°)
G1 X56.871 Y84.107 E17.77374 A-0.0582 ; [1125]  (54.780°)
G1 X56.448 Y84.241 E17.7885 A-0.05164 ; [1126]  (54.729°)
G1 X56.006 Y84.352 E17.80365 A-0.04278 ; [1127]  (54.686°)
G1 X55.559 Y84.436 E17.81878 A-0.03237 ; [1128]  (54.653°)
G1 X55.12 Y84.493 E17.83351 A-0.02197 ; [1129]  (54.632°)
G1 X54.698 Y84.524 E17.84758 A-0.01195 ; [1130]  (54.620°)
G1 X54.256 Y84.53 E17.86228 A-0.00231 ; [1131]  (54.617°)
G1 X53.791 Y84.511 E17.87776 A0.00732 ; [1132]  (54.625°)
G1 F1500 E11.37776 ; [1133]  (No Y coord)
G0 F6000 X53.742 Y85.009 A-0.19189 ; [1134]  (54.433°)
G0 X53.387 Y85.055 A-0.01772 ; [1135]  (54.415°)
G0 X53.251 Y85.982 A-0.35709 ; [1136]  (54.058°)
G0 X53.266 Y86.167 A-0.07125 ; [1137]  (53.987°)
; [1138] TYPE:WALL-INNER
G1 F1500 E17.87776 ; [1139]  (No Y coord)
G1 F1200 X53.779 Y86.212 E17.89489 A-0.01733 ; [1140]  (53.969°)
G1 X54.233 Y86.23 E17.91 A-0.00693 ; [1141]  (53.962°)
G1 X54.704 Y86.224 E17.92567 A0.00231 ; [1142]  (53.965°)
G1 X55.192 Y86.192 E17.94193 A0.01232 ; [1143]  (53.977°)
G1 X55.66 Y86.138 E17.9576 A0.0208 ; [1144]  (53.998°)
G1 X56.112 Y86.064 E17.97284 A0.0285 ; [1145]  (54.026°)
G1 X56.575 Y85.962 E17.9886 A0.03929 ; [1146]  (54.066°)
G1 X57.047 Y85.835 E18.00486 A0.04892 ; [1147]  (54.114°)
G1 X57.477 Y85.696 E18.01989 A0.05354 ; [1148]  (54.168°)
G1 X57.911 Y85.528 E18.03537 A0.06471 ; [1149]  (54.233°)
G1 X58.386 Y85.319 E18.05263 A0.08051 ; [1150]  (54.313°)
G1 X58.775 Y85.123 E18.06712 A0.07551 ; [1151]  (54.389°)
G1 X59.2 Y84.881 E18.08338 A0.09324 ; [1152]  (54.482°)
G1 X59.599 Y84.628 E18.0991 A0.09748 ; [1153]  (54.579°)
G1 X59.972 Y84.364 E18.1143 A0.10173 ; [1154]  (54.681°)
G1 X60.354 Y84.063 E18.13047 A0.116 ; [1155]  (54.797°)
G1 X60.685 Y83.774 E18.14509 A0.11139 ; [1156]  (54.909°)
G1 X61.049 Y83.423 E18.16191 A0.13531 ; [1157]  (55.044°)
G1 X61.372 Y83.078 E18.17763 A0.13302 ; [1158]  (55.177°)
G1 X61.667 Y82.73 E18.1928 A0.13419 ; [1159]  (55.311°)
G1 X61.949 Y82.361 E18.20825 A0.14231 ; [1160]  (55.453°)
G1 X62.232 Y81.951 E18.22482 A0.15816 ; [1161]  (55.612°)
G1 X62.472 Y81.563 E18.23999 A0.1497 ; [1162]  (55.761°)
G1 X62.691 Y81.164 E18.25513 A0.15398 ; [1163]  (55.915°)
G1 X62.911 Y80.709 E18.27194 A0.17563 ; [1164]  (56.091°)
G1 X63.09 Y80.29 E18.28709 A0.16177 ; [1165]  (56.253°)
G1 X63.256 Y79.84 E18.30305 A0.17378 ; [1166]  (56.426°)
G1 X63.385 Y79.42 E18.31766 A0.16224 ; [1167]  (56.589°)
G1 X63.512 Y78.921 E18.33478 A0.19281 ; [1168]  (56.782°)
G1 X63.606 Y78.475 E18.34994 A0.17238 ; [1169]  (56.954°)
G1 X63.675 Y78.007 E18.36568 A0.18094 ; [1170]  (57.135°)
G1 X63.722 Y77.545 E18.38112 A0.17868 ; [1171]  (57.314°)
G1 X63.747 Y77.09 E18.39628 A0.17603 ; [1172]  (57.490°)
G1 X63.746 Y76.559 E18.41394 A0.2055 ; [1173]  (57.695°)
G1 X63.724 Y76.123 E18.42846 A0.1688 ; [1174]  (57.864°)
G1 X63.674 Y75.639 E18.44464 A0.18745 ; [1175]  (58.051°)
G1 X63.603 Y75.169 E18.46045 A0.1821 ; [1176]  (58.233°)
G1 X63.507 Y74.711 E18.47602 A0.17751 ; [1177]  (58.411°)
G1 X63.396 Y74.278 E18.49089 A0.16789 ; [1178]  (58.579°)
G1 X63.248 Y73.798 E18.50759 A0.18618 ; [1179]  (58.765°)
G1 X63.085 Y73.357 E18.52323 A0.17113 ; [1180]  (58.936°)
G1 X62.899 Y72.924 E18.5389 A0.16809 ; [1181]  (59.104°)
G1 X62.702 Y72.52 E18.55385 A0.15689 ; [1182]  (59.261°)
G1 X62.463 Y72.083 E18.57042 A0.16977 ; [1183]  (59.431°)
G1 X62.215 Y71.686 E18.58599 A0.15429 ; [1184]  (59.585°)
G1 X61.968 Y71.326 E18.60051 A0.13997 ; [1185]  (59.725°)
G1 X61.656 Y70.918 E18.61759 A0.15869 ; [1186]  (59.884°)
G1 X61.351 Y70.562 E18.63318 A0.13852 ; [1187]  (60.022°)
G1 X61.038 Y70.226 E18.64846 A0.13078 ; [1188]  (60.153°)
G1 X60.705 Y69.905 E18.66384 A0.12499 ; [1189]  (60.278°)
G1 X60.347 Y69.593 E18.67964 A0.12152 ; [1190]  (60.400°)
G1 X59.977 Y69.302 E18.69529 A0.11338 ; [1191]  (60.513°)
G1 X59.574 Y69.018 E18.71169 A0.11069 ; [1192]  (60.624°)
G1 X59.193 Y68.776 E18.7267 A0.09435 ; [1193]  (60.718°)
G1 X58.783 Y68.544 E18.74237 A0.09047 ; [1194]  (60.808°)
G1 X58.353 Y68.325 E18.75842 A0.08542 ; [1195]  (60.894°)
G1 X57.921 Y68.136 E18.7741 A0.07374 ; [1196]  (60.968°)
G1 X57.479 Y67.967 E18.78984 A0.06595 ; [1197]  (61.034°)
G1 X57.001 Y67.812 E18.80656 A0.0605 ; [1198]  (61.094°)
G1 X56.613 Y67.708 E18.81992 A0.0406 ; [1199]  (61.135°)
G1 X56.119 Y67.6 E18.83674 A0.04217 ; [1200]  (61.177°)
G1 X55.646 Y67.521 E18.85269 A0.03085 ; [1201]  (61.208°)
G1 X55.161 Y67.467 E18.86892 A0.02109 ; [1202]  (61.229°)
G1 X54.73 Y67.439 E18.88328 A0.01093 ; [1203]  (61.240°)
G1 X54.241 Y67.432 E18.89955 A0.00273 ; [1204]  (61.242°)
G1 X53.747 Y67.451 E18.91599 A-0.00742 ; [1205]  (61.235°)
G1 X53.277 Y67.494 E18.93169 A-0.01679 ; [1206]  (61.218°)
G1 X52.825 Y67.557 E18.94687 A-0.0246 ; [1207]  (61.194°)
G1 X52.344 Y67.649 E18.96315 A-0.03592 ; [1208]  (61.158°)
G1 X51.899 Y67.758 E18.97839 A-0.04255 ; [1209]  (61.115°)
G1 X51.43 Y67.897 E18.99466 A-0.05426 ; [1210]  (61.061°)
G1 X50.976 Y68.058 E19.01068 A-0.06283 ; [1211]  (60.998°)
G1 X50.579 Y68.222 E19.02497 A-0.06399 ; [1212]  (60.934°)
G1 X50.123 Y68.436 E19.04172 A-0.08348 ; [1213]  (60.851°)
G1 X49.729 Y68.647 E19.05659 A-0.08229 ; [1214]  (60.768°)
G1 X49.324 Y68.889 E19.07228 A-0.09436 ; [1215]  (60.674°)
G1 X48.923 Y69.158 E19.08834 A-0.10486 ; [1216]  (60.569°)
G1 X48.536 Y69.448 E19.10443 A-0.11301 ; [1217]  (60.456°)
G1 X48.197 Y69.726 E19.11901 A-0.1083 ; [1218]  (60.348°)
G1 X47.847 Y70.045 E19.13476 A-0.12423 ; [1219]  (60.224°)
G1 X47.49 Y70.406 E19.15165 A-0.14054 ; [1220]  (60.083°)
G1 X47.2 Y70.73 E19.16611 A-0.12609 ; [1221]  (59.957°)
G1 X46.88 Y71.129 E19.18312 A-0.15522 ; [1222]  (59.802°)
G1 X46.599 Y71.517 E19.19905 A-0.15088 ; [1223]  (59.651°)
G1 X46.346 Y71.907 E19.21451 A-0.1516 ; [1224]  (59.499°)
G1 X46.12 Y72.296 E19.22948 A-0.15115 ; [1225]  (59.348°)
G1 X45.907 Y72.703 E19.24476 A-0.15809 ; [1226]  (59.190°)
G1 X45.692 Y73.178 E19.2621 A-0.18442 ; [1227]  (59.006°)
G1 X45.527 Y73.593 E19.27695 A-0.16106 ; [1228]  (58.845°)
G1 X45.37 Y74.055 E19.29318 A-0.17923 ; [1229]  (58.665°)
G1 X45.248 Y74.493 E19.3083 A-0.16986 ; [1230]  (58.495°)
G1 X45.143 Y74.949 E19.32387 A-0.17677 ; [1231]  (58.319°)
G1 X45.063 Y75.395 E19.33894 A-0.17283 ; [1232]  (58.146°)
G1 X45.016 Y75.747 E19.35075 A-0.13636 ; [1233]  (58.009°)
G1 X44.964 Y76.358 E19.37115 A-0.2366 ; [1234]  (57.773°)
G1 X44.952 Y76.823 E19.38662 A-0.17999 ; [1235]  (57.593°)
G1 X44.963 Y77.285 E19.40199 A-0.17877 ; [1236]  (57.414°)
G1 X45.002 Y77.786 E19.4187 A-0.19379 ; [1237]  (57.220°)
G1 X45.059 Y78.242 E19.43399 A-0.17633 ; [1238]  (57.044°)
G1 X45.145 Y78.722 E19.4502 A-0.18555 ; [1239]  (56.858°)
G1 X45.251 Y79.181 E19.46587 A-0.17738 ; [1240]  (56.681°)
G1 X45.378 Y79.623 E19.48117 A-0.17076 ; [1241]  (56.510°)
G1 X45.533 Y80.086 E19.49741 A-0.17883 ; [1242]  (56.331°)
G1 X45.708 Y80.52 E19.51297 A-0.16758 ; [1243]  (56.164°)
G1 X45.897 Y80.94 E19.52829 A-0.16214 ; [1244]  (56.002°)
G1 X46.106 Y81.343 E19.54339 A-0.15554 ; [1245]  (55.846°)
G1 X46.352 Y81.765 E19.55964 A-0.16284 ; [1246]  (55.683°)
G1 X46.597 Y82.141 E19.57456 A-0.14506 ; [1247]  (55.538°)
G1 X46.885 Y82.537 E19.59085 A-0.15274 ; [1248]  (55.386°)
G1 X47.18 Y82.904 E19.60651 A-0.14153 ; [1249]  (55.244°)
G1 X47.488 Y83.252 E19.62197 A-0.13418 ; [1250]  (55.110°)
G1 X47.832 Y83.602 E19.63829 A-0.13493 ; [1251]  (54.975°)
G1 X48.193 Y83.932 E19.65456 A-0.1272 ; [1252]  (54.848°)
G1 X48.542 Y84.221 E19.66963 A-0.11139 ; [1253]  (54.736°)
G1 X48.934 Y84.512 E19.68587 A-0.11214 ; [1254]  (54.624°)
G1 X49.326 Y84.773 E19.70153 A-0.10057 ; [1255]  (54.524°)
G1 X49.733 Y85.015 E19.71728 A-0.09324 ; [1256]  (54.430°)
G1 X50.152 Y85.239 E19.73308 A-0.0863 ; [1257]  (54.344°)
G1 X50.528 Y85.417 E19.74692 A-0.06857 ; [1258]  (54.275°)
G1 X50.992 Y85.61 E19.76363 A-0.07435 ; [1259]  (54.201°)
G1 X51.46 Y85.772 E19.7801 A-0.0624 ; [1260]  (54.139°)
G1 X51.901 Y85.903 E19.7954 A-0.05046 ; [1261]  (54.088°)
G1 X52.375 Y86.019 E19.81163 A-0.04468 ; [1262]  (54.044°)
G1 X52.8 Y86.101 E19.82603 A-0.03158 ; [1263]  (54.012°)
G1 X53.266 Y86.167 E19.84168 A-0.02542 ; [1264]  (53.987°)
G0 F6000 X53.22 Y86.565 A-0.15327 ; [1265]  (53.833°)
; [1266] TYPE:WALL-OUTER
G1 F1200 X53.737 Y86.611 E19.85895 A-0.01771 ; [1267]  (53.816°)
G1 X54.228 Y86.63 E19.87529 A-0.00732 ; [1268]  (53.808°)
G1 X54.719 Y86.624 E19.89162 A0.00231 ; [1269]  (53.811°)
G1 X55.185 Y86.595 E19.90715 A0.01117 ; [1270]  (53.822°)
G1 X55.675 Y86.54 E19.92355 A0.02118 ; [1271]  (53.843°)
G1 X56.187 Y86.457 E19.9408 A0.03196 ; [1272]  (53.875°)
G1 X56.677 Y86.349 E19.95749 A0.04159 ; [1273]  (53.917°)
G1 X57.171 Y86.216 E19.97451 A0.05122 ; [1274]  (53.968°)
G1 X57.611 Y86.073 E19.9899 A0.05507 ; [1275]  (54.023°)
G1 X58.027 Y85.914 E20.00471 A0.06124 ; [1276]  (54.084°)
G1 X58.565 Y85.677 E20.02426 A0.09129 ; [1277]  (54.175°)
G1 X58.963 Y85.476 E20.03909 A0.07743 ; [1278]  (54.253°)
G1 X59.393 Y85.233 E20.05552 A0.09361 ; [1279]  (54.346°)
G1 X59.83 Y84.955 E20.07275 A0.1071 ; [1280]  (54.453°)
G1 X60.211 Y84.685 E20.08828 A0.10403 ; [1281]  (54.558°)
G1 X60.617 Y84.365 E20.10547 A0.12331 ; [1282]  (54.681°)
G1 X60.949 Y84.075 E20.12013 A0.11176 ; [1283]  (54.793°)
G1 X61.323 Y83.715 E20.1374 A0.13876 ; [1284]  (54.931°)
G1 X61.677 Y83.337 E20.15462 A0.14572 ; [1285]  (55.077°)
G1 X61.979 Y82.981 E20.17015 A0.13726 ; [1286]  (55.214°)
G1 X62.264 Y82.609 E20.18574 A0.14345 ; [1287]  (55.358°)
G1 X62.558 Y82.185 E20.2029 A0.16354 ; [1288]  (55.521°)
G1 X62.818 Y81.765 E20.21933 A0.16203 ; [1289]  (55.683°)
G1 X63.054 Y81.334 E20.23567 A0.16631 ; [1290]  (55.850°)
G1 X63.279 Y80.867 E20.25291 A0.18024 ; [1291]  (56.030°)
G1 X63.462 Y80.438 E20.26842 A0.16562 ; [1292]  (56.196°)
G1 X63.63 Y79.984 E20.28452 A0.17531 ; [1293]  (56.371°)
G1 X63.776 Y79.506 E20.30115 A0.18463 ; [1294]  (56.555°)
G1 X63.904 Y79.003 E20.31841 A0.19435 ; [1295]  (56.750°)
G1 X64 Y78.545 E20.33398 A0.17701 ; [1296]  (56.927°)
G1 X64.073 Y78.057 E20.35039 A0.18867 ; [1297]  (57.115°)
G1 X64.121 Y77.593 E20.3659 A0.17945 ; [1298]  (57.295°)
G1 X64.147 Y77.1 E20.38232 A0.19073 ; [1299]  (57.486°)
G1 X64.146 Y76.539 E20.40098 A0.21712 ; [1300]  (57.703°)
G1 X64.123 Y76.093 E20.41583 A0.17267 ; [1301]  (57.875°)
G1 X64.07 Y75.58 E20.43299 A0.19869 ; [1302]  (58.074°)
G1 X63.995 Y75.088 E20.44954 A0.19063 ; [1303]  (58.265°)
G1 X63.895 Y74.612 E20.46572 A0.1845 ; [1304]  (58.449°)
G1 X63.774 Y74.147 E20.4817 A0.18031 ; [1305]  (58.630°)
G1 X63.624 Y73.66 E20.49865 A0.18892 ; [1306]  (58.819°)
G1 X63.463 Y73.223 E20.51414 A0.16959 ; [1307]  (58.988°)
G1 X63.28 Y72.795 E20.52962 A0.16617 ; [1308]  (59.154°)
G1 X63.054 Y72.328 E20.54688 A0.18138 ; [1309]  (59.336°)
G1 X62.818 Y71.896 E20.56325 A0.16786 ; [1310]  (59.504°)
G1 X62.571 Y71.498 E20.57883 A0.15471 ; [1311]  (59.658°)
G1 X62.277 Y71.072 E20.59604 A0.16566 ; [1312]  (59.824°)
G1 X61.979 Y70.68 E20.61242 A0.1525 ; [1313]  (59.976°)
G1 X61.66 Y70.306 E20.62877 A0.14556 ; [1314]  (60.122°)
G1 X61.323 Y69.946 E20.64517 A0.14016 ; [1315]  (60.262°)
G1 X60.969 Y69.605 E20.66152 A0.13282 ; [1316]  (60.395°)
G1 X60.615 Y69.295 E20.67717 A0.12078 ; [1317]  (60.516°)
G1 X60.231 Y68.991 E20.69346 A0.11849 ; [1318]  (60.634°)
G1 X59.79 Y68.681 E20.71139 A0.12087 ; [1319]  (60.755°)
G1 X59.391 Y68.428 E20.7271 A0.09867 ; [1320]  (60.854°)
G1 X58.985 Y68.198 E20.74262 A0.08973 ; [1321]  (60.943°)
G1 X58.524 Y67.963 E20.75983 A0.0917 ; [1322]  (61.035°)
G1 X58.051 Y67.757 E20.77699 A0.08041 ; [1323]  (61.116°)
G1 X57.613 Y67.589 E20.7926 A0.06559 ; [1324]  (61.181°)
G1 X57.131 Y67.433 E20.80945 A0.06092 ; [1325]  (61.242°)
G1 X56.693 Y67.316 E20.82452 A0.04569 ; [1326]  (61.288°)
G1 X56.21 Y67.21 E20.84097 A0.0414 ; [1327]  (61.329°)
G1 X55.702 Y67.125 E20.8581 A0.0332 ; [1328]  (61.362°)
G1 X55.212 Y67.069 E20.87451 A0.02188 ; [1329]  (61.384°)
G1 X54.746 Y67.039 E20.89004 A0.01172 ; [1330]  (61.396°)
G1 X54.226 Y67.032 E20.90733 A0.00273 ; [1331]  (61.399°)
G1 X53.712 Y67.052 E20.92444 A-0.00781 ; [1332]  (61.391°)
G1 X53.246 Y67.094 E20.94 A-0.01641 ; [1333]  (61.375°)
G1 X52.735 Y67.166 E20.95717 A-0.02813 ; [1334]  (61.346°)
G1 X52.249 Y67.26 E20.97363 A-0.03672 ; [1335]  (61.310°)
G1 X51.787 Y67.374 E20.98946 A-0.04453 ; [1336]  (61.265°)
G1 X51.297 Y67.519 E21.00646 A-0.05662 ; [1337]  (61.209°)
G1 X50.861 Y67.673 E21.02183 A-0.06013 ; [1338]  (61.148°)
G1 X50.404 Y67.862 E21.03828 A-0.07378 ; [1339]  (61.075°)
G1 X49.957 Y68.071 E21.0547 A-0.08157 ; [1340]  (60.993°)
G1 X49.525 Y68.303 E21.071 A-0.09052 ; [1341]  (60.903°)
G1 X49.123 Y68.543 E21.08658 A-0.09362 ; [1342]  (60.809°)
G1 X48.692 Y68.831 E21.10382 A-0.11231 ; [1343]  (60.697°)
G1 X48.282 Y69.138 E21.12085 A-0.11968 ; [1344]  (60.577°)
G1 X47.935 Y69.423 E21.13579 A-0.11106 ; [1345]  (60.466°)
G1 X47.57 Y69.756 E21.15222 A-0.12973 ; [1346]  (60.336°)
G1 X47.206 Y70.123 E21.16941 A-0.14292 ; [1347]  (60.193°)
G1 X46.878 Y70.491 E21.18581 A-0.14325 ; [1348]  (60.050°)
G1 X46.588 Y70.851 E21.20119 A-0.14008 ; [1349]  (59.910°)
G1 X46.263 Y71.299 E21.21959 A-0.17426 ; [1350]  (59.736°)
G1 X46 Y71.705 E21.23568 A-0.15785 ; [1351]  (59.578°)
G1 X45.766 Y72.11 E21.25124 A-0.1574 ; [1352]  (59.420°)
G1 X45.548 Y72.526 E21.26686 A-0.16161 ; [1353]  (59.259°)
G1 X45.364 Y72.928 E21.28157 A-0.15611 ; [1354]  (59.103°)
G1 X45.151 Y73.454 E21.30044 A-0.20418 ; [1355]  (58.898°)
G1 X44.993 Y73.92 E21.31681 A-0.18081 ; [1356]  (58.718°)
G1 X44.86 Y74.394 E21.33318 A-0.18384 ; [1357]  (58.534°)
G1 X44.754 Y74.852 E21.34882 A-0.17756 ; [1358]  (58.356°)
G1 X44.667 Y75.334 E21.36511 A-0.18679 ; [1359]  (58.169°)
G1 X44.6 Y75.874 E21.3832 A-0.20918 ; [1360]  (57.960°)
G1 X44.564 Y76.338 E21.39868 A-0.17967 ; [1361]  (57.781°)
G1 X44.552 Y76.833 E21.41515 A-0.19161 ; [1362]  (57.589°)
G1 X44.564 Y77.321 E21.43139 A-0.18883 ; [1363]  (57.400°)
G1 X44.604 Y77.836 E21.44857 A-0.1992 ; [1364]  (57.201°)
G1 X44.663 Y78.302 E21.46419 A-0.18019 ; [1365]  (57.021°)
G1 X44.749 Y78.786 E21.48054 A-0.18709 ; [1366]  (56.834°)
G1 X44.866 Y79.289 E21.49772 A-0.19437 ; [1367]  (56.639°)
G1 X44.998 Y79.75 E21.51367 A-0.17809 ; [1368]  (56.461°)
G1 X45.151 Y80.208 E21.52973 A-0.17688 ; [1369]  (56.284°)
G1 X45.343 Y80.685 E21.54683 A-0.18417 ; [1370]  (56.100°)
G1 X45.549 Y81.138 E21.56338 A-0.17486 ; [1371]  (55.925°)
G1 X45.75 Y81.527 E21.57795 A-0.15012 ; [1372]  (55.775°)
G1 X46.025 Y81.997 E21.59606 A-0.18134 ; [1373]  (55.594°)
G1 X46.267 Y82.367 E21.61076 A-0.14273 ; [1374]  (55.451°)
G1 X46.556 Y82.767 E21.62717 A-0.15427 ; [1375]  (55.297°)
G1 X46.88 Y83.17 E21.64437 A-0.1554 ; [1376]  (55.141°)
G1 X47.208 Y83.538 E21.66077 A-0.14188 ; [1377]  (55.000°)
G1 X47.554 Y83.89 E21.67719 A-0.13569 ; [1378]  (54.864°)
G1 X47.917 Y84.223 E21.69357 A-0.12834 ; [1379]  (54.736°)
G1 X48.294 Y84.535 E21.70985 A-0.12024 ; [1380]  (54.615°)
G1 X48.69 Y84.83 E21.72627 A-0.11367 ; [1381]  (54.502°)
G1 X49.098 Y85.103 E21.7426 A-0.10518 ; [1382]  (54.396°)
G1 X49.522 Y85.356 E21.75902 A-0.09747 ; [1383]  (54.299°)
G1 X49.958 Y85.59 E21.77548 A-0.09014 ; [1384]  (54.209°)
G1 X50.356 Y85.779 E21.79013 A-0.0728 ; [1385]  (54.136°)
G1 X50.85 Y85.984 E21.80792 A-0.07896 ; [1386]  (54.057°)
G1 X51.322 Y86.149 E21.82455 A-0.06355 ; [1387]  (53.994°)
G1 X51.796 Y86.289 E21.84099 A-0.05392 ; [1388]  (53.940°)
G1 X52.273 Y86.407 E21.85733 A-0.04544 ; [1389]  (53.894°)
G1 X52.734 Y86.495 E21.87294 A-0.03389 ; [1390]  (53.860°)
G1 X53.22 Y86.565 E21.88927 A-0.02696 ; [1391]  (53.833°)
G0 F6000 X53.304 Y85.763 A0.30887 ; [1392]  (54.142°)
; [1393] TYPE:SKIN
G1 F981.6 X53.803 Y85.808 E21.90965 A-0.01733 ; [1394]  (54.125°)
G1 X54.243 Y85.825 E21.92755 A-0.00655 ; [1395]  (54.118°)
G1 F979.6 X54.681 Y85.819 E21.9454 A0.00231 ; [1396]  (54.121°)
G1 F981.6 X55.124 Y85.792 E21.96344 A0.0104 ; [1397]  (54.131°)
G1 F979.6 X55.584 Y85.74 E21.9823 A0.02003 ; [1398]  (54.151°)
G1 X56.029 Y85.667 E22.00068 A0.02812 ; [1399]  (54.179°)
G1 F981.6 X56.458 Y85.573 E22.01854 A0.03621 ; [1400]  (54.215°)
G1 X56.912 Y85.453 E22.03763 A0.04623 ; [1401]  (54.262°)
G1 F977.6 X57.35 Y85.311 E22.05643 A0.0547 ; [1402]  (54.316°)
G1 X57.759 Y85.151 E22.07436 A0.06164 ; [1403]  (54.378°)
G1 X58.196 Y84.96 E22.09383 A0.07359 ; [1404]  (54.452°)
G1 F979.6 X58.579 Y84.767 E22.1113 A0.07436 ; [1405]  (54.526°)
G1 F981.6 X58.994 Y84.532 E22.13069 A0.09055 ; [1406]  (54.616°)
G1 F979.6 X59.376 Y84.29 E22.14912 A0.09326 ; [1407]  (54.710°)
G1 X59.725 Y84.042 E22.16656 A0.09558 ; [1408]  (54.805°)
G1 X60.09 Y83.756 E22.18546 A0.11024 ; [1409]  (54.916°)
G1 F981.6 X60.41 Y83.475 E22.20277 A0.10832 ; [1410]  (55.024°)
G1 F983.6 X60.8 Y83.099 E22.22475 A0.14497 ; [1411]  (55.169°)
G1 F981.6 X61.064 Y82.816 E22.24049 A0.10913 ; [1412]  (55.278°)
G1 X61.348 Y82.48 E22.25838 A0.12958 ; [1413]  (55.408°)
G1 F983.6 X61.609 Y82.139 E22.2758 A0.13153 ; [1414]  (55.539°)
G1 X61.88 Y81.749 E22.29507 A0.15046 ; [1415]  (55.690°)
G1 X62.124 Y81.355 E22.31388 A0.15203 ; [1416]  (55.842°)
G1 X62.336 Y80.969 E22.33175 A0.14898 ; [1417]  (55.991°)
G1 F985.6 X62.54 Y80.55 E22.35062 A0.16175 ; [1418]  (56.152°)
G1 X62.719 Y80.129 E22.36915 A0.16256 ; [1419]  (56.315°)
G1 F983.6 X62.87 Y79.718 E22.38691 A0.15873 ; [1420]  (56.474°)
G1 F981.6 X62.994 Y79.311 E22.40421 A0.15723 ; [1421]  (56.631°)
G1 F983.6 X63.113 Y78.851 E22.42349 A0.17775 ; [1422]  (56.809°)
G1 F981.6 X63.208 Y78.395 E22.44243 A0.17626 ; [1423]  (56.985°)
G1 X63.274 Y77.95 E22.46072 A0.17206 ; [1424]  (57.157°)
G1 F983.6 X63.318 Y77.524 E22.4781 A0.16476 ; [1425]  (57.322°)
G1 X63.341 Y77.087 E22.49586 A0.16907 ; [1426]  (57.491°)
G1 X63.342 Y76.588 E22.51611 A0.19312 ; [1427]  (57.684°)
G1 F981.6 X63.32 Y76.16 E22.53353 A0.1657 ; [1428]  (57.850°)
G1 F979.6 X63.272 Y75.69 E22.55278 A0.18202 ; [1429]  (58.032°)
G1 X63.208 Y75.264 E22.57033 A0.16504 ; [1430]  (58.197°)
G1 F983.6 X63.117 Y74.824 E22.58856 A0.17052 ; [1431]  (58.367°)
G1 X63.011 Y74.407 E22.60602 A0.16167 ; [1432]  (58.529°)
G1 X62.875 Y73.959 E22.62502 A0.17375 ; [1433]  (58.703°)
G1 X62.727 Y73.553 E22.64256 A0.15752 ; [1434]  (58.860°)
G1 X62.539 Y73.112 E22.66201 A0.17116 ; [1435]  (59.031°)
G1 X62.351 Y72.723 E22.67954 A0.15104 ; [1436]  (59.182°)
G1 F979.6 X62.126 Y72.31 E22.6987 A0.16042 ; [1437]  (59.343°)
G1 X61.875 Y71.905 E22.71812 A0.15737 ; [1438]  (59.500°)
G1 F981.6 X61.644 Y71.57 E22.73466 A0.13022 ; [1439]  (59.630°)
G1 F983.6 X61.348 Y71.179 E22.75456 A0.15204 ; [1440]  (59.782°)
G1 F981.6 X61.05 Y70.831 E22.77319 A0.13537 ; [1441]  (59.918°)
G1 F983.6 X60.738 Y70.499 E22.79168 A0.12919 ; [1442]  (60.047°)
G1 F981.6 X60.445 Y70.218 E22.80818 A0.10938 ; [1443]  (60.156°)
G1 F979.6 X60.105 Y69.917 E22.82669 A0.1172 ; [1444]  (60.273°)
G1 F981.6 X59.734 Y69.625 E22.84588 A0.11373 ; [1445]  (60.387°)
G1 X59.369 Y69.368 E22.86403 A0.10013 ; [1446]  (60.487°)
G1 F983.6 X59.004 Y69.135 E22.8816 A0.0908 ; [1447]  (60.578°)
G1 X58.608 Y68.91 E22.90009 A0.08771 ; [1448]  (60.666°)
G1 F981.6 X58.161 Y68.683 E22.92047 A0.08851 ; [1449]  (60.754°)
G1 X57.773 Y68.513 E22.93769 A0.0663 ; [1450]  (60.821°)
G1 X57.343 Y68.348 E22.95642 A0.06436 ; [1451]  (60.885°)
G1 X56.907 Y68.208 E22.97504 A0.05462 ; [1452]  (60.940°)
G1 X56.502 Y68.098 E22.9921 A0.04292 ; [1453]  (60.982°)
G1 X56.05 Y67.999 E23.01092 A0.03863 ; [1454]  (61.021°)
G1 X55.583 Y67.921 E23.03017 A0.03044 ; [1455]  (61.052°)
G1 F983.6 X55.148 Y67.872 E23.04793 A0.01913 ; [1456]  (61.071°)
G1 F985.6 X54.722 Y67.844 E23.06522 A0.01093 ; [1457]  (61.082°)
G1 F983.6 X54.253 Y67.836 E23.08425 A0.00312 ; [1458]  (61.085°)
G1 X53.663 Y67.864 E23.10822 A-0.01093 ; [1459]  (61.074°)
G1 F981.6 X53.322 Y67.897 E23.12215 A-0.01288 ; [1460]  (61.061°)
G1 F979.6 X52.9 Y67.956 E23.13951 A-0.02303 ; [1461]  (61.038°)
G1 F981.6 X52.441 Y68.043 E23.15851 A-0.03395 ; [1462]  (61.004°)
G1 X52.016 Y68.146 E23.17629 A-0.04019 ; [1463]  (60.964°)
G1 X51.563 Y68.279 E23.19549 A-0.05189 ; [1464]  (60.912°)
G1 F979.6 X51.154 Y68.423 E23.21315 A-0.05618 ; [1465]  (60.856°)
G1 F981.6 X50.657 Y68.63 E23.23504 A-0.08074 ; [1466]  (60.775°)
G1 X50.325 Y68.787 E23.24998 A-0.06122 ; [1467]  (60.714°)
G1 F979.6 X49.948 Y68.99 E23.26742 A-0.07914 ; [1468]  (60.635°)
G1 X49.559 Y69.221 E23.28586 A-0.09004 ; [1469]  (60.545°)
G1 X49.164 Y69.485 E23.30521 A-0.10287 ; [1470]  (60.442°)
G1 X48.784 Y69.767 E23.32449 A-0.10985 ; [1471]  (60.332°)
G1 F981.6 X48.462 Y70.031 E23.34142 A-0.10281 ; [1472]  (60.229°)
G1 X48.117 Y70.348 E23.36047 A-0.12341 ; [1473]  (60.106°)
G1 X47.807 Y70.66 E23.37836 A-0.12143 ; [1474]  (59.984°)
G1 X47.497 Y71.007 E23.39728 A-0.135 ; [1475]  (59.849°)
G1 X47.092 Y71.521 E23.42388 A-0.19989 ; [1476]  (59.649°)
G1 F983.6 X46.942 Y71.736 E23.43452 A-0.08358 ; [1477]  (59.566°)
G1 F981.6 X46.691 Y72.121 E23.45321 A-0.14962 ; [1478]  (59.416°)
G1 X46.473 Y72.494 E23.47078 A-0.14491 ; [1479]  (59.271°)
G1 X46.269 Y72.887 E23.48878 A-0.15262 ; [1480]  (59.119°)
G1 F983.6 X46.062 Y73.342 E23.50906 A-0.17663 ; [1481]  (58.942°)
G1 F981.6 X45.911 Y73.728 E23.52592 A-0.14979 ; [1482]  (58.792°)
G1 F977.6 X45.703 Y74.364 E23.55324 A-0.24669 ; [1483]  (58.545°)
G1 F975.6 X45.695 Y74.368 E23.5536 A-0.00155 ; [1484]  (58.544°)
G1 F977.6 X45.544 Y75.011 E23.58057 A-0.24927 ; [1485]  (58.295°)
G1 F981.6 X45.463 Y75.464 E23.59928 A-0.17553 ; [1486]  (58.119°)
G1 F983.6 X45.404 Y75.935 E23.61854 A-0.18244 ; [1487]  (57.937°)
G1 X45.368 Y76.385 E23.63686 A-0.17424 ; [1488]  (57.762°)
G1 F981.6 X45.358 Y76.794 E23.65349 A-0.15832 ; [1489]  (57.604°)
G1 X45.368 Y77.275 E23.67306 A-0.18613 ; [1490]  (57.418°)
G1 F979.6 X45.403 Y77.724 E23.69141 A-0.17368 ; [1491]  (57.244°)
G1 X45.459 Y78.173 E23.70984 A-0.17363 ; [1492]  (57.071°)
G1 X45.543 Y78.641 E23.72921 A-0.18092 ; [1493]  (56.890°)
G1 F981.6 X45.644 Y79.082 E23.74761 A-0.17043 ; [1494]  (56.719°)
G1 F983.6 X45.771 Y79.517 E23.766 A-0.16807 ; [1495]  (56.551°)
G1 X45.909 Y79.934 E23.78382 A-0.16107 ; [1496]  (56.390°)
G1 F981.6 X46.073 Y80.345 E23.80181 A-0.15871 ; [1497]  (56.231°)
G1 F983.6 X46.259 Y80.754 E23.82005 A-0.15791 ; [1498]  (56.074°)
G1 F979.6 X46.467 Y81.155 E23.83845 A-0.15478 ; [1499]  (55.919°)
G1 F977.6 X46.696 Y81.548 E23.85702 A-0.15166 ; [1500]  (55.767°)
G1 F979.6 X46.93 Y81.91 E23.87458 A-0.13967 ; [1501]  (55.627°)
G1 F981.6 X47.194 Y82.273 E23.89283 A-0.14003 ; [1502]  (55.487°)
G1 F983.6 X47.409 Y82.547 E23.90697 A-0.10568 ; [1503]  (55.382°)
G1 X47.785 Y82.974 E23.93005 A-0.16467 ; [1504]  (55.217°)
G1 X48.162 Y83.357 E23.95186 A-0.14767 ; [1505]  (55.069°)
G1 F981.6 X48.442 Y83.611 E23.96723 A-0.09792 ; [1506]  (54.971°)
G1 F977.6 X48.796 Y83.905 E23.98602 A-0.11333 ; [1507]  (54.858°)
G1 F979.6 X49.148 Y84.166 E24.00387 A-0.1006 ; [1508]  (54.758°)
G1 X49.544 Y84.431 E24.02329 A-0.10213 ; [1509]  (54.655°)
G1 F981.6 X49.912 Y84.65 E24.0407 A-0.08439 ; [1510]  (54.571°)
G1 X50.326 Y84.874 E24.05984 A-0.08631 ; [1511]  (54.485°)
G1 F983.6 X50.695 Y85.047 E24.07637 A-0.06665 ; [1512]  (54.418°)
G1 F981.6 X51.123 Y85.226 E24.09524 A-0.06896 ; [1513]  (54.349°)
G1 F979.6 X51.701 Y85.425 E24.12014 A-0.07666 ; [1514]  (54.272°)
G1 F983.6 X52.159 Y85.551 E24.13942 A-0.04854 ; [1515]  (54.224°)
G1 X52.451 Y85.62 E24.15159 A-0.02658 ; [1516]  (54.197°)
G1 F979.6 X52.873 Y85.701 E24.1691 A-0.0312 ; [1517]  (54.166°)
G1 F981.6 X53.304 Y85.763 E24.18681 A-0.02388 ; [1518]  (54.142°)
G0 F6000 X53.26 Y86.065 A-0.11632 ; [1519]  (54.026°)
G0 X54.193 Y86.047 A0.00693 ; [1520]  (54.033°)
G0 X54.231 Y85.111 A0.36055 ; [1521]  (54.393°)
G0 X54.236 Y85.335 A-0.0863 ; [1522]  (54.307°)
G1 F983.6 X53.72 Y85.312 E24.20777 A0.00886 ; [1523]  (54.316°)
G1 F985.6 X53.231 Y85.262 E24.22767 A0.01926 ; [1524]  (54.335°)
G1 X52.768 Y85.186 E24.24667 A0.02928 ; [1525]  (54.364°)
G1 X52.276 Y85.081 E24.26704 A0.04045 ; [1526]  (54.405°)
G1 X51.823 Y84.951 E24.28613 A0.05009 ; [1527]  (54.455°)
G1 F981.6 X51.395 Y84.804 E24.30453 A0.05664 ; [1528]  (54.512°)
G1 F983.6 X50.863 Y84.588 E24.32783 A0.08323 ; [1529]  (54.595°)
G1 F985.6 X50.467 Y84.398 E24.34561 A0.07322 ; [1530]  (54.668°)
G1 F983.6 X50.023 Y84.152 E24.36621 A0.09481 ; [1531]  (54.763°)
G1 X49.625 Y83.901 E24.3853 A0.09674 ; [1532]  (54.860°)
G1 F985.6 X49.226 Y83.619 E24.40509 A0.1087 ; [1533]  (54.968°)
G1 F983.6 X48.843 Y83.311 E24.42503 A0.11874 ; [1534]  (55.087°)
G1 X48.477 Y82.983 E24.44497 A0.12647 ; [1535]  (55.214°)
G1 F985.6 X48.105 Y82.602 E24.46654 A0.14693 ; [1536]  (55.360°)
G1 X47.808 Y82.266 E24.48469 A0.12959 ; [1537]  (55.490°)
G1 F987.7 X47.494 Y81.859 E24.50547 A0.15701 ; [1538]  (55.647°)
G1 F985.6 X47.242 Y81.497 E24.52333 A0.13967 ; [1539]  (55.787°)
G1 X46.979 Y81.069 E24.54367 A0.16517 ; [1540]  (55.952°)
G1 X46.742 Y80.632 E24.5638 A0.16869 ; [1541]  (56.121°)
G1 X46.522 Y80.154 E24.58511 A0.18456 ; [1542]  (56.305°)
G1 X46.343 Y79.699 E24.60491 A0.17573 ; [1543]  (56.481°)
G1 F987.7 X46.19 Y79.229 E24.62488 A0.18157 ; [1544]  (56.662°)
G1 X46.074 Y78.787 E24.64335 A0.1708 ; [1545]  (56.833°)
G1 X45.976 Y78.316 E24.66279 A0.18206 ; [1546]  (57.015°)
G1 X45.905 Y77.824 E24.68288 A0.19024 ; [1547]  (57.206°)
G1 F985.6 X45.861 Y77.335 E24.70276 A0.18915 ; [1548]  (57.395°)
G1 F983.6 X45.847 Y76.886 E24.72099 A0.17373 ; [1549]  (57.568°)
G1 F985.6 X45.861 Y76.32 E24.74392 A0.21909 ; [1550]  (57.788°)
G1 X45.899 Y75.889 E24.76144 A0.16689 ; [1551]  (57.954°)
G1 F987.7 X45.972 Y75.37 E24.78262 A0.20104 ; [1552]  (58.156°)
G1 F985.6 X46.076 Y74.861 E24.80365 A0.19725 ; [1553]  (58.353°)
G1 X46.196 Y74.419 E24.8222 A0.17136 ; [1554]  (58.524°)
G1 X46.342 Y73.974 E24.84117 A0.17258 ; [1555]  (58.697°)
G1 F983.6 X46.535 Y73.474 E24.86291 A0.19399 ; [1556]  (58.891°)
G1 X46.733 Y73.048 E24.88197 A0.16535 ; [1557]  (59.056°)
G1 X46.959 Y72.627 E24.90136 A0.16347 ; [1558]  (59.220°)
G1 F985.6 X47.212 Y72.209 E24.92115 A0.16237 ; [1559]  (59.382°)
G1 X47.501 Y71.787 E24.94186 A0.16399 ; [1560]  (59.546°)
G1 X47.794 Y71.416 E24.961 A0.14423 ; [1561]  (59.690°)
G1 F983.6 X48.169 Y70.987 E24.98413 A0.16684 ; [1562]  (59.857°)
G1 F981.6 X48.469 Y70.688 E25.00135 A0.11633 ; [1563]  (59.973°)
G1 F983.6 X48.797 Y70.386 E25.01944 A0.11753 ; [1564]  (60.091°)
G1 F985.6 X49.187 Y70.074 E25.03966 A0.12146 ; [1565]  (60.212°)
G1 X49.597 Y69.779 E25.06012 A0.11488 ; [1566]  (60.327°)
G1 X50.014 Y69.515 E25.0801 A0.10284 ; [1567]  (60.430°)
G1 X50.462 Y69.266 E25.10086 A0.09702 ; [1568]  (60.527°)
G1 F983.6 X50.878 Y69.068 E25.11955 A0.07717 ; [1569]  (60.604°)
G1 F981.6 X51.33 Y68.88 E25.13946 A0.07329 ; [1570]  (60.677°)
G1 X51.786 Y68.72 E25.15911 A0.06239 ; [1571]  (60.740°)
G1 F985.6 X52.277 Y68.582 E25.17976 A0.05382 ; [1572]  (60.794°)
G1 F987.7 X52.777 Y68.472 E25.20045 A0.0429 ; [1573]  (60.837°)
G1 X53.217 Y68.403 E25.21845 A0.02691 ; [1574]  (60.863°)
G1 F985.6 X53.725 Y68.349 E25.23913 A0.02107 ; [1575]  (60.885°)
G1 F983.6 X54.273 Y68.325 E25.26139 A0.00936 ; [1576]  (60.894°)
G1 F985.6 X54.737 Y68.333 E25.28018 A-0.00312 ; [1577]  (60.891°)
G1 X55.214 Y68.368 E25.29955 A-0.01365 ; [1578]  (60.877°)
G1 X55.69 Y68.431 E25.31899 A-0.02458 ; [1579]  (60.853°)
G1 F987.7 X56.17 Y68.522 E25.33874 A-0.03549 ; [1580]  (60.817°)
G1 F983.6 X56.645 Y68.639 E25.35859 A-0.04563 ; [1581]  (60.771°)
G1 F981.6 X57.177 Y68.81 E25.38131 A-0.06668 ; [1582]  (60.705°)
G1 X57.586 Y68.965 E25.39909 A-0.06043 ; [1583]  (60.644°)
G1 F985.6 X58.007 Y69.151 E25.41773 A-0.0725 ; [1584]  (60.572°)
G1 X58.455 Y69.381 E25.43812 A-0.08963 ; [1585]  (60.482°)
G1 F987.7 X58.872 Y69.625 E25.45765 A-0.09506 ; [1586]  (60.387°)
G1 X59.293 Y69.904 E25.47806 A-0.10867 ; [1587]  (60.278°)
G1 X59.681 Y70.202 E25.49783 A-0.11603 ; [1588]  (60.162°)
G1 F985.6 X60.033 Y70.502 E25.51656 A-0.11678 ; [1589]  (60.046°)
G1 F983.6 X60.407 Y70.857 E25.53748 A-0.13814 ; [1590]  (59.908°)
G1 X60.731 Y71.207 E25.55683 A-0.13614 ; [1591]  (59.771°)
G1 F985.6 X61.066 Y71.607 E25.57796 A-0.15553 ; [1592]  (59.616°)
G1 F989.7 X61.335 Y71.975 E25.59634 A-0.14304 ; [1593]  (59.473°)
G1 F987.7 X61.606 Y72.391 E25.61641 A-0.16163 ; [1594]  (59.311°)
G1 X61.85 Y72.815 E25.63618 A-0.16467 ; [1595]  (59.147°)
G1 X62.063 Y73.243 E25.6555 A-0.16616 ; [1596]  (58.980°)
G1 F983.6 X62.27 Y73.728 E25.67689 A-0.18821 ; [1597]  (58.792°)
G1 X62.412 Y74.112 E25.69351 A-0.14896 ; [1598]  (58.643°)
G1 F985.6 X62.57 Y74.639 E25.71579 A-0.20435 ; [1599]  (58.439°)
G1 F989.7 X62.689 Y75.141 E25.73659 A-0.19458 ; [1600]  (58.244°)
G1 F987.7 X62.764 Y75.583 E25.75471 A-0.17125 ; [1601]  (58.073°)
G1 F983.6 X62.822 Y76.063 E25.77433 A-0.18591 ; [1602]  (57.887°)
G1 X62.85 Y76.548 E25.79404 A-0.18777 ; [1603]  (57.699°)
G1 X62.853 Y77.089 E25.81599 A-0.20938 ; [1604]  (57.490°)
G1 F985.6 X62.826 Y77.571 E25.83554 A-0.18647 ; [1605]  (57.303°)
G1 F987.7 X62.77 Y78.063 E25.85555 A-0.19028 ; [1606]  (57.113°)
G1 X62.684 Y78.532 E25.87482 A-0.18132 ; [1607]  (56.932°)
G1 F989.7 X62.571 Y79.019 E25.89498 A-0.18822 ; [1608]  (56.744°)
G1 X62.439 Y79.463 E25.91366 A-0.17155 ; [1609]  (56.572°)
G1 F985.6 X62.267 Y79.944 E25.93435 A-0.18579 ; [1610]  (56.386°)
G1 F987.7 X62.079 Y80.387 E25.9538 A-0.17107 ; [1611]  (56.215°)
G1 X61.851 Y80.845 E25.97447 A-0.17682 ; [1612]  (56.038°)
G1 X61.607 Y81.27 E25.99427 A-0.16404 ; [1613]  (55.874°)
G1 X61.356 Y81.655 E26.01285 A-0.14857 ; [1614]  (55.726°)
G1 X61.08 Y82.038 E26.03192 A-0.14776 ; [1615]  (55.578°)
G1 X60.76 Y82.422 E26.05212 A-0.14812 ; [1616]  (55.430°)
G1 X60.415 Y82.797 E26.07272 A-0.14462 ; [1617]  (55.285°)
G1 F985.6 X60.041 Y83.151 E26.09357 A-0.1365 ; [1618]  (55.149°)
G1 X59.671 Y83.469 E26.11333 A-0.1226 ; [1619]  (55.026°)
G1 X59.279 Y83.764 E26.13319 A-0.11372 ; [1620]  (54.912°)
G1 F983.6 X58.889 Y84.027 E26.15228 A-0.10137 ; [1621]  (54.811°)
G1 F985.6 X58.467 Y84.274 E26.17208 A-0.0952 ; [1622]  (54.716°)
G1 X58.035 Y84.496 E26.19175 A-0.08555 ; [1623]  (54.630°)
G1 F981.6 X57.541 Y84.71 E26.21364 A-0.08246 ; [1624]  (54.548°)
G1 F979.6 X57.162 Y84.858 E26.23022 A-0.05703 ; [1625]  (54.491°)
G1 F983.6 X56.654 Y85.019 E26.25184 A-0.06203 ; [1626]  (54.429°)
G1 F987.7 X56.174 Y85.14 E26.27184 A-0.04662 ; [1627]  (54.382°)
G1 X55.673 Y85.234 E26.29244 A-0.03621 ; [1628]  (54.346°)
G1 X55.214 Y85.292 E26.31114 A-0.02234 ; [1629]  (54.324°)
G1 F985.6 X54.767 Y85.326 E26.32929 A-0.0131 ; [1630]  (54.311°)
M104 S200 ; [1631]
G1 F981.6 X54.236 Y85.335 E26.35089 A-0.00347 ; [1632]  (54.307°)
G1 F1500 E19.85089 ; [1633]  (No Y coord)
; [1634] MESH:NONMESH
; ::: End layer 0 postamble :::
; ====== End layer 0 ====
; ==== Start layer 1 ====
; ::: Layer 1 preamble :::
G0 F300 X54.236 Y85.335 Z0.4 ; [1635]  - gcline.y (85.335) == prev_loc.y (85.335)
G0 F6000 X54.233 Y85.031 A0.11712 ; [1636]  (54.424°)
G0 X53.329 Y84.665 A0.14102 ; [1637]  (54.565°)
G0 X53.467 Y83.609 A0.40699 ; [1638]  (54.972°)
G0 X53.907 Y79.958 A1.40867 ; [1639]  (56.381°)
; ::: End layer 1 preamble :::
; Layer 1 - <Step 0 (786 segments)>: Thread not in layer> -------------------------
G0 X53.657 Y78.595 A0.52662 ; [1640]  (56.908°)
; [1641] TIME_ELAPSED:49.063226
; [1642] LAYER:1
M106 S85 ; [1643]
; [1644] TYPE:WALL-INNER
; [1645] MESH:Router test 2.3mf
G1 F1500 E26.35089 ; [1646]  (No Y coord)
G1 F1350 X54.024 Y78.699 E26.36357 A-0.0402 ; [1647]  (56.867°)
G1 X54.398 Y78.727 E26.37605 A-0.01082 ; [1648]  (56.856°)
G1 X54.865 Y78.667 E26.39171 A0.02319 ; [1649]  (56.880°)
G1 X55.3 Y78.472 E26.40756 A0.07538 ; [1650]  (56.955°)
G1 X55.683 Y78.197 E26.42324 A0.10632 ; [1651]  (57.061°)
G1 X55.97 Y77.817 E26.43908 A0.14694 ; [1652]  (57.208°)
G1 X56.175 Y77.393 E26.45475 A0.164 ; [1653]  (57.372°)
G1 X56.26 Y76.831 E26.47365 A0.21746 ; [1654]  (57.590°)
G1 X56.188 Y76.363 E26.4894 A0.18115 ; [1655]  (57.771°)
G1 X56.059 Y76.006 E26.50203 A0.13823 ; [1656]  (57.909°)
G1 X55.863 Y75.684 E26.51456 A0.12471 ; [1657]  (58.034°)
G1 X55.609 Y75.41 E26.52699 A0.10615 ; [1658]  (58.140°)
G1 X55.221 Y75.132 E26.54287 A0.10772 ; [1659]  (58.248°)
G1 X54.775 Y74.982 E26.55852 A0.05813 ; [1660]  (58.306°)
G1 X54.399 Y74.935 E26.57112 A0.01822 ; [1661]  (58.324°)
G1 X54.024 Y74.963 E26.58363 A-0.01085 ; [1662]  (58.313°)
G1 X53.565 Y75.092 E26.59949 A-0.04999 ; [1663]  (58.263°)
G1 X53.085 Y75.401 E26.61847 A-0.11973 ; [1664]  (58.143°)
G1 X52.722 Y75.833 E26.63724 A-0.16734 ; [1665]  (57.976°)
G1 X52.54 Y76.269 E26.65295 A-0.16884 ; [1666]  (57.807°)
G1 X52.463 Y76.645 E26.66572 A-0.14556 ; [1667]  (57.662°)
G1 X52.463 Y77.021 E26.67822 A-0.14552 ; [1668]  (57.516°)
G1 X52.557 Y77.482 E26.69387 A-0.17836 ; [1669]  (57.338°)
G1 X52.827 Y77.979 E26.71269 A-0.19222 ; [1670]  (57.146°)
G1 X53.239 Y78.381 E26.73183 A-0.15543 ; [1671]  (56.990°)
G1 X53.657 Y78.595 E26.74745 A-0.08272 ; [1672]  (56.908°)
G0 F7500 X53.715 Y78.507 A0.03402 ; [1673]  (56.942°)
G0 X54.807 Y78.574 A-0.0259 ; [1674]  (56.916°)
G0 X54.975 Y79.057 A-0.18667 ; [1675]  (56.729°)
; [1676] TYPE:WALL-OUTER
G1 F1350 X55.501 Y78.82 E26.76664 A0.09159 ; [1677]  (56.821°)
G1 X55.965 Y78.487 E26.78563 A0.12871 ; [1678]  (56.949°)
G1 X56.313 Y78.027 E26.80482 A0.17785 ; [1679]  (57.127°)
G1 X56.561 Y77.512 E26.82383 A0.19918 ; [1680]  (57.326°)
G1 X56.664 Y76.831 E26.84674 A0.26349 ; [1681]  (57.590°)
G1 X56.578 Y76.263 E26.86585 A0.21987 ; [1682]  (57.810°)
G1 X56.421 Y75.832 E26.8811 A0.1669 ; [1683]  (57.977°)
G1 X56.183 Y75.442 E26.8963 A0.15107 ; [1684]  (58.128°)
G1 X55.875 Y75.108 E26.91141 A0.12942 ; [1685]  (58.257°)
G1 X55.405 Y74.772 E26.93062 A0.13023 ; [1686]  (58.387°)
G1 X54.865 Y74.59 E26.94958 A0.07056 ; [1687]  (58.458°)
G1 X54.409 Y74.533 E26.96486 A0.0221 ; [1688]  (58.480°)
G1 X53.954 Y74.567 E26.98004 A-0.01318 ; [1689]  (58.467°)
G1 X53.399 Y74.723 E26.99921 A-0.06048 ; [1690]  (58.406°)
G1 X52.817 Y75.097 E27.02222 A-0.14496 ; [1691]  (58.261°)
G1 X52.376 Y75.623 E27.04505 A-0.2038 ; [1692]  (58.057°)
G1 X52.156 Y76.151 E27.06408 A-0.20449 ; [1693]  (57.853°)
G1 X52.063 Y76.605 E27.07949 A-0.17576 ; [1694]  (57.677°)
G1 X52.063 Y77.061 E27.09466 A-0.17648 ; [1695]  (57.501°)
G1 X52.177 Y77.62 E27.11363 A-0.21626 ; [1696]  (57.285°)
G1 X52.505 Y78.223 E27.13646 A-0.23319 ; [1697]  (57.051°)
G1 X53.004 Y78.71 E27.15965 A-0.18826 ; [1698]  (56.863°)
G1 X53.51 Y78.969 E27.17856 A-0.1001 ; [1699]  (56.763°)
G1 X53.954 Y79.095 E27.19391 A-0.04869 ; [1700]  (56.714°)
G1 X54.408 Y79.129 E27.20905 A-0.01314 ; [1701]  (56.701°)
G1 X54.975 Y79.057 E27.22806 A0.02782 ; [1702]  (56.729°)
G0 F7500 X54.807 Y78.574 A0.18667 ; [1703]  (56.916°)
G0 X53.668 Y78.488 A0.03324 ; [1704]  (56.949°)
G0 X53.787 Y78.257 A0.0893 ; [1705]  (57.038°)
; [1706] TYPE:SKIN
G1 F1350 X54.089 Y78.343 E27.23851 A-0.03325 ; [1707]  (57.005°)
G1 X54.389 Y78.365 E27.24851 A-0.00851 ; [1708]  (56.996°)
G1 X54.766 Y78.316 E27.26116 A0.01894 ; [1709]  (57.015°)
G1 X55.12 Y78.157 E27.27406 A0.06147 ; [1710]  (57.077°)
G1 X55.425 Y77.938 E27.28655 A0.08468 ; [1711]  (57.162°)
G1 X55.662 Y77.626 E27.29958 A0.12067 ; [1712]  (57.282°)
G1 X55.826 Y77.286 E27.31214 A0.13152 ; [1713]  (57.414°)
G1 X55.894 Y76.832 E27.32741 A0.17567 ; [1714]  (57.589°)
G1 X55.837 Y76.452 E27.34019 A0.14709 ; [1715]  (57.736°)
G1 X55.732 Y76.162 E27.35045 A0.11228 ; [1716]  (57.849°)
G1 X55.573 Y75.903 E27.36055 A0.1003 ; [1717]  (57.949°)
G1 X55.371 Y75.683 E27.37049 A0.08521 ; [1718]  (58.034°)
G1 X55.054 Y75.456 E27.38346 A0.08794 ; [1719]  (58.122°)
G1 X54.697 Y75.336 E27.39598 A0.04649 ; [1720]  (58.169°)
G1 X54.39 Y75.297 E27.40628 A0.01511 ; [1721]  (58.184°)
G1 X54.09 Y75.32 E27.41628 A-0.00891 ; [1722]  (58.175°)
G1 X53.712 Y75.427 E27.42935 A-0.04146 ; [1723]  (58.133°)
G1 X53.322 Y75.676 E27.44474 A-0.09646 ; [1724]  (58.037°)
G1 X53.034 Y76.021 E27.45969 A-0.13362 ; [1725]  (57.903°)
G1 X52.888 Y76.374 E27.47239 A-0.13668 ; [1726]  (57.767°)
G1 X52.823 Y76.684 E27.48293 A-0.12 ; [1727]  (57.647°)
G1 X52.823 Y76.986 E27.49297 A-0.11688 ; [1728]  (57.530°)
G1 X52.899 Y77.355 E27.5055 A-0.14277 ; [1729]  (57.387°)
G1 X53.116 Y77.755 E27.52064 A-0.15472 ; [1730]  (57.232°)
G1 X53.454 Y78.085 E27.53635 A-0.12761 ; [1731]  (57.105°)
G1 X53.787 Y78.257 E27.54882 A-0.0665 ; [1732]  (57.038°)
G0 F7500 X53.668 Y78.488 A-0.0893 ; [1733]  (56.949°)
G0 X54.393 Y78.533 A-0.0174 ; [1734]  (56.931°)
G0 X55.088 Y78.457 A0.02938 ; [1735]  (56.961°)
G0 X54.899 Y78.036 A0.16277 ; [1736]  (57.124°)
G1 F1350 X55.56 Y77.375 E27.57991 A0.25565 ; [1737]  (57.379°)
G0 F7500 X55.671 Y76.699 A0.26158 ; [1738]  (57.641°)
G1 F1350 X54.218 Y78.151 E27.64823 A-0.5617 ; [1739]  (57.079°)
G0 F7500 X53.777 Y78.027 A0.04795 ; [1740]  (57.127°)
G1 F1350 X55.552 Y76.252 E27.73172 A0.6868 ; [1741]  (57.814°)
G0 F7500 X55.317 Y75.921 A0.12817 ; [1742]  (57.942°)
G1 F1350 X53.443 Y77.795 E27.81987 A-0.72525 ; [1743]  (57.217°)
G0 F7500 X53.194 Y77.479 A0.12222 ; [1744]  (57.339°)
G1 F1350 X55.006 Y75.666 E27.90512 A0.70179 ; [1745]  (58.041°)
G0 F7500 X54.585 Y75.522 A0.05578 ; [1746]  (58.097°)
G1 F1350 X53.043 Y77.064 E27.97765 A-0.59702 ; [1747]  (57.500°)
G0 F7500 X53.071 Y76.47 A0.2299 ; [1748]  (57.729°)
G1 F1350 X53.985 Y75.556 E28.02064 A0.35395 ; [1749]  (58.083°)
G1 F1500 E21.52064 ; [1750]  (No Y coord)
; [1751] MESH:Router test 2.3mf(1)
