;FLAVOR:Marlin
;TIME:233
;Filament used: 0.142581m
;Layer height: 0.2
;MINX:33.36
;MINY:55.841
;MINZ:0.2
;MAXX:75.342
;MAXY:97.821
;MAXZ:2
;Generated with Cura_SteamEngine 5.2.2
M82 ;absolute extrusion mode
; Ender 3 Custom Start G-code
G92 E0 ; Reset Extruder
G28 ; Home all axes
M104 S175 ; Start heating up the nozzle most of the way
M190 S60 ; Start heating the bed, wait until target temperature reached
M109 S200 ; Finish heating the nozzle
G1 Z2.0 F3000 ; Move Z Axis up little to prevent scratching of Heat Bed
G1 X0.1 Y20 Z0.3 F5000.0 ; Move to start position
G1 X0.1 Y200.0 Z0.3 F1500.0 E15 ; Draw the first line
G1 X0.4 Y200.0 Z0.3 F5000.0 ; Move to side a little
G1 X0.4 Y20 Z0.3 F1500.0 E30 ; Draw the second line
G92 E0 ; Reset Extruder
G1 Z2.0 F3000 ; Move Z Axis up little to prevent scratching of Heat Bed
G1 X5 Y20 Z0.3 F5000.0 ; Move over to prevent blob squish
G92 E0
G92 E0
G1 F1500 E-6.5
;LAYER_COUNT:10
;LAYER:0
M107
G0 F6000 X42.333 Y59.621 Z0.2
;TYPE:SKIRT
G1 F1500 E0
G1 F1200 X42.768 Y59.325 E0.0175
G1 X43.125 Y59.094 E0.03164
G1 X43.584 Y58.812 E0.04956
G1 X44.067 Y58.532 E0.06813
G1 X44.532 Y58.278 E0.08575
G1 X44.944 Y58.065 E0.10118
G1 X45.471 Y57.81 E0.12065
G1 X45.943 Y57.597 E0.13787
G1 X46.447 Y57.384 E0.15607
G1 X46.885 Y57.212 E0.17172
G1 X47.391 Y57.028 E0.18963
G1 X47.898 Y56.857 E0.20743
G1 X48.446 Y56.688 E0.2265
G1 X48.928 Y56.553 E0.24315
G1 X49.44 Y56.423 E0.26072
G1 X49.916 Y56.314 E0.27696
G1 X50.459 Y56.203 E0.29539
G1 X50.952 Y56.116 E0.31204
G1 X51.505 Y56.033 E0.33064
G1 X52.003 Y55.971 E0.34733
G1 X52.585 Y55.914 E0.36678
G1 X53.136 Y55.875 E0.38516
G1 X53.706 Y55.85 E0.40413
G1 X54.184 Y55.841 E0.42003
G1 X54.717 Y55.844 E0.43776
G1 X55.223 Y55.859 E0.4546
G1 X55.742 Y55.887 E0.47189
G1 X56.222 Y55.924 E0.4879
G1 X56.821 Y55.986 E0.50793
G1 X57.357 Y56.057 E0.52591
G1 X57.893 Y56.142 E0.54396
G1 X58.374 Y56.23 E0.56023
G1 X58.884 Y56.335 E0.57754
G1 X59.366 Y56.447 E0.594
G1 X59.898 Y56.585 E0.61228
G1 X60.339 Y56.711 E0.62754
G1 X60.875 Y56.879 E0.64622
G1 X61.384 Y57.053 E0.66411
G1 X61.884 Y57.238 E0.68184
G1 X62.335 Y57.417 E0.69798
G1 X62.841 Y57.633 E0.71628
G1 X63.205 Y57.799 E0.72959
G1 X63.668 Y58.023 E0.74669
G1 X64.211 Y58.302 E0.767
G1 X64.759 Y58.603 E0.78779
G1 X65.22 Y58.874 E0.80558
G1 X65.676 Y59.157 E0.82343
G1 X66.065 Y59.412 E0.8389
G1 X66.521 Y59.728 E0.85735
G1 X66.899 Y60.004 E0.87292
G1 X67.307 Y60.317 E0.89002
G1 X67.757 Y60.679 E0.90923
G1 X68.233 Y61.085 E0.93004
G1 X68.583 Y61.401 E0.94572
G1 X68.966 Y61.764 E0.96327
G1 X69.292 Y62.088 E0.97856
G1 X69.641 Y62.45 E0.99529
G1 X70 Y62.841 E1.01294
G1 X70.433 Y63.343 E1.03499
G1 X70.815 Y63.813 E1.05513
G1 X71.129 Y64.218 E1.07218
G1 X71.38 Y64.558 E1.08624
G1 X71.672 Y64.973 E1.10311
G1 X71.931 Y65.36 E1.1186
G1 X72.258 Y65.881 E1.13906
G1 X72.55 Y66.375 E1.15815
G1 X72.803 Y66.826 E1.17535
G1 X73.02 Y67.236 E1.19077
G1 X73.262 Y67.721 E1.2088
G1 X73.465 Y68.155 E1.22474
G1 X73.68 Y68.645 E1.24254
G1 X73.882 Y69.138 E1.26026
G1 X74.082 Y69.666 E1.27903
G1 X74.234 Y70.099 E1.2943
G1 X74.406 Y70.63 E1.31286
G1 X74.547 Y71.108 E1.32944
G1 X74.69 Y71.644 E1.34789
G1 X74.816 Y72.167 E1.36578
G1 X74.931 Y72.7 E1.38392
G1 X75.027 Y73.208 E1.40111
G1 X75.119 Y73.777 E1.42028
G1 X75.182 Y74.243 E1.43592
G1 X75.24 Y74.772 E1.45362
G1 X75.285 Y75.294 E1.47105
G1 X75.319 Y75.837 E1.48915
G1 X75.336 Y76.302 E1.50462
G1 X75.342 Y76.885 E1.52401
G1 X75.333 Y77.431 E1.54218
G1 X75.311 Y77.965 E1.55995
G1 X75.279 Y78.456 E1.57632
G1 X75.228 Y79.014 E1.59495
G1 X75.17 Y79.512 E1.61163
G1 X75.088 Y80.086 E1.63091
G1 X75.002 Y80.591 E1.64795
G1 X74.901 Y81.109 E1.66551
G1 X74.794 Y81.595 E1.68206
G1 X74.665 Y82.117 E1.69994
G1 X74.538 Y82.584 E1.71604
G1 X74.372 Y83.137 E1.73524
G1 X74.211 Y83.626 E1.75236
G1 X74.037 Y84.116 E1.76966
G1 X73.866 Y84.563 E1.78558
G1 X73.645 Y85.099 E1.80486
G1 X73.43 Y85.583 E1.82248
G1 X73.206 Y86.055 E1.83985
G1 X72.998 Y86.469 E1.85526
G1 X72.734 Y86.963 E1.87389
G1 X72.483 Y87.405 E1.8908
G1 X72.176 Y87.914 E1.91057
G1 X71.868 Y88.394 E1.92954
G1 X71.566 Y88.84 E1.94745
G1 X71.29 Y89.227 E1.96326
G1 X70.983 Y89.637 E1.9803
G1 X70.726 Y89.964 E1.99413
G1 X70.392 Y90.368 E2.01157
G1 X70.017 Y90.801 E2.03062
G1 X69.602 Y91.254 E2.05105
G1 X69.259 Y91.608 E2.06744
G1 X68.897 Y91.965 E2.08436
G1 X68.541 Y92.3 E2.10061
G1 X68.1 Y92.694 E2.12028
G1 X67.708 Y93.025 E2.13735
G1 X67.273 Y93.373 E2.15588
G1 X66.867 Y93.682 E2.17285
G1 X66.375 Y94.036 E2.193
G1 X65.913 Y94.349 E2.21157
G1 X65.125 Y94.845 E2.24253
G1 X64.678 Y95.106 E2.25975
G1 X64.275 Y95.328 E2.27505
G1 X63.789 Y95.58 E2.29326
G1 X63.34 Y95.799 E2.30988
G1 X62.814 Y96.038 E2.32909
G1 X62.286 Y96.262 E2.34817
G1 X61.788 Y96.459 E2.36598
G1 X61.364 Y96.615 E2.38101
G1 X60.826 Y96.798 E2.39991
G1 X60.333 Y96.951 E2.41708
G1 X59.794 Y97.103 E2.4357
G1 X59.277 Y97.235 E2.45345
G1 X58.752 Y97.356 E2.47137
G1 X58.325 Y97.443 E2.48586
G1 X57.782 Y97.539 E2.50421
G1 X57.236 Y97.622 E2.52257
G1 X56.673 Y97.693 E2.54145
G1 X56.181 Y97.742 E2.55789
G1 X55.638 Y97.782 E2.576
G1 X55.136 Y97.807 E2.59272
G1 X54.567 Y97.821 E2.61165
G1 X54.069 Y97.82 E2.62821
G1 X53.503 Y97.804 E2.64705
G1 X52.961 Y97.775 E2.6651
G1 X52.418 Y97.733 E2.68321
G1 X51.973 Y97.687 E2.69809
G1 X51.406 Y97.613 E2.71711
G1 X50.862 Y97.528 E2.73542
G1 X50.345 Y97.435 E2.7529
G1 X49.878 Y97.339 E2.76875
G1 X49.333 Y97.212 E2.78737
G1 X48.843 Y97.085 E2.8042
G1 X48.326 Y96.937 E2.82209
G1 X47.855 Y96.79 E2.8385
G1 X47.319 Y96.608 E2.85733
G1 X46.813 Y96.421 E2.87527
G1 X46.277 Y96.207 E2.89446
G1 X45.817 Y96.009 E2.91112
G1 X45.305 Y95.773 E2.92987
G1 X44.901 Y95.574 E2.94485
G1 X44.448 Y95.337 E2.96185
G1 X43.975 Y95.076 E2.97982
G1 X43.546 Y94.827 E2.99632
G1 X43.136 Y94.576 E3.01231
G1 X42.611 Y94.233 E3.03317
G1 X42.2 Y93.948 E3.0498
G1 X41.766 Y93.632 E3.06766
G1 X41.369 Y93.327 E3.08431
G1 X40.923 Y92.965 E3.10341
G1 X40.523 Y92.623 E3.12092
G1 X40.125 Y92.266 E3.1387
G1 X39.758 Y91.92 E3.15548
G1 X39.331 Y91.495 E3.17551
G1 X38.985 Y91.131 E3.19222
G1 X38.625 Y90.732 E3.21009
G1 X38.295 Y90.349 E3.22691
G1 X37.95 Y89.928 E3.24501
G1 X37.619 Y89.503 E3.26293
G1 X37.282 Y89.047 E3.28179
G1 X37.017 Y88.668 E3.29717
G1 X36.735 Y88.245 E3.31408
G1 X36.482 Y87.845 E3.32982
G1 X36.192 Y87.358 E3.34867
G1 X35.931 Y86.894 E3.36638
G1 X35.675 Y86.411 E3.38456
G1 X35.455 Y85.97 E3.40095
G1 X35.214 Y85.455 E3.41986
G1 X35.017 Y85.003 E3.43626
G1 X34.818 Y84.514 E3.45382
G1 X34.633 Y84.027 E3.47115
G1 X34.454 Y83.518 E3.48909
G1 X34.316 Y83.093 E3.50396
G1 X34.161 Y82.573 E3.522
G1 X34.022 Y82.06 E3.53968
G1 X33.888 Y81.51 E3.55851
G1 X33.793 Y81.071 E3.57345
G1 X33.693 Y80.549 E3.59113
G1 X33.602 Y80.002 E3.60957
G1 X33.522 Y79.424 E3.62898
G1 X33.465 Y78.916 E3.64598
G1 X33.417 Y78.371 E3.66418
G1 X33.386 Y77.872 E3.6808
G1 X33.365 Y77.294 E3.70004
G1 X33.36 Y76.763 E3.7177
G1 X33.37 Y76.198 E3.7365
G1 X33.39 Y75.721 E3.75238
G1 X33.424 Y75.202 E3.76968
G1 X33.464 Y74.755 E3.7846
G1 X33.526 Y74.211 E3.80281
G1 X33.608 Y73.625 E3.82249
G1 X33.694 Y73.103 E3.84009
G1 X33.779 Y72.654 E3.85529
G1 X33.914 Y72.037 E3.8763
G1 X34.045 Y71.512 E3.89429
G1 X34.193 Y70.977 E3.91276
G1 X34.344 Y70.48 E3.93003
G1 X34.52 Y69.949 E3.94864
G1 X34.68 Y69.505 E3.96434
G1 X34.871 Y69.012 E3.98192
G1 X35.068 Y68.538 E3.99899
G1 X35.297 Y68.026 E4.01765
G1 X35.523 Y67.552 E4.03511
G1 X35.771 Y67.064 E4.05332
G1 X35.99 Y66.658 E4.06866
G1 X36.257 Y66.19 E4.08658
G1 X36.503 Y65.783 E4.1024
G1 X36.784 Y65.342 E4.11979
G1 X37.078 Y64.904 E4.13734
G1 X37.446 Y64.388 E4.15842
G1 X37.785 Y63.941 E4.17708
G1 X38.1 Y63.546 E4.19388
G1 X38.39 Y63.198 E4.20895
G1 X38.742 Y62.795 E4.22674
G1 X39.061 Y62.448 E4.24242
G1 X39.462 Y62.034 E4.26159
G1 X39.849 Y61.655 E4.27961
G1 X40.261 Y61.272 E4.29832
G1 X40.623 Y60.952 E4.31439
G1 X41.013 Y60.624 E4.33134
G1 X41.407 Y60.307 E4.34816
G1 X41.891 Y59.938 E4.3684
G1 X42.333 Y59.621 E4.38649
G0 F6000 X42.566 Y59.946
G1 F1200 X42.986 Y59.661 E4.40337
G1 X43.343 Y59.43 E4.41751
G1 X43.785 Y59.159 E4.43476
G1 X44.268 Y58.879 E4.45333
G1 X44.716 Y58.633 E4.47033
G1 X45.128 Y58.42 E4.48575
G1 X45.636 Y58.174 E4.50453
G1 X46.108 Y57.961 E4.52175
G1 X46.593 Y57.756 E4.53926
G1 X47.031 Y57.584 E4.55491
G1 X47.518 Y57.407 E4.57215
G1 X48.025 Y57.236 E4.58994
G1 X48.554 Y57.073 E4.60835
G1 X49.036 Y56.938 E4.625
G1 X49.529 Y56.812 E4.64193
G1 X50.005 Y56.703 E4.65817
G1 X50.529 Y56.597 E4.67595
G1 X51.022 Y56.51 E4.6926
G1 X51.554 Y56.43 E4.71049
G1 X52.052 Y56.368 E4.72719
G1 X52.614 Y56.313 E4.74597
G1 X53.165 Y56.274 E4.76434
G1 X53.713 Y56.25 E4.78258
G1 X54.191 Y56.241 E4.79848
G1 X54.705 Y56.244 E4.81558
G1 X55.211 Y56.259 E4.83242
G1 X55.712 Y56.285 E4.8491
G1 X56.192 Y56.322 E4.86512
G1 X56.769 Y56.383 E4.88441
G1 X57.305 Y56.454 E4.9024
G1 X57.821 Y56.535 E4.91977
G1 X58.302 Y56.623 E4.93603
G1 X58.793 Y56.725 E4.95271
G1 X59.275 Y56.837 E4.96917
G1 X59.788 Y56.97 E4.9868
G1 X60.229 Y57.096 E5.00205
G1 X60.746 Y57.258 E5.02007
G1 X61.255 Y57.432 E5.03796
G1 X61.736 Y57.61 E5.05502
G1 X62.187 Y57.789 E5.07116
G1 X62.675 Y57.997 E5.0888
G1 X63.039 Y58.163 E5.10211
G1 X63.485 Y58.379 E5.11859
G1 X64.028 Y58.658 E5.1389
G1 X64.556 Y58.948 E5.15893
G1 X65.017 Y59.219 E5.17672
G1 X65.456 Y59.492 E5.19391
G1 X65.845 Y59.747 E5.20938
G1 X66.285 Y60.051 E5.22717
G1 X66.663 Y60.327 E5.24274
G1 X67.056 Y60.629 E5.25922
G1 X67.506 Y60.991 E5.27843
G1 X67.965 Y61.382 E5.29849
G1 X68.315 Y61.698 E5.31417
G1 X68.684 Y62.048 E5.33109
G1 X69.01 Y62.372 E5.34637
G1 X69.346 Y62.721 E5.36249
G1 X69.705 Y63.112 E5.38014
G1 X70.123 Y63.595 E5.40139
G1 X70.505 Y64.065 E5.42153
G1 X70.807 Y64.455 E5.43794
G1 X71.058 Y64.795 E5.45199
G1 X71.339 Y65.195 E5.46825
G1 X71.598 Y65.582 E5.48374
G1 X71.914 Y66.084 E5.50347
G1 X72.206 Y66.578 E5.52255
G1 X72.45 Y67.013 E5.53914
G1 X72.667 Y67.423 E5.55457
G1 X72.9 Y67.891 E5.57196
G1 X73.103 Y68.325 E5.5879
G1 X73.31 Y68.797 E5.60504
G1 X73.512 Y69.29 E5.62276
G1 X73.705 Y69.798 E5.64083
G1 X73.857 Y70.231 E5.6561
G1 X74.022 Y70.743 E5.67399
G1 X74.163 Y71.221 E5.69056
G1 X74.301 Y71.737 E5.70833
G1 X74.427 Y72.26 E5.72622
G1 X74.538 Y72.775 E5.74374
G1 X74.634 Y73.283 E5.76094
G1 X74.722 Y73.831 E5.7794
G1 X74.785 Y74.297 E5.79504
G1 X74.842 Y74.807 E5.81211
G1 X74.887 Y75.329 E5.82953
G1 X74.919 Y75.852 E5.84696
G1 X74.936 Y76.317 E5.86244
G1 X74.942 Y76.879 E5.88113
G1 X74.933 Y77.425 E5.89929
G1 X74.912 Y77.939 E5.9164
G1 X74.88 Y78.43 E5.93277
G1 X74.831 Y78.967 E5.9507
G1 X74.773 Y79.465 E5.96738
G1 X74.694 Y80.019 E5.98599
G1 X74.608 Y80.524 E6.00303
G1 X74.51 Y81.023 E6.01994
G1 X74.403 Y81.509 E6.0365
G1 X74.28 Y82.012 E6.05372
G1 X74.153 Y82.479 E6.06981
G1 X73.992 Y83.012 E6.08833
G1 X73.831 Y83.501 E6.10546
G1 X73.663 Y83.973 E6.12212
G1 X73.492 Y84.42 E6.13804
G1 X73.279 Y84.936 E6.15661
G1 X73.064 Y85.42 E6.17422
G1 X72.849 Y85.876 E6.19099
G1 X72.641 Y86.29 E6.2064
G1 X72.386 Y86.765 E6.22433
G1 X72.135 Y87.207 E6.24123
G1 X71.839 Y87.698 E6.2603
G1 X71.531 Y88.178 E6.27927
G1 X71.24 Y88.608 E6.29654
G1 X70.964 Y88.995 E6.31235
G1 X70.668 Y89.39 E6.32877
G1 X70.411 Y89.717 E6.3426
G1 X70.09 Y90.106 E6.35938
G1 X69.715 Y90.539 E6.37843
G1 X69.315 Y90.976 E6.39813
G1 X68.972 Y91.33 E6.41453
G1 X68.623 Y91.674 E6.43083
G1 X68.267 Y92.009 E6.44708
G1 X67.842 Y92.388 E6.46602
G1 X67.45 Y92.719 E6.48309
G1 X67.031 Y93.055 E6.50095
G1 X66.625 Y93.364 E6.51792
G1 X66.15 Y93.705 E6.53737
G1 X65.688 Y94.018 E6.55593
G1 X64.916 Y94.504 E6.58627
G1 X64.485 Y94.755 E6.60286
G1 X64.082 Y94.977 E6.61816
G1 X63.614 Y95.22 E6.6357
G1 X63.165 Y95.439 E6.65232
G1 X62.658 Y95.67 E6.67085
G1 X62.13 Y95.894 E6.68992
G1 X61.65 Y96.084 E6.70709
G1 X61.226 Y96.24 E6.72212
G1 X60.708 Y96.416 E6.74032
G1 X60.215 Y96.569 E6.75749
G1 X59.695 Y96.716 E6.77546
G1 X59.178 Y96.848 E6.79321
G1 X58.672 Y96.964 E6.81047
G1 X58.245 Y97.051 E6.82497
G1 X57.722 Y97.144 E6.84263
G1 X57.176 Y97.227 E6.861
G1 X56.633 Y97.295 E6.8792
G1 X56.141 Y97.344 E6.89565
G1 X55.618 Y97.383 E6.91309
G1 X55.116 Y97.408 E6.92981
G1 X54.568 Y97.421 E6.94804
G1 X54.07 Y97.42 E6.9646
G1 X53.525 Y97.405 E6.98274
G1 X52.983 Y97.376 E7.00079
G1 X52.459 Y97.335 E7.01827
G1 X52.014 Y97.289 E7.03315
G1 X51.468 Y97.218 E7.05147
G1 X50.924 Y97.133 E7.06978
G1 X50.426 Y97.043 E7.08661
G1 X49.959 Y96.947 E7.10247
G1 X49.434 Y96.825 E7.12039
G1 X48.944 Y96.698 E7.13723
G1 X48.445 Y96.556 E7.15449
G1 X47.974 Y96.409 E7.1709
G1 X47.458 Y96.233 E7.18903
G1 X46.952 Y96.046 E7.20697
G1 X46.435 Y95.839 E7.22549
G1 X45.975 Y95.641 E7.24215
G1 X45.482 Y95.414 E7.2602
G1 X45.078 Y95.215 E7.27518
G1 X44.641 Y94.987 E7.29158
G1 X44.168 Y94.726 E7.30954
G1 X43.754 Y94.485 E7.32548
G1 X43.344 Y94.234 E7.34147
G1 X42.839 Y93.905 E7.36151
G1 X42.428 Y93.62 E7.37815
G1 X42.01 Y93.315 E7.39536
G1 X41.613 Y93.01 E7.41201
G1 X41.183 Y92.661 E7.43043
G1 X40.783 Y92.319 E7.44793
G1 X40.4 Y91.975 E7.46506
G1 X40.033 Y91.629 E7.48183
G1 X39.621 Y91.219 E7.50116
G1 X39.275 Y90.855 E7.51787
G1 X38.928 Y90.471 E7.53508
G1 X38.598 Y90.088 E7.5519
G1 X38.265 Y89.682 E7.56936
G1 X37.934 Y89.257 E7.58728
G1 X37.61 Y88.818 E7.60542
G1 X37.345 Y88.439 E7.62081
G1 X37.074 Y88.031 E7.6371
G1 X36.821 Y87.631 E7.65284
G1 X36.54 Y87.162 E7.67102
G1 X36.279 Y86.698 E7.68873
G1 X36.033 Y86.233 E7.70623
G1 X35.813 Y85.792 E7.72262
G1 X35.581 Y85.295 E7.74086
G1 X35.384 Y84.843 E7.75726
G1 X35.192 Y84.372 E7.77418
G1 X35.007 Y83.885 E7.7915
G1 X34.834 Y83.395 E7.80879
G1 X34.696 Y82.97 E7.82365
G1 X34.547 Y82.468 E7.84107
G1 X34.408 Y81.955 E7.85874
G1 X34.279 Y81.425 E7.87689
G1 X34.184 Y80.986 E7.89183
G1 X34.088 Y80.484 E7.90883
G1 X33.997 Y79.937 E7.92727
G1 X33.919 Y79.379 E7.94601
G1 X33.862 Y78.871 E7.96301
G1 X33.816 Y78.346 E7.98054
G1 X33.785 Y77.847 E7.99717
G1 X33.765 Y77.29 E8.01571
G1 X33.76 Y76.759 E8.03337
G1 X33.769 Y76.215 E8.05146
G1 X33.789 Y75.738 E8.06734
G1 X33.822 Y75.237 E8.08404
G1 X33.862 Y74.79 E8.09897
G1 X33.922 Y74.266 E8.11651
G1 X34.004 Y73.68 E8.13619
G1 X34.087 Y73.177 E8.15315
G1 X34.172 Y72.728 E8.16835
G1 X34.302 Y72.134 E8.18857
G1 X34.433 Y71.609 E8.20657
G1 X34.576 Y71.094 E8.22434
G1 X34.727 Y70.597 E8.24162
G1 X34.897 Y70.084 E8.2596
G1 X35.057 Y69.64 E8.27529
G1 X35.241 Y69.166 E8.2922
G1 X35.438 Y68.692 E8.30928
G1 X35.658 Y68.198 E8.32726
G1 X35.884 Y67.724 E8.34473
G1 X36.123 Y67.254 E8.36227
G1 X36.342 Y66.848 E8.37761
G1 X36.599 Y66.397 E8.39487
G1 X36.845 Y65.99 E8.41069
G1 X37.116 Y65.565 E8.42746
G1 X37.41 Y65.127 E8.445
G1 X37.765 Y64.63 E8.46532
G1 X38.104 Y64.183 E8.48397
G1 X38.407 Y63.802 E8.50017
G1 X38.697 Y63.454 E8.51523
G1 X39.036 Y63.066 E8.53237
G1 X39.355 Y62.719 E8.54805
G1 X39.742 Y62.32 E8.56653
G1 X40.129 Y61.941 E8.58455
G1 X40.526 Y61.572 E8.60258
G1 X40.888 Y61.252 E8.61865
G1 X41.263 Y60.935 E8.63498
G1 X41.657 Y60.618 E8.6518
G1 X42.124 Y60.263 E8.67131
G1 X42.566 Y59.946 E8.6894
G0 F6000 X42.799 Y60.271
G1 F1200 X43.203 Y59.996 E8.70565
G1 X43.56 Y59.765 E8.7198
G1 X43.985 Y59.505 E8.73637
G1 X44.468 Y59.225 E8.75494
G1 X44.9 Y58.988 E8.77133
G1 X45.312 Y58.775 E8.78675
G1 X45.8 Y58.539 E8.80478
G1 X46.272 Y58.326 E8.822
G1 X46.74 Y58.129 E8.83889
G1 X47.178 Y57.957 E8.85454
G1 X47.646 Y57.786 E8.87112
G1 X48.153 Y57.615 E8.88891
G1 X48.662 Y57.458 E8.90663
G1 X49.144 Y57.323 E8.92328
G1 X49.618 Y57.202 E8.93955
G1 X50.094 Y57.093 E8.95579
G1 X50.598 Y56.991 E8.97289
G1 X51.091 Y56.904 E8.98954
G1 X51.604 Y56.827 E9.0068
G1 X52.102 Y56.765 E9.02349
G1 X52.642 Y56.712 E9.04154
G1 X53.193 Y56.673 E9.05991
G1 X53.721 Y56.65 E9.07749
G1 X54.199 Y56.641 E9.09339
G1 X54.693 Y56.643 E9.10982
G1 X55.199 Y56.658 E9.12665
G1 X55.681 Y56.684 E9.14271
G1 X56.161 Y56.721 E9.15872
G1 X56.716 Y56.779 E9.17728
G1 X57.252 Y56.85 E9.19526
G1 X57.749 Y56.929 E9.212
G1 X58.23 Y57.017 E9.22827
G1 X58.703 Y57.115 E9.24433
G1 X59.185 Y57.227 E9.26079
G1 X59.678 Y57.354 E9.27772
G1 X60.119 Y57.48 E9.29298
G1 X60.616 Y57.636 E9.3103
G1 X61.125 Y57.81 E9.32819
G1 X61.589 Y57.981 E9.34464
G1 X62.04 Y58.16 E9.36078
G1 X62.509 Y58.361 E9.37775
G1 X63.303 Y58.735 E9.40694
