;FLAVOR:Marlin
;TIME:231
;Filament used: 0.142435m
;Layer height: 0.2
;MINX:3.36
;MINY:5.841
;MINZ:0.2
;MAXX:45.342
;MAXY:47.821
;MAXZ:2
;Generated with Cura_SteamEngine main
M82 ;absolute extrusion mode
; Ender 3 Custom Start G-code
G92 E0 ; Reset Extruder
G28 ; Home all axes
M104 S175 ; Start heating up the nozzle most of the way
M190 S60 ; Start heating the bed, wait until target temperature reached
M109 S200 ; Finish heating the nozzle
G1 Z2.0 F3000 ; Move Z Axis up little to prevent scratching of Heat Bed
G1 X0.1 Y20 Z0.3 F5000.0 ; Move to start position
G1 X0.1 Y200.0 Z0.3 F1500.0 E15 ; Draw the first line
G1 X0.4 Y200.0 Z0.3 F5000.0 ; Move to side a little
G1 X0.4 Y20 Z0.3 F1500.0 E30 ; Draw the second line
G92 E0 ; Reset Extruder
G1 Z2.0 F3000 ; Move Z Axis up little to prevent scratching of Heat Bed
G1 X5 Y20 Z0.3 F5000.0 ; Move over to prevent blob squish
G92 E0
G92 E0
G1 F1500 E-6.5
;LAYER_COUNT:10
;LAYER:0
M107
G0 F6000 X10.261 Y11.272 Z0.2
G0 X3.36 Y26.763
;TYPE:SKIRT
G1 F1500 E0
G1 F1200 X3.37 Y26.198 E0.01879
G1 X3.39 Y25.721 E0.03467
G1 X3.424 Y25.202 E0.05197
G1 X3.464 Y24.755 E0.0669
G1 X3.526 Y24.211 E0.08511
G1 X3.608 Y23.625 E0.10479
G1 X3.694 Y23.103 E0.12239
G1 X3.779 Y22.654 E0.13759
G1 X3.914 Y22.037 E0.15859
G1 X4.045 Y21.512 E0.17659
G1 X4.193 Y20.977 E0.19505
G1 X4.344 Y20.48 E0.21233
G1 X4.52 Y19.949 E0.23093
G1 X4.68 Y19.505 E0.24663
G1 X4.871 Y19.012 E0.26422
G1 X5.068 Y18.538 E0.28129
G1 X5.297 Y18.026 E0.29994
G1 X5.523 Y17.552 E0.31741
G1 X5.771 Y17.064 E0.33562
G1 X5.99 Y16.658 E0.35096
G1 X6.257 Y16.19 E0.36888
G1 X6.503 Y15.783 E0.3847
G1 X6.784 Y15.342 E0.40209
G1 X7.078 Y14.904 E0.41963
G1 X7.446 Y14.388 E0.44071
G1 X7.785 Y13.941 E0.45937
G1 X8.1 Y13.546 E0.47618
G1 X8.39 Y13.198 E0.49124
G1 X8.742 Y12.795 E0.50904
G1 X9.061 Y12.448 E0.52472
G1 X9.462 Y12.034 E0.54389
G1 X9.849 Y11.655 E0.5619
G1 X10.261 Y11.272 E0.58061
G1 X10.623 Y10.952 E0.59668
G1 X11.013 Y10.624 E0.61363
G1 X11.407 Y10.307 E0.63045
G1 X11.891 Y9.938 E0.6507
G1 X12.333 Y9.621 E0.66879
G1 X12.768 Y9.325 E0.68629
G1 X13.125 Y9.094 E0.70043
G1 X13.584 Y8.812 E0.71835
G1 X14.067 Y8.532 E0.73692
G1 X14.532 Y8.278 E0.75454
G1 X14.944 Y8.065 E0.76996
G1 X15.471 Y7.81 E0.78944
G1 X15.943 Y7.597 E0.80666
G1 X16.447 Y7.384 E0.82486
G1 X16.885 Y7.212 E0.84051
G1 X17.391 Y7.028 E0.85842
G1 X17.898 Y6.857 E0.87621
G1 X18.446 Y6.688 E0.89529
G1 X18.928 Y6.553 E0.91194
G1 X19.44 Y6.423 E0.9295
G1 X19.916 Y6.314 E0.94575
G1 X20.459 Y6.203 E0.96418
G1 X20.952 Y6.116 E0.98083
G1 X21.505 Y6.033 E0.99943
G1 X22.003 Y5.971 E1.01612
G1 X22.585 Y5.914 E1.03557
G1 X23.136 Y5.875 E1.05394
G1 X23.706 Y5.85 E1.07292
G1 X24.184 Y5.841 E1.08882
G1 X24.717 Y5.844 E1.10655
G1 X25.223 Y5.859 E1.12339
G1 X25.742 Y5.887 E1.14067
G1 X26.222 Y5.924 E1.15669
G1 X26.821 Y5.986 E1.17671
G1 X27.357 Y6.057 E1.1947
G1 X27.893 Y6.142 E1.21275
G1 X28.374 Y6.23 E1.22901
G1 X28.884 Y6.335 E1.24633
G1 X29.366 Y6.447 E1.26279
G1 X29.898 Y6.585 E1.28107
G1 X30.339 Y6.711 E1.29632
G1 X30.875 Y6.879 E1.31501
G1 X31.384 Y7.053 E1.3329
G1 X31.884 Y7.238 E1.35063
G1 X32.335 Y7.417 E1.36677
G1 X32.841 Y7.633 E1.38507
G1 X33.205 Y7.799 E1.39837
G1 X33.668 Y8.023 E1.41548
G1 X34.211 Y8.302 E1.43578
G1 X34.759 Y8.603 E1.45658
G1 X35.22 Y8.874 E1.47437
G1 X35.676 Y9.157 E1.49222
G1 X36.065 Y9.412 E1.50769
G1 X36.521 Y9.728 E1.52614
G1 X36.899 Y10.004 E1.54171
G1 X37.307 Y10.317 E1.55881
G1 X37.757 Y10.679 E1.57802
G1 X38.233 Y11.085 E1.59883
G1 X38.583 Y11.401 E1.61451
G1 X38.966 Y11.764 E1.63206
G1 X39.292 Y12.088 E1.64735
G1 X39.641 Y12.45 E1.66407
G1 X40 Y12.841 E1.68173
G1 X40.433 Y13.343 E1.70378
G1 X40.815 Y13.813 E1.72392
G1 X41.129 Y14.218 E1.74097
G1 X41.38 Y14.558 E1.75502
G1 X41.672 Y14.973 E1.7719
G1 X41.931 Y15.36 E1.78739
G1 X42.258 Y15.881 E1.80785
G1 X42.55 Y16.375 E1.82693
G1 X42.803 Y16.826 E1.84413
G1 X43.02 Y17.236 E1.85956
G1 X43.262 Y17.721 E1.87759
G1 X43.465 Y18.155 E1.89352
G1 X43.68 Y18.645 E1.91132
G1 X43.882 Y19.138 E1.92904
G1 X44.082 Y19.666 E1.94782
G1 X44.234 Y20.099 E1.96308
G1 X44.406 Y20.63 E1.98165
G1 X44.547 Y21.108 E1.99822
G1 X44.69 Y21.644 E2.01668
G1 X44.816 Y22.167 E2.03457
G1 X44.931 Y22.7 E2.0527
G1 X45.027 Y23.208 E2.0699
G1 X45.119 Y23.777 E2.08907
G1 X45.182 Y24.243 E2.10471
G1 X45.24 Y24.772 E2.12241
G1 X45.285 Y25.294 E2.13984
G1 X45.319 Y25.837 E2.15793
G1 X45.336 Y26.302 E2.17341
G1 X45.342 Y26.885 E2.1928
G1 X45.333 Y27.431 E2.21096
G1 X45.311 Y27.965 E2.22874
G1 X45.279 Y28.456 E2.2451
G1 X45.228 Y29.014 E2.26374
G1 X45.17 Y29.512 E2.28042
G1 X45.088 Y30.086 E2.2997
G1 X45.002 Y30.591 E2.31674
G1 X44.901 Y31.109 E2.33429
G1 X44.794 Y31.595 E2.35084
G1 X44.665 Y32.117 E2.36873
G1 X44.538 Y32.584 E2.38482
G1 X44.372 Y33.137 E2.40403
G1 X44.211 Y33.626 E2.42115
G1 X44.037 Y34.116 E2.43845
G1 X43.866 Y34.563 E2.45436
G1 X43.645 Y35.099 E2.47365
G1 X43.43 Y35.583 E2.49126
G1 X43.206 Y36.055 E2.50864
G1 X42.998 Y36.469 E2.52405
G1 X42.734 Y36.963 E2.54268
G1 X42.483 Y37.405 E2.55958
G1 X42.176 Y37.914 E2.57935
G1 X41.868 Y38.394 E2.59832
G1 X41.566 Y38.84 E2.61624
G1 X41.29 Y39.227 E2.63205
G1 X40.983 Y39.637 E2.64908
G1 X40.726 Y39.964 E2.66292
G1 X40.392 Y40.368 E2.68035
G1 X40.017 Y40.801 E2.6994
G1 X39.602 Y41.254 E2.71984
G1 X39.259 Y41.608 E2.73623
G1 X38.897 Y41.965 E2.75314
G1 X38.541 Y42.3 E2.7694
G1 X38.1 Y42.694 E2.78907
G1 X37.708 Y43.025 E2.80613
G1 X37.273 Y43.373 E2.82466
G1 X36.867 Y43.682 E2.84163
G1 X36.375 Y44.036 E2.86179
G1 X35.913 Y44.349 E2.88035
G1 X35.125 Y44.845 E2.91132
G1 X34.678 Y45.106 E2.92854
G1 X34.275 Y45.328 E2.94384
G1 X33.789 Y45.58 E2.96205
G1 X33.34 Y45.799 E2.97866
G1 X32.814 Y46.038 E2.99788
G1 X32.286 Y46.262 E3.01696
G1 X31.788 Y46.459 E3.03477
G1 X31.364 Y46.615 E3.04979
G1 X30.826 Y46.798 E3.0687
G1 X30.333 Y46.951 E3.08586
G1 X29.794 Y47.103 E3.10449
G1 X29.277 Y47.235 E3.12224
G1 X28.752 Y47.356 E3.14016
G1 X28.325 Y47.443 E3.15465
G1 X27.782 Y47.539 E3.17299
G1 X27.236 Y47.622 E3.19136
G1 X26.673 Y47.693 E3.21023
G1 X26.181 Y47.742 E3.22668
G1 X25.638 Y47.782 E3.24479
G1 X25.136 Y47.807 E3.26151
G1 X24.567 Y47.821 E3.28044
G1 X24.069 Y47.82 E3.297
G1 X23.503 Y47.804 E3.31583
G1 X22.961 Y47.775 E3.33388
G1 X22.396 Y47.73 E3.35274
G1 X21.931 Y47.681 E3.36829
G1 X21.404 Y47.613 E3.38596
G1 X20.88 Y47.532 E3.4036
G1 X20.335 Y47.434 E3.42201
G1 X19.875 Y47.339 E3.43764
G1 X19.336 Y47.213 E3.45605
G1 X18.839 Y47.084 E3.47313
G1 X18.326 Y46.937 E3.49087
G1 X17.855 Y46.79 E3.50729
G1 X17.319 Y46.608 E3.52611
G1 X16.813 Y46.421 E3.54405
G1 X16.277 Y46.207 E3.56325
G1 X15.817 Y46.009 E3.57991
G1 X15.305 Y45.773 E3.59866
G1 X14.901 Y45.574 E3.61364
G1 X14.448 Y45.337 E3.63064
G1 X13.975 Y45.076 E3.64861
G1 X13.546 Y44.827 E3.66511
G1 X13.136 Y44.576 E3.6811
G1 X12.611 Y44.233 E3.70195
G1 X12.2 Y43.948 E3.71859
G1 X11.766 Y43.632 E3.73645
G1 X11.369 Y43.327 E3.7531
G1 X10.923 Y42.965 E3.7722
G1 X10.523 Y42.623 E3.78971
G1 X10.125 Y42.266 E3.80749
G1 X9.758 Y41.92 E3.82426
G1 X9.331 Y41.495 E3.8443
G1 X8.985 Y41.131 E3.86101
G1 X8.625 Y40.732 E3.87888
G1 X8.295 Y40.349 E3.89569
G1 X7.95 Y39.928 E3.9138
G1 X7.619 Y39.503 E3.93171
G1 X7.282 Y39.047 E3.95057
G1 X7.017 Y38.668 E3.96596
G1 X6.735 Y38.245 E3.98286
G1 X6.482 Y37.845 E3.99861
G1 X6.192 Y37.358 E4.01746
G1 X5.931 Y36.894 E4.03516
G1 X5.675 Y36.411 E4.05335
G1 X5.455 Y35.97 E4.06974
G1 X5.214 Y35.455 E4.08865
G1 X5.017 Y35.003 E4.10505
G1 X4.818 Y34.514 E4.12261
G1 X4.633 Y34.027 E4.13994
G1 X4.454 Y33.518 E4.15788
G1 X4.316 Y33.093 E4.17274
G1 X4.161 Y32.573 E4.19079
G1 X4.022 Y32.06 E4.20847
G1 X3.888 Y31.51 E4.2273
G1 X3.793 Y31.071 E4.24224
G1 X3.693 Y30.549 E4.25991
G1 X3.602 Y30.002 E4.27836
G1 X3.522 Y29.424 E4.29776
G1 X3.465 Y28.916 E4.31477
G1 X3.417 Y28.371 E4.33296
G1 X3.386 Y27.872 E4.34959
G1 X3.365 Y27.294 E4.36883
G1 X3.36 Y26.763 E4.38649
G0 F6000 X3.76 Y26.759
G1 F1200 X3.769 Y26.215 E4.40459
G1 X3.789 Y25.738 E4.42047
G1 X3.822 Y25.237 E4.43717
G1 X3.862 Y24.79 E4.45209
G1 X3.922 Y24.266 E4.46963
G1 X4.004 Y23.68 E4.48931
G1 X4.087 Y23.177 E4.50627
G1 X4.172 Y22.728 E4.52147
G1 X4.302 Y22.134 E4.54169
G1 X4.433 Y21.609 E4.55969
G1 X4.576 Y21.094 E4.57747
G1 X4.727 Y20.597 E4.59474
G1 X4.897 Y20.084 E4.61272
G1 X5.057 Y19.64 E4.62842
G1 X5.241 Y19.166 E4.64533
G1 X5.438 Y18.692 E4.6624
G1 X5.658 Y18.198 E4.68039
G1 X5.884 Y17.724 E4.69785
G1 X6.123 Y17.254 E4.71539
G1 X6.342 Y16.848 E4.73073
G1 X6.599 Y16.397 E4.748
G1 X6.845 Y15.99 E4.76381
G1 X7.116 Y15.565 E4.78058
G1 X7.41 Y15.127 E4.79812
G1 X7.765 Y14.63 E4.81844
G1 X8.104 Y14.183 E4.8371
G1 X8.407 Y13.802 E4.85329
G1 X8.697 Y13.454 E4.86836
G1 X9.036 Y13.066 E4.88549
G1 X9.355 Y12.719 E4.90117
G1 X9.742 Y12.32 E4.91966
G1 X10.129 Y11.941 E4.93767
G1 X10.526 Y11.572 E4.9557
G1 X10.888 Y11.252 E4.97177
G1 X11.263 Y10.935 E4.9881
G1 X11.657 Y10.618 E5.00492
G1 X12.124 Y10.263 E5.02443
G1 X12.566 Y9.946 E5.04252
G1 X12.986 Y9.661 E5.05941
G1 X13.343 Y9.43 E5.07355
G1 X13.785 Y9.159 E5.09079
G1 X14.268 Y8.879 E5.10936
G1 X14.716 Y8.633 E5.12636
G1 X15.128 Y8.42 E5.14179
G1 X15.636 Y8.174 E5.16056
G1 X16.108 Y7.961 E5.17778
G1 X16.593 Y7.756 E5.1953
G1 X17.031 Y7.584 E5.21095
G1 X17.518 Y7.407 E5.22818
G1 X18.025 Y7.236 E5.24598
G1 X18.554 Y7.073 E5.26439
G1 X19.036 Y6.938 E5.28104
G1 X19.529 Y6.812 E5.29796
G1 X20.005 Y6.703 E5.3142
G1 X20.529 Y6.597 E5.33198
G1 X21.022 Y6.51 E5.34863
G1 X21.554 Y6.43 E5.36653
G1 X22.052 Y6.368 E5.38322
G1 X22.614 Y6.313 E5.402
G1 X23.165 Y6.274 E5.42037
G1 X23.713 Y6.25 E5.43862
G1 X24.191 Y6.241 E5.45452
G1 X24.705 Y6.244 E5.47161
G1 X25.211 Y6.259 E5.48845
G1 X25.712 Y6.285 E5.50514
G1 X26.192 Y6.322 E5.52115
G1 X26.769 Y6.383 E5.54045
G1 X27.305 Y6.454 E5.55843
G1 X27.821 Y6.535 E5.5758
G1 X28.302 Y6.623 E5.59207
G1 X28.793 Y6.725 E5.60875
G1 X29.275 Y6.837 E5.6252
G1 X29.788 Y6.97 E5.64283
G1 X30.229 Y7.096 E5.65809
G1 X30.746 Y7.258 E5.67611
G1 X31.255 Y7.432 E5.694
G1 X31.736 Y7.61 E5.71105
G1 X32.187 Y7.789 E5.72719
G1 X32.675 Y7.997 E5.74484
G1 X33.039 Y8.163 E5.75814
G1 X33.485 Y8.379 E5.77463
G1 X34.028 Y8.658 E5.79493
G1 X34.556 Y8.948 E5.81497
G1 X35.017 Y9.219 E5.83275
G1 X35.456 Y9.492 E5.84995
G1 X35.845 Y9.747 E5.86542
G1 X36.285 Y10.051 E5.8832
G1 X36.663 Y10.327 E5.89877
G1 X37.056 Y10.629 E5.91526
G1 X37.506 Y10.991 E5.93447
G1 X37.965 Y11.382 E5.95452
G1 X38.315 Y11.698 E5.9702
G1 X38.684 Y12.048 E5.98712
G1 X39.01 Y12.372 E6.00241
G1 X39.346 Y12.721 E6.01852
G1 X39.705 Y13.112 E6.03617
G1 X40.123 Y13.595 E6.05742
G1 X40.505 Y14.065 E6.07756
G1 X40.807 Y14.455 E6.09397
G1 X41.058 Y14.795 E6.10803
G1 X41.339 Y15.195 E6.12428
G1 X41.598 Y15.582 E6.13977
G1 X41.914 Y16.084 E6.1595
G1 X42.206 Y16.578 E6.17859
G1 X42.45 Y17.013 E6.19518
G1 X42.667 Y17.423 E6.21061
G1 X42.9 Y17.891 E6.22799
G1 X43.103 Y18.325 E6.24393
G1 X43.31 Y18.797 E6.26107
G1 X43.512 Y19.29 E6.27879
G1 X43.705 Y19.798 E6.29687
G1 X43.857 Y20.231 E6.31213
G1 X44.022 Y20.743 E6.33002
G1 X44.163 Y21.221 E6.3466
G1 X44.301 Y21.737 E6.36436
G1 X44.427 Y22.26 E6.38226
G1 X44.538 Y22.775 E6.39978
G1 X44.634 Y23.283 E6.41697
G1 X44.722 Y23.831 E6.43543
G1 X44.785 Y24.297 E6.45107
G1 X44.842 Y24.807 E6.46814
G1 X44.887 Y25.329 E6.48557
G1 X44.919 Y25.852 E6.503
G1 X44.936 Y26.317 E6.51847
G1 X44.942 Y26.879 E6.53716
G1 X44.933 Y27.425 E6.55533
G1 X44.912 Y27.939 E6.57244
G1 X44.88 Y28.43 E6.5888
G1 X44.831 Y28.967 E6.60674
G1 X44.773 Y29.465 E6.62341
G1 X44.694 Y30.019 E6.64203
G1 X44.608 Y30.524 E6.65906
G1 X44.51 Y31.023 E6.67598
G1 X44.403 Y31.509 E6.69253
G1 X44.28 Y32.012 E6.70975
G1 X44.153 Y32.479 E6.72585
G1 X43.992 Y33.012 E6.74437
G1 X43.831 Y33.501 E6.76149
G1 X43.663 Y33.973 E6.77815
G1 X43.492 Y34.42 E6.79407
G1 X43.279 Y34.936 E6.81264
G1 X43.064 Y35.42 E6.83025
G1 X42.849 Y35.876 E6.84702
G1 X42.641 Y36.29 E6.86243
G1 X42.386 Y36.765 E6.88036
G1 X42.135 Y37.207 E6.89727
G1 X41.839 Y37.698 E6.91634
G1 X41.531 Y38.178 E6.93531
G1 X41.24 Y38.608 E6.95258
G1 X40.964 Y38.995 E6.96838
G1 X40.668 Y39.39 E6.9848
G1 X40.411 Y39.717 E6.99864
G1 X40.09 Y40.106 E7.01541
G1 X39.715 Y40.539 E7.03446
G1 X39.315 Y40.976 E7.05417
G1 X38.972 Y41.33 E7.07056
G1 X38.623 Y41.674 E7.08686
G1 X38.267 Y42.009 E7.10312
G1 X37.842 Y42.388 E7.12206
G1 X37.45 Y42.719 E7.13912
G1 X37.031 Y43.055 E7.15699
G1 X36.625 Y43.364 E7.17395
G1 X36.15 Y43.705 E7.1934
G1 X35.688 Y44.018 E7.21196
G1 X34.916 Y44.504 E7.2423
G1 X34.485 Y44.755 E7.25889
G1 X34.082 Y44.977 E7.2742
G1 X33.614 Y45.22 E7.29174
G1 X33.165 Y45.439 E7.30835
G1 X32.658 Y45.67 E7.32688
G1 X32.13 Y45.894 E7.34596
G1 X31.65 Y46.084 E7.36313
G1 X31.226 Y46.24 E7.37815
G1 X30.708 Y46.416 E7.39635
G1 X30.215 Y46.569 E7.41352
G1 X29.695 Y46.716 E7.43149
G1 X29.178 Y46.848 E7.44924
G1 X28.672 Y46.964 E7.46651
G1 X28.245 Y47.051 E7.481
G1 X27.722 Y47.144 E7.49867
G1 X27.176 Y47.227 E7.51704
G1 X26.633 Y47.295 E7.53524
G1 X26.141 Y47.344 E7.55168
G1 X25.618 Y47.383 E7.56913
G1 X25.116 Y47.408 E7.58584
G1 X24.568 Y47.421 E7.60407
G1 X24.07 Y47.42 E7.62064
G1 X23.525 Y47.405 E7.63877
G1 X22.983 Y47.376 E7.65682
G1 X22.438 Y47.333 E7.67501
G1 X21.973 Y47.284 E7.69056
G1 X21.465 Y47.218 E7.7076
G1 X20.941 Y47.137 E7.72523
G1 X20.416 Y47.042 E7.74298
G1 X19.956 Y46.947 E7.7586
G1 X19.437 Y46.826 E7.77633
G1 X18.94 Y46.697 E7.7934
G1 X18.445 Y46.556 E7.81052
G1 X17.974 Y46.409 E7.82693
G1 X17.458 Y46.233 E7.84507
G1 X16.952 Y46.046 E7.86301
G1 X16.435 Y45.839 E7.88153
G1 X15.975 Y45.641 E7.89819
G1 X15.482 Y45.414 E7.91624
G1 X15.078 Y45.215 E7.93122
G1 X14.641 Y44.987 E7.94761
G1 X14.168 Y44.726 E7.96558
G1 X13.754 Y44.485 E7.98151
G1 X13.344 Y44.234 E7.9975
G1 X12.839 Y43.905 E8.01755
G1 X12.428 Y43.62 E8.03418
G1 X12.01 Y43.315 E8.05139
G1 X11.613 Y43.01 E8.06805
G1 X11.183 Y42.661 E8.08647
G1 X10.783 Y42.319 E8.10397
G1 X10.4 Y41.975 E8.12109
G1 X10.033 Y41.629 E8.13787
G1 X9.621 Y41.219 E8.1572
G1 X9.275 Y40.855 E8.1739
G1 X8.928 Y40.471 E8.19112
G1 X8.598 Y40.088 E8.20793
G1 X8.265 Y39.682 E8.2254
G1 X7.934 Y39.257 E8.24331
G1 X7.61 Y38.818 E8.26146
G1 X7.345 Y38.439 E8.27684
G1 X7.074 Y38.031 E8.29313
G1 X6.821 Y37.631 E8.30888
G1 X6.54 Y37.162 E8.32706
G1 X6.279 Y36.698 E8.34477
G1 X6.033 Y36.233 E8.36226
G1 X5.813 Y35.792 E8.37865
G1 X5.581 Y35.295 E8.3969
G1 X5.384 Y34.843 E8.4133
G1 X5.192 Y34.372 E8.43021
G1 X5.007 Y33.885 E8.44754
G1 X4.834 Y33.395 E8.46482
G1 X4.696 Y32.97 E8.47969
G1 X4.547 Y32.468 E8.4971
G1 X4.408 Y31.955 E8.51478
G1 X4.279 Y31.425 E8.53292
G1 X4.184 Y30.986 E8.54786
G1 X4.088 Y30.484 E8.56486
G1 X3.997 Y29.937 E8.5833
G1 X3.919 Y29.379 E8.60204
G1 X3.862 Y28.871 E8.61905
G1 X3.816 Y28.346 E8.63657
G1 X3.785 Y27.847 E8.6532
G1 X3.765 Y27.29 E8.67174
G1 X3.76 Y26.759 E8.6894
G0 F6000 X4.16 Y26.755
G1 F1200 X4.169 Y26.232 E8.7068
G1 X4.189 Y25.755 E8.72268
G1 X4.221 Y25.273 E8.73875
G1 X4.261 Y24.826 E8.75367
G1 X4.318 Y24.321 E8.77058
G1 X4.4 Y23.735 E8.79026
G1 X4.48 Y23.252 E8.80654
G1 X4.565 Y22.803 E8.82174
G1 X4.69 Y22.231 E8.84121
G1 X4.821 Y21.706 E8.85921
G1 X4.959 Y21.21 E8.87633
G1 X5.11 Y20.713 E8.89361
G1 X5.273 Y20.22 E8.91088
G1 X5.433 Y19.776 E8.92658
G1 X5.61 Y19.319 E8.94288
G1 X5.807 Y18.845 E8.95995
G1 X6.019 Y18.37 E8.97725
G1 X6.245 Y17.896 E8.99472
G1 X6.475 Y17.444 E9.01158
G1 X6.694 Y17.038 E9.02693
G1 X6.942 Y16.604 E9.04355
G1 X7.188 Y16.197 E9.05937
G1 X7.448 Y15.788 E9.07549
G1 X7.742 Y15.35 E9.09304
G1 X8.084 Y14.871 E9.11261
G1 X8.423 Y14.424 E9.13127
G1 X8.714 Y14.058 E9.14682
G1 X9.004 Y13.71 E9.16189
G1 X9.331 Y13.337 E9.17839
G1 X9.65 Y12.99 E9.19406
G1 X10.022 Y12.606 E9.21185
G1 X10.409 Y12.227 E9.22986
G1 X10.79 Y11.872 E9.24718
G1 X11.152 Y11.552 E9.26325
G1 X11.514 Y11.247 E9.279
G1 X11.908 Y10.93 E9.29582
G1 X12.357 Y10.588 E9.31459
G1 X12.799 Y10.271 E9.33268
G1 X13.203 Y9.996 E9.34893
G1 X13.56 Y9.765 E9.36308
G1 X13.985 Y9.505 E9.37965
G1 X14.468 Y9.225 E9.39822
G1 X14.9 Y8.988 E9.41461
G1 X15.312 Y8.775 E9.43003
G1 X15.8 Y8.539 E9.44806
G1 X16.272 Y8.326 E9.46528
G1 X16.74 Y8.129 E9.48217
G1 X17.178 Y7.957 E9.49782
G1 X17.646 Y7.786 E9.5144
G1 X18.153 Y7.615 E9.53219
G1 X18.662 Y7.458 E9.54991
