T0 ; Ensure main extruder
M82 ; Ensure absolute extrusion
M302 P0 ; Disallow cold extrusion
; FLAVOR:Marlin
; TIME:3105
; Filament used: 1.6645m
; Layer height: 0.2
; MINX:18.116
; MINY:77.474
; MINZ:0.2
; MAXX:89.457
; MAXY:148.814
; MAXZ:10
; Generated with Cura_SteamEngine 5.2.2
M82 ; absolute extrusion mode
; Ender 3 Custom Start G-code
G92 E0 ; Reset Extruder
G28 ; Home all axes
M140 S60 ; Start heating bed
M104 S175 ; Start heating up the nozzle most of the way
M190 S60 ; Start heating the bed, wait until target temperature reached
M109 S200 ; Finish heating the nozzle
G1 Z2.0 F3000 ; Move Z Axis up little to prevent scratching of Heat Bed
G1 X0.1 Y20 Z0.3 F5000.0 A-109.70519 ; Move to start position
G1 X0.1 Y200.0 Z0.3 F1500.0 E15 A-159.94514 ; Draw the first line
G1 X0.4 Y200.0 Z0.3 F5000.0 ; Move to side a little
G1 X0.4 Y20 Z0.3 F1500.0 E30 ; Draw the second line
G92 E0 ; Reset Extruder
G1 Z2.0 F3000 ; Move Z Axis up little to prevent scratching of Heat Bed
G1 X5 Y20 Z0.3 F5000.0 ; Move over to prevent blob squish
G92 E0
G92 E0
G1 F1500 E-6.5
; LAYER_COUNT:50
; LAYER:0
M107
; ==== Start layer 0 ====
; ::: Layer 0 postamble :::
G0 F6000 X38.25 Y81.022 Z0.2 A-121.69101
; TYPE:SKIRT
G1 F1500 E0
G1 F1200 X39.239 Y80.563 E0.03626 A-103.61781
G1 X40.343 Y80.092 E0.07619 A-103.6142
G1 X41.067 Y79.807 E0.10206 A-103.67019
G1 X42.271 Y79.372 E0.14464 A-103.62504
G1 X43.247 Y79.054 E0.17878 A-103.66026
G1 X43.938 Y78.848 E0.20277 A-103.69397
G1 X44.961 Y78.572 E0.23801 A-103.6729
G1 X45.81 Y78.366 E0.26707 A-103.69397
G1 X46.852 Y78.143 E0.30251 A-103.68886
G1 X47.872 Y77.956 E0.337 A-103.69969
G1 X48.912 Y77.797 E0.37199 A-103.70812
G1 X49.858 Y77.679 E0.4037 A-103.72046
G1 X50.902 Y77.579 E0.43858 A-103.72588
G1 X51.868 Y77.514 E0.47078 A-103.73641
G1 X52.822 Y77.48 E0.50253 A-103.74574
G1 X53.762 Y77.474 E0.5338 A-103.75416
G1 X54.739 Y77.48 E0.56629 A-103.75778
G1 X55.337 Y77.496 E0.58619 A-103.76078
G1 X56.679 Y77.58 E0.63091 A-103.78124
G1 X57.472 Y77.653 E0.6574 A-103.77794
G1 X58.415 Y77.763 E0.68898 A-103.78907
G1 X59.379 Y77.903 E0.72138 A-103.79809
G1 X60.702 Y78.139 E0.76607 A-103.82697
G1 X61.459 Y78.296 E0.79179 A-103.80321
G1 X62.393 Y78.514 E0.82369 A-103.82156
G1 X63.643 Y78.851 E0.86675 A-103.85735
G1 X64.615 Y79.146 E0.90053 A-103.84472
G1 X65.315 Y79.377 E0.92505 A-103.82547
G1 X66.502 Y79.806 E0.96703 A-103.88502
G1 X67.589 Y80.24 E1.00596 A-103.88653
G1 X68.089 Y80.454 E1.02405 A-103.82035
G1 X69.028 Y80.883 E1.05838 A-103.88502
G1 X70.263 Y81.495 E1.10423 A-103.94005
G1 X70.81 Y81.791 E1.12491 A-103.84502
G1 X71.598 Y82.24 E1.15508 A-103.89104
G1 X72.686 Y82.882 E1.19709 A-103.94907
G1 X73.209 Y83.214 E1.2177 A-103.85585
G1 X74.159 Y83.851 E1.25574 A-103.94757
G1 X74.901 Y84.38 E1.28605 A-103.91509
G1 X75.694 Y84.98 E1.31912 A-103.93644
G1 X76.316 Y85.475 E1.34556 A-103.90487
G1 X77.292 Y86.299 E1.38805 A-104.00378
G1 X78.032 Y86.967 E1.42121 A-103.95689
G1 X78.793 Y87.693 E1.45619 A-103.97432
G1 X79.492 Y88.399 E1.48923 A-103.96831
G1 X80.127 Y89.076 E1.5201 A-103.95959
G1 X80.867 Y89.911 E1.55721 A-104.00709
G1 X81.51 Y90.68 E1.59055 A-103.98725
G1 X82.107 Y91.439 E1.62267 A-103.98424
G1 X82.727 Y92.274 E1.65726 A-104.00709
G1 X83.313 Y93.111 E1.69124 A-104.00769
G1 X83.86 Y93.943 E1.72436 A-104.00619
G1 X84.195 Y94.487 E1.74561 A-103.9196
G1 X84.71 Y95.367 E1.77952 A-104.02061
G1 X85.129 Y96.102 E1.80766 A-103.97703
G1 X85.462 Y96.717 E1.83092 A-103.94095
G1 X85.887 Y97.565 E1.86247 A-104.01099
G1 X86.372 Y98.609 E1.90076 A-104.0699
G1 X86.838 Y99.701 E1.94025 A-104.08432
G1 X87.123 Y100.425 E1.96613 A-103.97372
G1 X87.455 Y101.33 E1.99819 A-104.02813
G1 X87.76 Y102.24 E2.03011 A-104.02963
G1 X88.121 Y103.44 E2.07179 A-104.11677
G1 X88.395 Y104.465 E2.10708 A-104.06419
G1 X88.659 Y105.593 E2.14561 A-104.09514
G1 X88.794 Y106.245 E2.16776 A-103.95208
G1 X88.958 Y107.137 E2.19792 A-104.02422
G1 X89.139 Y108.319 E2.23769 A-104.11136
G1 X89.28 Y109.5 E2.27725 A-104.11106
G1 X89.372 Y110.542 E2.31204 A-104.0693
G1 X89.431 Y111.525 E2.3448 A-104.05157
G1 X89.45 Y112.177 E2.36649 A-103.95208
G1 X89.457 Y112.919 E2.39117 A-103.97913
G1 X89.452 Y113.98 E2.42646 A-104.07501
G1 X89.414 Y115.103 E2.46383 A-104.09363
G1 X89.351 Y116.019 E2.49437 A-104.03143
G1 X89.271 Y116.88 E2.52313 A-104.0149
G1 X89.136 Y118 E2.56065 A-104.09273
G1 X88.962 Y119.129 E2.59865 A-104.09544
G1 X88.792 Y120.056 E2.62999 A-104.03474
G1 X88.591 Y121.004 E2.66223 A-104.04105
G1 X88.381 Y121.881 E2.69222 A-104.01971
G1 X88.174 Y122.663 E2.71912 A-103.99116
G1 X87.874 Y123.687 E2.75461 A-104.06389
G1 X87.549 Y124.686 E2.78956 A-104.05638
G1 X87.12 Y125.869 E2.83141 A-104.11166
G1 X86.714 Y126.889 E2.86792 A-104.06269
G1 X86.337 Y127.76 E2.89949 A-104.01791
G1 X85.915 Y128.663 E2.93264 A-104.02752
G1 X85.446 Y129.6 E2.96749 A-104.03774
G1 X85.095 Y130.246 E2.99195 A-103.95027
G1 X84.257 Y131.697 E3.04768 A-104.19216
G1 X84.05 Y132.041 E3.06103 A-103.85946
G1 X83.682 Y132.621 E3.08388 A-103.93043
G1 X83.119 Y133.459 E3.11745 A-104.00799
G1 X82.508 Y134.314 E3.15241 A-104.0131
G1 X81.929 Y135.08 E3.18434 A-103.98635
G1 X81.307 Y135.855 E3.21739 A-103.98905
G1 X80.644 Y136.635 E3.25144 A-103.99055
G1 X80.117 Y137.224 E3.27773 A-103.93313
G1 X79.524 Y137.857 E3.30658 A-103.94636
G1 X78.524 Y138.855 E3.35357 A-104.05607
G1 X77.769 Y139.562 E3.38797 A-103.96861
G1 X77.057 Y140.192 E3.41959 A-103.94546
G1 X76.304 Y140.822 E3.45225 A-103.94546
G1 X75.443 Y141.501 E3.48872 A-103.96019
G1 X74.63 Y142.104 E3.52238 A-103.93734
G1 X73.873 Y142.634 E3.55312 A-103.91539
G1 X73.256 Y143.046 E3.5778 A-103.87991
G1 X72.697 Y143.401 E3.59982 A-103.86277
G1 X70.881 Y144.456 E3.66967 A-104.0732
G1 X70.532 Y144.65 E3.68295 A-103.81434
G1 X69.947 Y144.956 E3.70491 A-103.84803
G1 X69.321 Y145.266 E3.72815 A-103.84923
G1 X68.295 Y145.742 E3.76576 A-103.89916
G1 X67.222 Y146.201 E3.80458 A-103.89404
G1 X66.591 Y146.449 E3.82713 A-103.83058
G1 X65.5 Y146.848 E3.86577 A-103.876
G1 X64.398 Y147.21 E3.90435 A-103.86487
G1 X63.264 Y147.544 E3.94367 A-103.85645
G1 X62.733 Y147.686 E3.96195 A-103.79869
G1 X61.659 Y147.946 E3.9987 A-103.83419
G1 X60.727 Y148.144 E4.03039 A-103.81554
G1 X59.707 Y148.33 E4.06488 A-103.81193
G1 X58.665 Y148.49 E4.09994 A-103.80411
G1 X57.705 Y148.61 E4.13212 A-103.79208
G1 X56.685 Y148.708 E4.1662 A-103.78546
G1 X55.384 Y148.79 E4.20956 A-103.78064
G1 X54.736 Y148.808 E4.23112 A-103.76139
G1 X53.747 Y148.814 E4.26401 A-103.75778
G1 X52.862 Y148.809 E4.29345 A-103.75447
G1 X52.227 Y148.792 E4.31458 A-103.75085
G1 X51.21 Y148.733 E4.34846 A-103.73822
G1 X50.09 Y148.634 E4.38586 A-103.72618
G1 X49.163 Y148.526 E4.4169 A-103.72347
G1 X48.187 Y148.384 E4.4497 A-103.71324
G1 X47.137 Y148.201 E4.48515 A-103.7009
G1 X46.26 Y148.025 E4.5149 A-103.703
G1 X45.902 Y147.945 E4.5271 A-103.7319
G1 X44.771 Y147.669 E4.56582 A-103.6729
G1 X43.925 Y147.437 E4.595 A-103.68615
G1 X42.91 Y147.129 E4.63028 A-103.66327
G1 X42.072 Y146.848 E4.65967 A-103.6714
G1 X41.281 Y146.563 E4.68764 A-103.67019
G1 X40.348 Y146.199 E4.72095 A-103.64641
G1 X39.167 Y145.694 E4.76367 A-103.60396
G1 X38.539 Y145.404 E4.78668 A-103.66869
G1 X37.308 Y144.793 E4.83239 A-103.57204
G1 X36.763 Y144.498 E4.853 A-103.66718
G1 X35.999 Y144.064 E4.88222 A-103.62534
G1 X34.912 Y143.423 E4.92419 A-103.563
G1 X34.307 Y143.039 E4.94803 A-103.64039
G1 X33.693 Y142.631 E4.97255 A-103.63317
G1 X32.919 Y142.089 E5.00397 A-103.59282
G1 X31.826 Y141.269 E5.04942 A-103.50909
G1 X31.079 Y140.669 E5.08129 A-103.57535
G1 X30.516 Y140.195 E5.10577 A-103.61329
G1 X29.758 Y139.523 E5.13946 A-103.55367
G1 X29.048 Y138.858 E5.17181 A-103.55578
G1 X28.061 Y137.871 E5.21824 A-103.45877
G1 X27.638 Y137.424 E5.23871 A-103.62142
G1 X26.877 Y136.576 E5.2766 A-103.50065
G1 X26.287 Y135.883 E5.30688 A-103.54734
G1 X25.476 Y134.864 E5.35019 A-103.44913
G1 X24.807 Y133.964 E5.38749 A-103.48499
G1 X24.432 Y133.432 E5.40914 A-103.59583
G1 X23.711 Y132.347 E5.45247 A-103.42924
G1 X23.375 Y131.8 E5.47382 A-103.59131
G1 X22.946 Y131.068 E5.50204 A-103.5356
G1 X22.295 Y129.917 E5.54602 A-103.40935
G1 X21.963 Y129.284 E5.56979 A-103.56541
G1 X21.543 Y128.427 E5.60154 A-103.49794
G1 X21.076 Y127.4 E5.63906 A-103.44672
G1 X20.709 Y126.529 E5.6705 A-103.49372
G1 X20.37 Y125.657 E5.70161 A-103.49342
G1 X20.111 Y124.94 E5.72697 A-103.54011
G1 X19.778 Y123.942 E5.76196 A-103.45546
G1 X19.484 Y122.972 E5.79567 A-103.4639
G1 X19.172 Y121.804 E5.83588 A-103.40423
G1 X18.914 Y120.702 E5.87353 A-103.42412
G1 X18.73 Y119.793 E5.90437 A-103.48228
G1 X18.548 Y118.75 E5.93959 A-103.4419
G1 X18.395 Y117.694 E5.97508 A-103.43798
G1 X18.322 Y117.082 E5.99558 A-103.57174
G1 X18.196 Y115.7 E6.04173 A-103.33972
G1 X18.14 Y114.752 E6.07332 A-103.47052
G1 X18.122 Y114.098 E6.09508 A-103.55909
G1 X18.116 Y113.059 E6.12964 A-103.4431
G1 X18.121 Y112.217 E6.15764 A-103.50246
G1 X18.138 Y111.586 E6.17864 A-103.56602
G1 X18.196 Y110.577 E6.21225 A-103.45214
G1 X18.296 Y109.448 E6.24995 A-103.41598
G1 X18.405 Y108.515 E6.28119 A-103.47504
G1 X18.597 Y107.233 E6.32431 A-103.36987
G1 X18.785 Y106.202 E6.35916 A-103.44552
G1 X18.982 Y105.276 E6.39065 A-103.47715
G1 X19.257 Y104.148 E6.42927 A-103.41628
G1 X19.42 Y103.541 E6.45017 A-103.57324
G1 X19.673 Y102.677 E6.48012 A-103.49583
G1 X20.018 Y101.617 E6.51719 A-103.43678
G1 X20.361 Y100.656 E6.55113 A-103.46661
G1 X20.722 Y99.728 E6.58425 A-103.47655
G1 X21.104 Y98.822 E6.61695 A-103.48318
G1 X21.567 Y97.811 E6.65394 A-103.45154
G1 X22.098 Y96.74 E6.6937 A-103.43346
G1 X22.433 Y96.12 E6.71713 A-103.56933
G1 X22.926 Y95.254 E6.75028 A-103.49523
G1 X23.336 Y94.554 E6.77726 A-103.54523
G1 X23.76 Y93.868 E6.80408 A-103.54945
G1 X24.429 Y92.862 E6.84427 A-103.45305
G1 X25.045 Y91.997 E6.87959 A-103.49553
G1 X25.466 Y91.436 E6.90291 A-103.5871
G1 X26.292 Y90.398 E6.94704 A-103.44341
G1 X26.872 Y89.718 E6.97676 A-103.55126
G1 X27.488 Y89.029 E7.0075 A-103.54855
G1 X28.281 Y88.19 E7.0459 A-103.50336
G1 X29.024 Y87.454 E7.08068 A-103.53439
G1 X29.573 Y86.935 E7.10581 A-103.59974
G1 X30.28 Y86.299 E7.13744 A-103.56451
G1 X31.082 Y85.618 E7.17243 A-103.55096
G1 X31.799 Y85.04 E7.20307 A-103.58198
G1 X32.968 Y84.164 E7.25165 A-103.49222
G1 X33.462 Y83.816 E7.27175 A-103.65123
G1 X34.349 Y83.221 E7.30727 A-103.57686
G1 X34.899 Y82.873 E7.32892 A-103.65123
G1 X36.687 Y81.833 E7.39772 A-103.4428
G1 X37.039 Y81.638 E7.4111 A-103.69729
G1 X37.624 Y81.332 E7.43306 A-103.66387
G1 X38.25 Y81.022 E7.45629 A-103.66267
G0 F6000 X38.709 Y81.247 A-103.82366
G1 F1200 X39.664 Y80.812 E7.4912 A-103.62504
G1 X40.207 Y80.58 E7.51084 A-103.68615
G1 X41.491 Y80.075 E7.55673 A-103.60396
G1 X42.396 Y79.752 E7.58869 A-103.65876
G1 X43.065 Y79.531 E7.61212 A-103.68946
G1 X44.053 Y79.232 E7.64645 A-103.66598
G1 X45.064 Y78.958 E7.68129 A-103.67351
G1 X46.185 Y78.691 E7.71962 A-103.67561
G1 X46.934 Y78.534 E7.74507 A-103.70872
G1 X47.942 Y78.35 E7.77915 A-103.7006
G1 X48.971 Y78.193 E7.81378 A-103.70872
G1 X49.906 Y78.076 E7.84512 A-103.72076
G1 X51.229 Y77.955 E7.8893 A-103.71956
G1 X52.192 Y77.898 E7.92139 A-103.73882
G1 X52.825 Y77.88 E7.94245 A-103.75055
G1 X53.759 Y77.874 E7.97352 A-103.75416
G1 X54.736 Y77.88 E8.00601 A-103.75778
G1 X55.324 Y77.896 E8.02558 A-103.76078
G1 X56.337 Y77.955 E8.05933 A-103.77372
G1 X57.74 Y78.084 E8.10619 A-103.79478
G1 X58.656 Y78.199 E8.13689 A-103.79057
G1 X59.624 Y78.348 E8.16947 A-103.8008
G1 X60.338 Y78.476 E8.19359 A-103.79448
G1 X61.378 Y78.688 E8.2289 A-103.81975
G1 X62.3 Y78.903 E8.26038 A-103.82066
G1 X63.528 Y79.234 E8.30269 A-103.85555
G1 X64.201 Y79.435 E8.32605 A-103.81644
G1 X65.19 Y79.757 E8.36064 A-103.85284
G1 X66.053 Y80.064 E8.39111 A-103.84833
G1 X67.157 Y80.495 E8.43052 A-103.88562
G1 X67.932 Y80.822 E8.4585 A-103.85435
G1 X68.86 Y81.246 E8.49244 A-103.88352
G1 X69.781 Y81.697 E8.52654 A-103.89164
G1 X70.612 Y82.139 E8.55785 A-103.88893
G1 X71.286 Y82.522 E8.58363 A-103.87119
G1 X72.474 Y83.221 E8.62948 A-103.96621
G1 X72.988 Y83.547 E8.64972 A-103.85404
G1 X73.68 Y84.007 E8.67736 A-103.89434
G1 X74.661 Y84.7 E8.71731 A-103.9644
G1 X75.445 Y85.293 E8.75 A-103.93434
G1 X76.303 Y85.981 E8.78658 A-103.9629
G1 X76.79 Y86.392 E8.80778 A-103.87961
G1 X77.552 Y87.069 E8.84168 A-103.95959
G1 X78.51 Y87.975 E8.88553 A-104.02843
G1 X79.202 Y88.674 E8.91825 A-103.96621
G1 X79.619 Y89.114 E8.93841 A-103.88833
G1 X80.358 Y89.935 E8.97515 A-104.00288
G1 X81.011 Y90.702 E9.00866 A-103.98665
G1 X81.787 Y91.678 E9.05013 A-104.04946
G1 X82.4 Y92.505 E9.08437 A-104.00468
G1 X82.98 Y93.332 E9.11796 A-104.00468
G1 X83.352 Y93.891 E9.1403 A-103.92411
G1 X83.7 Y94.441 E9.16194 A-103.92141
G1 X84.363 Y95.565 E9.20535 A-104.09394
G1 X84.782 Y96.3 E9.23349 A-103.97703
G1 X85.251 Y97.181 E9.26668 A-104.02091
G1 X85.663 Y98.023 E9.29786 A-104.00919
G1 X86.009 Y98.776 E9.32542 A-103.98244
G1 X86.354 Y99.575 E9.35437 A-103.99627
G1 X86.75 Y100.571 E9.39002 A-104.05547
G1 X87.175 Y101.745 E9.43154 A-104.10896
G1 X87.479 Y102.682 E9.46431 A-104.03774
G1 X87.813 Y103.821 E9.50379 A-104.09844
G1 X88.006 Y104.558 E9.52913 A-103.97763
G1 X88.267 Y105.674 E9.56725 A-104.09153
G1 X88.402 Y106.326 E9.58939 A-103.95208
G1 X88.564 Y107.208 E9.61922 A-104.02121
G1 X88.743 Y108.378 E9.65858 A-104.10776
G1 X88.882 Y109.537 E9.69741 A-104.10445
G1 X88.973 Y110.568 E9.73183 A-104.06599
G1 X89.031 Y111.539 E9.76419 A-104.04796
G1 X89.05 Y112.181 E9.78555 A-103.94907
G1 X89.057 Y112.923 E9.81023 A-103.97913
G1 X89.052 Y113.978 E9.84532 A-104.0732
G1 X89.015 Y115.077 E9.88189 A-104.08642
G1 X88.953 Y115.982 E9.91206 A-104.02813
G1 X88.873 Y116.843 E9.94082 A-104.0149
G1 X88.782 Y117.631 E9.96721 A-103.99296
G1 X88.618 Y118.756 E10.00502 A-104.09424
G1 X88.4 Y119.975 E10.04621 A-104.12248
G1 X88.202 Y120.91 E10.078 A-104.03714
G1 X87.992 Y121.787 E10.10799 A-104.01971
G1 X87.713 Y122.826 E10.14377 A-104.0684
G1 X87.491 Y123.573 E10.16969 A-103.98064
G1 X87.169 Y124.56 E10.20422 A-104.05277
G1 X86.854 Y125.442 E10.23537 A-104.02121
G1 X86.46 Y126.454 E10.27149 A-104.06028
G1 X86.097 Y127.314 E10.30254 A-104.0146
G1 X85.687 Y128.214 E10.33543 A-104.02662
G1 X85.226 Y129.152 E10.37019 A-104.03804
G1 X84.93 Y129.717 E10.39141 A-103.92592
G1 X84.748 Y130.046 E10.40391 A-103.85495
G1 X83.91 Y131.497 E10.45965 A-104.19216
G1 X83.711 Y131.828 E10.47249 A-103.85555
G1 X83.348 Y132.4 E10.49502 A-103.92802
G1 X82.793 Y133.228 E10.52818 A-104.00498
G1 X82.351 Y133.851 E10.55358 A-103.94336
G1 X81.796 Y134.597 E10.58451 A-103.98033
G1 X81.2 Y135.355 E10.61658 A-103.98394
G1 X80.346 Y136.368 E10.66065 A-104.06058
G1 X79.819 Y136.957 E10.68694 A-103.93313
G1 X79.233 Y137.583 E10.71546 A-103.94426
G1 X78.448 Y138.372 E10.75247 A-103.99326
G1 X77.734 Y139.052 E10.78527 A-103.96049
G1 X77.007 Y139.706 E10.81779 A-103.95268
G1 X76.055 Y140.509 E10.85922 A-103.99747
G1 X75.204 Y141.18 E10.89526 A-103.95779
G1 X74.4 Y141.777 E10.92857 A-103.93554
G1 X73.874 Y142.148 E10.94998 A-103.86758
G1 X73.033 Y142.713 E10.98367 A-103.92592
G1 X72.485 Y143.061 E11.00527 A-103.86066
G1 X72.177 Y143.246 E11.01722 A-103.81163
G1 X70.681 Y144.11 E11.07467 A-104.0158
G1 X70.345 Y144.296 E11.08745 A-103.81193
G1 X69.769 Y144.597 E11.10906 A-103.84652
G1 X68.862 Y145.041 E11.14265 A-103.88953
G1 X68.128 Y145.378 E11.16951 A-103.85735
G1 X67.385 Y145.701 E11.19646 A-103.85314
G1 X66.176 Y146.178 E11.23969 A-103.89946
G1 X65.058 Y146.577 E11.27917 A-103.876
G1 X64.284 Y146.827 E11.30622 A-103.83118
G1 X63.16 Y147.157 E11.34519 A-103.85525
G1 X62.35 Y147.37 E11.37304 A-103.82005
G1 X61.255 Y147.626 E11.41044 A-103.83299
G1 X60.36 Y147.807 E11.44082 A-103.81043
G1 X59.342 Y147.985 E11.47519 A-103.80953
G1 X58.606 Y148.095 E11.49994 A-103.78907
G1 X57.381 Y148.242 E11.54098 A-103.8002
G1 X56.648 Y148.31 E11.56546 A-103.77643
G1 X55.682 Y148.375 E11.59766 A-103.77553
G1 X54.733 Y148.408 E11.62924 A-103.7659
G1 X53.749 Y148.414 E11.66197 A-103.75778
G1 X52.864 Y148.409 E11.69141 A-103.75447
G1 X52.24 Y148.392 E11.71217 A-103.75085
G1 X50.911 Y148.308 E11.75646 A-103.73069
G1 X49.84 Y148.205 E11.79225 A-103.72497
G1 X48.905 Y148.087 E11.82359 A-103.72046
G1 X47.967 Y147.943 E11.85516 A-103.71264
G1 X47.207 Y147.808 E11.88083 A-103.71534
G1 X46.341 Y147.633 E11.91021 A-103.7033
G1 X45.149 Y147.352 E11.95095 A-103.6714
G1 X44.318 Y147.132 E11.97954 A-103.68976
G1 X43.327 Y146.84 E12.0139 A-103.66809
G1 X42.476 Y146.564 E12.04366 A-103.6729
G1 X41.112 Y146.071 E12.0919 A-103.60757
G1 X40.219 Y145.714 E12.12388 A-103.64852
G1 X39.605 Y145.451 E12.1461 A-103.67682
G1 X38.707 Y145.04 E12.17895 A-103.63226
G1 X37.79 Y144.591 E12.21291 A-103.62082
G1 X36.96 Y144.15 E12.24417 A-103.62323
G1 X36.196 Y143.716 E12.27339 A-103.62534
G1 X35.125 Y143.084 E12.31475 A-103.56571
G1 X34.528 Y142.706 E12.33825 A-103.6422
G1 X33.914 Y142.298 E12.36277 A-103.63317
G1 X32.909 Y141.587 E12.40372 A-103.54192
G1 X32.075 Y140.956 E12.4385 A-103.56602
G1 X31.337 Y140.363 E12.46999 A-103.57746
G1 X30.774 Y139.889 E12.49447 A-103.61329
G1 X30.025 Y139.225 E12.52776 A-103.55608
G1 X29.323 Y138.567 E12.55976 A-103.55788
G1 X28.352 Y137.596 E12.60544 A-103.46359
G1 X27.711 Y136.911 E12.63664 A-103.54975
G1 X26.993 Y136.1 E12.67266 A-103.5118
G1 X26.592 Y135.625 E12.69334 A-103.61299
G1 X25.796 Y134.625 E12.73585 A-103.45486
G1 X25.313 Y133.98 E12.76265 A-103.5618
G1 X24.759 Y133.201 E12.79445 A-103.52144
G1 X24.05 Y132.135 E12.83703 A-103.43497
G1 X23.719 Y131.597 E12.85804 A-103.59402
G1 X23.293 Y130.87 E12.88606 A-103.5371
G1 X22.795 Y129.996 E12.91952 A-103.49282
G1 X22.459 Y129.374 E12.94303 A-103.56873
G1 X21.906 Y128.259 E12.98443 A-103.4202
G1 X21.444 Y127.244 E13.02152 A-103.45034
G1 X21.081 Y126.383 E13.0526 A-103.49674
G1 X20.746 Y125.521 E13.08336 A-103.49643
G1 X20.487 Y124.804 E13.10871 A-103.54011
G1 X20.066 Y123.525 E13.1535 A-103.37077
G1 X19.783 Y122.559 E13.18698 A-103.4651
G1 X19.561 Y121.711 E13.21613 A-103.50065
G1 X19.305 Y120.62 E13.2534 A-103.42743
G1 X19.178 Y120.007 E13.27423 A-103.57144
G1 X18.994 Y118.996 E13.3084 A-103.45154
G1 X18.834 Y117.952 E13.34353 A-103.4416
G1 X18.69 Y116.754 E13.38367 A-103.39519
G1 X18.595 Y115.675 E13.41969 A-103.43105
G1 X18.54 Y114.738 E13.45091 A-103.47384
G1 X18.522 Y114.096 E13.47227 A-103.5627
G1 X18.516 Y113.061 E13.5067 A-103.44431
G1 X18.521 Y112.219 E13.5347 A-103.50246
G1 X18.538 Y111.599 E13.55533 A-103.56933
G1 X18.596 Y110.602 E13.58855 A-103.45576
G1 X18.726 Y109.19 E13.63571 A-103.33068
G1 X18.841 Y108.274 E13.66642 A-103.48017
G1 X18.991 Y107.304 E13.69906 A-103.4639
G1 X19.177 Y106.283 E13.73358 A-103.44853
G1 X19.371 Y105.37 E13.76462 A-103.48107
G1 X19.644 Y104.252 E13.8029 A-103.4193
G1 X19.882 Y103.377 E13.83306 A-103.49252
G1 X20.056 Y102.791 E13.85339 A-103.57957
G1 X20.398 Y101.743 E13.89006 A-103.44039
G1 X20.738 Y100.792 E13.92365 A-103.46962
G1 X21.094 Y99.874 E13.9564 A-103.47956
G1 X21.472 Y98.979 E13.98871 A-103.48649
G1 X22.05 Y97.728 E14.03455 A-103.37921
G1 X22.451 Y96.928 E14.06431 A-103.51511
G1 X22.781 Y96.318 E14.08738 A-103.57234
G1 X23.271 Y95.456 E14.12036 A-103.49643
G1 X23.681 Y94.756 E14.14734 A-103.54523
G1 X24.099 Y94.08 E14.17377 A-103.55246
G1 X24.591 Y93.333 E14.20352 A-103.53108
G1 X25.365 Y92.238 E14.24812 A-103.42623
G1 X25.968 Y91.441 E14.28136 A-103.51602
G1 X26.403 Y90.894 E14.30461 A-103.59131
G1 X26.971 Y90.214 E14.33408 A-103.55126
G1 X27.786 Y89.296 E14.37491 A-103.47956
G1 X28.564 Y88.474 E14.41255 A-103.50849
G1 X29.299 Y87.745 E14.44698 A-103.5365
G1 X30.077 Y87.016 E14.48244 A-103.5365
G1 X30.765 Y86.408 E14.51298 A-103.57294
G1 X31.34 Y85.923 E14.538 A-103.60998
G1 X32.304 Y85.155 E14.57899 A-103.52475
G1 X33.198 Y84.491 E14.61603 A-103.55608
G1 X33.92 Y83.987 E14.64532 A-103.60426
G1 X34.57 Y83.554 E14.67129 A-103.62564
G1 X35.11 Y83.212 E14.69255 A-103.65304
G1 X36.887 Y82.18 E14.7609 A-103.44521
G1 X37.226 Y81.992 E14.77379 A-103.69939
G1 X37.802 Y81.691 E14.79541 A-103.66538
G1 X38.709 Y81.247 E14.829 A-103.62233
G0 F6000 X38.876 Y81.61 A-103.86517
G1 F1200 X39.821 Y81.18 E14.86353 A-103.62654
G1 X40.364 Y80.948 E14.88317 A-103.68615
G1 X41.36 Y80.552 E14.91882 A-103.63678
G1 X42.252 Y80.225 E14.95042 A-103.65755
G1 X43.191 Y79.911 E14.98335 A-103.66146
G1 X44.167 Y79.615 E15.01727 A-103.66688
G1 X45.166 Y79.345 E15.05169 A-103.67471
G1 X45.996 Y79.144 E15.08009 A-103.69548
G1 X47.016 Y78.926 E15.11478 A-103.69036
G1 X48.298 Y78.697 E15.1581 A-103.68705
G1 X49.03 Y78.588 E15.18271 A-103.72317
G1 X49.954 Y78.473 E15.21368 A-103.72136
G1 X51.254 Y78.354 E15.2571 A-103.72016
G1 X51.918 Y78.312 E15.27923 A-103.74333
G1 X52.55 Y78.286 E15.30027 A-103.74815
G1 X53.757 Y78.274 E15.34042 A-103.75236
G1 X54.734 Y78.28 E15.37291 A-103.75778
G1 X55.311 Y78.296 E15.39211 A-103.76078
G1 X56.312 Y78.354 E15.42546 A-103.77342
G1 X57.399 Y78.45 E15.46175 A-103.78486
G1 X58.318 Y78.557 E15.49253 A-103.78816
G1 X59.26 Y78.694 E15.52419 A-103.79719
G1 X60.268 Y78.87 E15.55822 A-103.80892
G1 X61.596 Y79.146 E15.60333 A-103.83901
G1 X62.207 Y79.292 E15.62423 A-103.7999
G1 X63.155 Y79.544 E15.65685 A-103.83179
G1 X64.364 Y79.906 E15.69883 A-103.86487
G1 X65.326 Y80.227 E15.73256 A-103.85254
G1 X66.208 Y80.55 E15.7638 A-103.85314
G1 X67.01 Y80.867 E15.79248 A-103.85134
G1 X67.774 Y81.19 E15.82007 A-103.85314
G1 X68.693 Y81.609 E15.85366 A-103.88201
G1 X69.604 Y82.056 E15.88742 A-103.89044
G1 X70.414 Y82.487 E15.91793 A-103.88562
G1 X71.195 Y82.931 E15.94781 A-103.88953
G1 X72.262 Y83.56 E15.98901 A-103.94516
G1 X72.767 Y83.881 E16.00891 A-103.85254
G1 X73.697 Y84.504 E16.04614 A-103.94336
G1 X74.421 Y85.02 E16.07571 A-103.91118
G1 X75.196 Y85.606 E16.10803 A-103.93223
G1 X75.818 Y86.101 E16.13447 A-103.90487
G1 X76.532 Y86.698 E16.16542 A-103.93554
G1 X77.483 Y87.549 E16.20787 A-104.0119
G1 X78.227 Y88.258 E16.24205 A-103.96921
G1 X78.735 Y88.768 E16.26599 A-103.90938
G1 X79.53 Y89.609 E16.30448 A-104.00889
G1 X80.255 Y90.426 E16.34081 A-104.00168
G1 X80.705 Y90.96 E16.36404 A-103.9166
G1 X81.467 Y91.918 E16.40475 A-104.04405
G1 X82.073 Y92.735 E16.43859 A-104.00168
G1 X82.647 Y93.554 E16.47185 A-104.00228
G1 X83.182 Y94.366 E16.50419 A-104.00017
G1 X83.505 Y94.891 E16.5247 A-103.91389
G1 X83.953 Y95.655 E16.55415 A-103.98575
G1 X84.434 Y96.498 E16.58643 A-104.00949
G1 X84.756 Y97.094 E16.60896 A-103.93524
G1 X85.17 Y97.92 E16.6397 A-104.00438
G1 X85.761 Y99.203 E16.68668 A-104.1417
G1 X85.986 Y99.731 E16.70577 A-103.91479
G1 X86.378 Y100.718 E16.74109 A-104.05277
G1 X86.702 Y101.602 E16.7724 A-104.02181
G1 X87 Y102.491 E16.80359 A-104.02332
G1 X87.354 Y103.667 E16.84444 A-104.10956
G1 X87.547 Y104.373 E16.86878 A-103.96831
G1 X87.81 Y105.462 E16.90604 A-104.08342
G1 X88.061 Y106.668 E16.94701 A-104.11857
G1 X88.221 Y107.584 E16.97794 A-104.03143
G1 X88.348 Y108.437 E17.00662 A-104.0125
G1 X88.455 Y109.303 E17.03565 A-104.0164
G1 X88.552 Y110.326 E17.06982 A-104.06359
G1 X88.631 Y111.552 E17.11069 A-104.12458
G1 X88.65 Y112.185 E17.13175 A-103.94636
G1 X88.657 Y112.927 E17.15643 A-103.97913
G1 X88.652 Y113.976 E17.19132 A-104.0714
G1 X88.615 Y115.052 E17.22713 A-104.07951
G1 X88.554 Y115.945 E17.2569 A-104.02452
G1 X88.446 Y117.073 E17.29459 A-104.09514
G1 X88.345 Y117.882 E17.3217 A-103.99927
G1 X88.175 Y118.988 E17.35892 A-104.08853
G1 X88.009 Y119.894 E17.38956 A-104.02843
G1 X87.813 Y120.817 E17.42094 A-104.03354
G1 X87.603 Y121.694 E17.45093 A-104.01971
G1 X87.402 Y122.456 E17.47715 A-103.98514
G1 X87.107 Y123.459 E17.51192 A-104.05758
G1 X86.699 Y124.695 E17.55521 A-104.12758
G1 X86.376 Y125.576 E17.58642 A-104.02091
G1 X86.088 Y126.307 E17.61255 A-103.97583
G1 X85.611 Y127.424 E17.65295 A-104.09183
G1 X85.199 Y128.307 E17.68536 A-104.02151
G1 X84.868 Y128.974 E17.71012 A-103.95659
G1 X84.577 Y129.53 E17.731 A-103.92321
G1 X84.402 Y129.846 E17.74301 A-103.85104
G1 X83.564 Y131.297 E17.79874 A-104.19216
G1 X83.372 Y131.615 E17.8111 A-103.85164
G1 X83.015 Y132.179 E17.8333 A-103.92562
G1 X82.467 Y132.996 E17.86602 A-104.00168
G1 X81.868 Y133.835 E17.9003 A-104.00829
G1 X81.476 Y134.358 E17.92204 A-103.91329
G1 X80.887 Y135.106 E17.95371 A-103.98094
G1 X80.244 Y135.876 E17.98707 A-103.98755
G1 X79.52 Y136.69 E18.02331 A-104.00077
G1 X78.942 Y137.308 E18.05145 A-103.94185
G1 X78.166 Y138.088 E18.08805 A-103.99055
G1 X77.237 Y138.965 E18.13054 A-104.01971
G1 X76.54 Y139.582 E18.1615 A-103.94155
G1 X76.042 Y140.003 E18.18319 A-103.88262
G1 X75.2 Y140.678 E18.21908 A-103.95899
G1 X74.403 Y141.28 E18.2523 A-103.93704
G1 X73.428 Y141.969 E18.29201 A-103.9632
G1 X72.811 Y142.381 E18.31669 A-103.87991
G1 X72.273 Y142.722 E18.33787 A-103.85856
G1 X71.977 Y142.9 E18.34936 A-103.80953
G1 X70.481 Y143.764 E18.40682 A-104.0158
G1 X70.158 Y143.943 E18.4191 A-103.80983
G1 X69.592 Y144.239 E18.44034 A-103.84502
G1 X68.966 Y144.549 E18.46358 A-103.84923
G1 X67.961 Y145.015 E18.50042 A-103.89615
G1 X66.929 Y145.456 E18.53775 A-103.88863
G1 X66.039 Y145.802 E18.56951 A-103.86006
G1 X64.934 Y146.197 E18.60854 A-103.8748
G1 X64.17 Y146.444 E18.63525 A-103.83028
G1 X63.057 Y146.771 E18.67383 A-103.85435
G1 X62.258 Y146.981 E18.70131 A-103.81915
G1 X61.474 Y147.168 E18.72811 A-103.81223
G1 X60.29 Y147.413 E18.76833 A-103.82968
G1 X59.283 Y147.589 E18.80233 A-103.80892
G1 X58.547 Y147.699 E18.82708 A-103.78907
G1 X57.61 Y147.815 E18.85848 A-103.79087
G1 X56.309 Y147.935 E18.90194 A-103.79208
G1 X55.358 Y147.99 E18.93362 A-103.77252
G1 X54.73 Y148.008 E18.95452 A-103.76139
G1 X53.751 Y148.014 E18.98708 A-103.75778
G1 X52.866 Y148.009 E19.01652 A-103.75447
G1 X52.254 Y147.992 E19.03688 A-103.75085
G1 X50.948 Y147.91 E19.0804 A-103.73129
G1 X49.888 Y147.808 E19.11582 A-103.72528
G1 X48.965 Y147.692 E19.14676 A-103.72106
G1 X48.037 Y147.549 E19.17799 A-103.71294
G1 X47.005 Y147.362 E19.21287 A-103.69969
G1 X46.09 Y147.167 E19.24399 A-103.69729
G1 X44.979 Y146.896 E19.28203 A-103.67441
G1 X44.154 Y146.67 E19.31048 A-103.68795
G1 X43.161 Y146.369 E19.34499 A-103.66538
G1 X42.343 Y146.095 E19.37368 A-103.67351
G1 X41.259 Y145.699 E19.41207 A-103.63678
G1 X40.377 Y145.346 E19.44366 A-103.64972
G1 X39.763 Y145.083 E19.46588 A-103.67682
G1 X38.875 Y144.677 E19.49835 A-103.63377
G1 X37.967 Y144.232 E19.53199 A-103.62203
G1 X37.158 Y143.802 E19.56246 A-103.62654
G1 X36.278 Y143.301 E19.59614 A-103.60516
G1 X35.6 Y142.904 E19.62227 A-103.63648
G1 X34.978 Y142.52 E19.64658 A-103.64039
G1 X33.892 Y141.798 E19.68996 A-103.53861
G1 X33.38 Y141.436 E19.71081 A-103.64701
G1 X32.561 Y140.826 E19.74478 A-103.57234
G1 X31.807 Y140.231 E19.77672 A-103.57686
G1 X31.032 Y139.583 E19.81032 A-103.5609
G1 X30.291 Y138.926 E19.84326 A-103.55819
G1 X29.379 Y138.064 E19.885 A-103.49643
G1 X28.642 Y137.321 E19.91981 A-103.53228
G1 X28.009 Y136.645 E19.95061 A-103.55246
G1 X27.474 Y136.044 E19.97737 A-103.57505
G1 X26.898 Y135.367 E20.00694 A-103.55216
G1 X26.116 Y134.385 E20.04869 A-103.46028
G1 X25.633 Y133.74 E20.07549 A-103.5618
G1 X25.086 Y132.971 E20.10688 A-103.52445
G1 X24.39 Y131.924 E20.14869 A-103.44069
G1 X24.064 Y131.395 E20.16936 A-103.59673
G1 X23.708 Y130.789 E20.19274 A-103.57354
G1 X23.143 Y129.798 E20.23068 A-103.45757
G1 X22.812 Y129.186 E20.25382 A-103.57174
G1 X22.4 Y128.365 E20.28437 A-103.50879
G1 X21.812 Y127.087 E20.33116 A-103.37107
G1 X21.453 Y126.236 E20.36188 A-103.49975
G1 X21.226 Y125.66 E20.38247 A-103.58258
G1 X20.769 Y124.395 E20.42721 A-103.37499
G1 X20.537 Y123.691 E20.45186 A-103.54403
G1 X20.17 Y122.456 E20.49471 A-103.38403
G1 X19.95 Y121.618 E20.52353 A-103.50367
G1 X19.697 Y120.539 E20.56039 A-103.43105
G1 X19.517 Y119.652 E20.5905 A-103.4889
G1 X19.339 Y118.632 E20.62493 A-103.44883
G1 X19.19 Y117.599 E20.65965 A-103.44491
G1 X19.088 Y116.717 E20.68918 A-103.49041
G1 X19.017 Y115.948 E20.71486 A-103.52445
G1 X18.954 Y115.014 E20.746 A-103.47474
G1 X18.928 Y114.376 E20.76724 A-103.56391
G1 X18.916 Y113.063 E20.81091 A-103.36052
G1 X18.921 Y112.221 E20.83891 A-103.50246
G1 X18.938 Y111.612 E20.85918 A-103.57264
G1 X18.995 Y110.627 E20.89199 A-103.45938
G1 X19.123 Y109.239 E20.93835 A-103.33791
G1 X19.199 Y108.612 E20.95936 A-103.56722
G1 X19.336 Y107.67 E20.99102 A-103.47233
G1 X19.52 Y106.617 E21.02658 A-103.43889
G1 X19.686 Y105.795 E21.05447 A-103.50849
G1 X19.964 Y104.615 E21.09479 A-103.40061
G1 X20.193 Y103.749 E21.12458 A-103.49523
G1 X20.44 Y102.905 E21.15383 A-103.50186
G1 X20.778 Y101.868 E21.19011 A-103.44371
G1 X21.114 Y100.928 E21.22331 A-103.47294
G1 X21.466 Y100.021 E21.25567 A-103.48288
G1 X21.84 Y99.136 E21.28762 A-103.48951
G1 X22.408 Y97.905 E21.33272 A-103.38524
G1 X22.804 Y97.116 E21.36208 A-103.51843
G1 X23.128 Y96.515 E21.38479 A-103.57505
G1 X23.549 Y95.774 E21.41313 A-103.53288
G1 X24.182 Y94.701 E21.45457 A-103.43286
G1 X24.438 Y94.292 E21.47062 A-103.63286
G1 X24.924 Y93.555 E21.49998 A-103.53409
G1 X25.51 Y92.718 E21.53396 A-103.50397
G1 X26.281 Y91.69 E21.5767 A-103.44642
G1 X26.716 Y91.143 E21.59995 A-103.59131
G1 X27.468 Y90.252 E21.63873 A-103.4877
G1 X28.276 Y89.353 E21.67893 A-103.48529
G1 X28.64 Y88.968 E21.69655 A-103.64009
G1 X29.375 Y88.229 E21.73122 A-103.53349
G1 X30.343 Y87.314 E21.77552 A-103.48047
G1 X30.812 Y86.896 E21.79642 A-103.63015
G1 X31.598 Y86.229 E21.8307 A-103.55517
G1 X32.544 Y85.475 E21.87094 A-103.52897
G1 X33.429 Y84.818 E21.9076 A-103.55819
G1 X34.142 Y84.32 E21.93652 A-103.60607
G1 X34.792 Y83.887 E21.9625 A-103.62564
G1 X35.321 Y83.552 E21.98333 A-103.65514
G1 X37.087 Y82.526 E22.05126 A-103.44702
G1 X37.413 Y82.345 E22.06366 A-103.7015
G1 X37.979 Y82.049 E22.0849 A-103.66688
G1 X38.876 Y81.61 E22.11812 A-103.62383
G1 F1500 E15.61812
; MESH:bracelet.3mf(9)
G0 F6000 X42.983 Y90.208 A-106.32913
G0 X44.326 Y94.072 A-104.91573
; TYPE:WALL-INNER
G1 F1500 E22.11812
G1 F1200 X44.95 Y93.774 E22.14112 A-103.66628
G1 X45.538 Y93.517 E22.16246 A-103.67862
G1 X46.134 Y93.276 E22.18384 A-103.68344
G1 X46.731 Y93.057 E22.20499 A-103.69006
G1 X47.351 Y92.848 E22.22676 A-103.69307
G1 X47.966 Y92.663 E22.24812 A-103.7003
G1 X48.59 Y92.495 E22.26961 A-103.70541
G1 X49.212 Y92.349 E22.29086 A-103.71203
G1 X49.848 Y92.22 E22.31244 A-103.71715
G1 X50.482 Y92.111 E22.33384 A-103.72317
G1 X51.154 Y92.017 E22.35641 A-103.72768
G1 X51.76 Y91.949 E22.37669 A-103.73551
G1 X52.444 Y91.895 E22.39951 A-103.73972
G1 X52.345 Y89.098 E22.4926 A-102.9127
G1 X51.578 Y89.156 E22.51818 A-103.77342
G1 X50.891 Y89.229 E22.54116 A-103.77794
G1 X50.215 Y89.321 E22.56385 A-103.78365
G1 X49.54 Y89.432 E22.5866 A-103.78937
G1 X48.871 Y89.562 E22.60927 A-103.79508
G1 X48.238 Y89.704 E22.63085 A-103.79869
G1 X47.552 Y89.876 E22.65437 A-103.80772
G1 X46.879 Y90.065 E22.67762 A-103.81283
G1 X46.232 Y90.269 E22.70018 A-103.81735
G1 X45.583 Y90.494 E22.72303 A-103.82366
G1 X44.95 Y90.735 E22.74556 A-103.82848
G1 X44.316 Y90.996 E22.76836 A-103.83449
G1 X43.699 Y91.269 E22.7908 A-103.8381
G1 X43.011 Y91.601 E22.81621 A-103.85585
G1 X44.326 Y94.072 E22.90931 A-104.49829
G0 F6000 X44.158 Y94.607 A-103.9169
; TYPE:WALL-OUTER
G1 F1200 X44.539 Y94.412 E22.92355 A-103.69729
G1 X45.11 Y94.14 E22.94458 A-103.67411
G1 X45.688 Y93.888 E22.96555 A-103.68013
G1 X46.272 Y93.652 E22.9865 A-103.68494
G1 X46.859 Y93.436 E23.00731 A-103.69096
G1 X47.466 Y93.231 E23.02862 A-103.69428
G1 X48.07 Y93.049 E23.0496 A-103.7012
G1 X48.675 Y92.886 E23.07044 A-103.70692
G1 X49.31 Y92.738 E23.09212 A-103.71143
G1 X49.916 Y92.614 E23.1127 A-103.71865
G1 X50.538 Y92.507 E23.13369 A-103.72377
G1 X51.198 Y92.415 E23.15585 A-103.72828
G1 X51.792 Y92.348 E23.17573 A-103.73581
G1 X52.421 Y92.298 E23.19672 A-103.74092
G1 X52.858 Y92.276 E23.21127 A-103.74935
G1 X52.73 Y88.679 E23.33099 A-102.67089
G1 X52.239 Y88.703 E23.34734 A-103.76319
G1 X51.536 Y88.758 E23.37079 A-103.77252
G1 X50.838 Y88.833 E23.39414 A-103.77854
G1 X50.151 Y88.926 E23.4172 A-103.78395
G1 X49.464 Y89.039 E23.44035 A-103.78997
G1 X48.784 Y89.172 E23.4634 A-103.79599
G1 X48.106 Y89.325 E23.48652 A-103.802
G1 X47.491 Y89.478 E23.5076 A-103.802
G1 X46.759 Y89.683 E23.53288 A-103.81765
G1 X46.102 Y89.891 E23.5558 A-103.81855
G1 X45.441 Y90.12 E23.57907 A-103.82487
G1 X44.798 Y90.365 E23.60195 A-103.82968
G1 X44.154 Y90.63 E23.62511 A-103.8357
G1 X43.527 Y90.907 E23.64791 A-103.83931
G1 X42.907 Y91.204 E23.67078 A-103.84532
G1 X42.467 Y91.431 E23.68725 A-103.82427
G1 X44.158 Y94.607 E23.80692 A-104.70965
G0 F6000 X44.269 Y94.245 A-103.64701
G0 X44.593 Y93.833 A-103.63196
G0 X44.482 Y93.597 A-103.68494
; TYPE:SKIN
G1 F1200 X44.784 Y93.453 E23.81805 A-103.71264
G1 X45.361 Y93.2 E23.839 A-103.67983
G1 X46.004 Y92.941 E23.86206 A-103.67802
G1 X46.596 Y92.721 E23.88306 A-103.68976
G1 X47.223 Y92.51 E23.90507 A-103.69247
G1 X47.859 Y92.317 E23.92717 A-103.69789
G1 X48.514 Y92.142 E23.94972 A-103.7033
G1 X49.132 Y91.997 E23.97084 A-103.71233
G1 X49.775 Y91.866 E23.99266 A-103.71655
G1 X50.409 Y91.757 E24.01406 A-103.72317
G1 X51.057 Y91.666 E24.03582 A-103.72859
G1 X51.707 Y91.592 E24.05758 A-103.7337
G1 X52.072 Y91.563 E24.06976 A-103.74724
G1 X51.996 Y89.484 E24.13895 A-103.12949
G1 X51.624 Y89.512 E24.15136 A-103.7644
G1 X50.956 Y89.584 E24.17371 A-103.77763
G1 X50.292 Y89.673 E24.19599 A-103.78275
G1 X49.629 Y89.783 E24.21834 A-103.78907
G1 X48.967 Y89.911 E24.24077 A-103.79448
G1 X48.31 Y90.059 E24.26317 A-103.8005
G1 X47.664 Y90.219 E24.2853 A-103.80411
G1 X47.006 Y90.402 E24.30802 A-103.81103
G1 X46.368 Y90.604 E24.33028 A-103.81675
G1 X45.694 Y90.836 E24.35398 A-103.82577
G1 X45.255 Y91.003 E24.36961 A-103.80622
G1 X44.477 Y91.32 E24.39755 A-103.85134
G1 X43.863 Y91.591 E24.41987 A-103.8375
G1 X43.505 Y91.762 E24.43307 A-103.80742
G1 X44.482 Y93.597 E24.50221 A-104.30746
G0 F6000 X44.648 Y93.297 A-103.66568
G1 F1200 X44.436 Y93.085 E24.51218 A-103.69217
G0 F6000 X45.039 Y93.123 A-103.7674
G1 F1200 X43.793 Y91.876 E24.57081 A-103.38042
G0 F6000 X44.163 Y91.68 A-103.69698
G1 F1200 X45.435 Y92.953 E24.63067 A-104.1387
G0 F6000 X45.838 Y92.79 A-103.70692
G1 F1200 X44.553 Y91.505 E24.69111 A-103.36896
G0 F6000 X44.954 Y91.34 A-103.70631
G1 F1200 X46.248 Y92.634 E24.75198 A-104.14501
G0 F6000 X46.664 Y92.485 A-103.71113
G1 F1200 X45.356 Y91.177 E24.8135 A-103.36203
G0 F6000 X45.767 Y91.022 A-103.70932
G1 F1200 X47.087 Y92.342 E24.87559 A-104.15282
G0 F6000 X47.52 Y92.209 A-103.71595
G1 F1200 X46.187 Y90.876 E24.93829 A-103.35449
G0 F6000 X46.612 Y90.735 A-103.71354
G1 F1200 X47.958 Y92.082 E25.00163 A-104.16093
G0 F6000 X48.404 Y91.962 A-103.71986
G1 F1200 X47.042 Y90.6 E25.06569 A-103.34575
G0 F6000 X47.484 Y90.476 A-103.71865
G1 F1200 X48.861 Y91.853 E25.13046 A-104.16994
G0 F6000 X49.325 Y91.752 A-103.72558
G1 F1200 X47.931 Y90.358 E25.19603 A-103.3361
G0 F6000 X48.385 Y90.246 A-103.72227
G1 F1200 X49.797 Y91.658 E25.26245 A-104.18045
G0 F6000 X50.28 Y91.575 A-103.73099
G1 F1200 X48.847 Y90.142 E25.32985 A-103.32435
G0 F6000 X49.317 Y90.046 A-103.72708
G1 F1200 X50.773 Y91.502 E25.39834 A-104.19366
G0 F6000 X51.276 Y91.44 A-103.73731
G1 F1200 X49.793 Y89.957 E25.46809 A-103.30927
G0 F6000 X50.279 Y89.877 A-103.7319
G1 F1200 X51.787 Y91.385 E25.53902 A-104.20928
G0 F6000 X51.847 Y90.879 A-103.60366
G1 F1200 X50.777 Y89.809 E25.58935 A-103.43376
G0 F6000 X51.284 Y89.75 A-103.73822
G1 F1200 X51.825 Y90.292 E25.61482 A-103.919
G1 F1500 E19.11482
; MESH:bracelet.3mf
G0 F6000 X52.265 Y89.657 A-103.56481
G0 X52.266 Y91.736 A-104.38069
G0 X47.873 Y92.61 A-104.01881
G0 X44.439 Y94.217 A-104.23901
G0 X42.255 Y95.472 A-104.13329
G0 X36.055 Y101.357 A-105.52008
; TYPE:WALL-INNER
G1 F1500 E25.61482
G1 F1200 X36.448 Y100.787 E25.63785 A-103.58439
G1 X36.829 Y100.269 E25.65924 A-103.60004
G1 X37.226 Y99.763 E25.68063 A-103.60366
G1 X37.638 Y99.267 E25.70207 A-103.60667
G1 X38.065 Y98.784 E25.72352 A-103.61058
G1 X38.493 Y98.329 E25.74429 A-103.61901
G1 X38.962 Y97.86 E25.76635 A-103.6148
G1 X39.431 Y97.42 E25.78774 A-103.62353
G1 X39.914 Y96.992 E25.80921 A-103.62714
G1 X40.408 Y96.581 E25.83058 A-103.63226
G1 X40.943 Y96.164 E25.85314 A-103.63046
G1 X41.435 Y95.802 E25.87346 A-103.64701
G1 X41.998 Y95.415 E25.89618 A-103.63949
G1 X40.515 Y93.041 E25.98928 A-103.04044
G1 X39.882 Y93.474 E26.01479 A-103.88623
G1 X39.322 Y93.881 E26.03781 A-103.87841
G1 X38.78 Y94.3 E26.0606 A-103.88201
G1 X38.268 Y94.719 E26.0826 A-103.88201
G1 X37.738 Y95.181 E26.10599 A-103.89495
G1 X37.233 Y95.644 E26.12878 A-103.89525
G1 X36.744 Y96.121 E26.1515 A-103.89946
G1 X36.27 Y96.608 E26.1741 A-103.90246
G1 X35.804 Y97.114 E26.19698 A-103.90818
G1 X35.36 Y97.628 E26.21957 A-103.91058
G1 X34.928 Y98.157 E26.24229 A-103.91509
G1 X34.519 Y98.683 E26.26445 A-103.91419
G1 X34.112 Y99.244 E26.2875 A-103.92472
G1 X33.682 Y99.875 E26.3129 A-103.94576
G1 X36.055 Y101.357 E26.40595 A-104.20147
G0 F6000 X36.177 Y101.905 A-103.92081
; TYPE:WALL-OUTER
G1 F1200 X36.411 Y101.544 E26.42026 A-103.64732
G1 X36.77 Y101.024 E26.44128 A-103.59944
G1 X37.144 Y100.516 E26.46226 A-103.60306
G1 X37.534 Y100.019 E26.48327 A-103.60637
G1 X37.938 Y99.532 E26.50432 A-103.60938
G1 X38.357 Y99.058 E26.52536 A-103.61329
G1 X38.785 Y98.603 E26.54613 A-103.61901
G1 X39.236 Y98.152 E26.56735 A-103.62022
G1 X39.697 Y97.719 E26.58838 A-103.62564
G1 X40.17 Y97.299 E26.60942 A-103.62955
G1 X40.654 Y96.896 E26.63037 A-103.63467
G1 X41.18 Y96.486 E26.65255 A-103.63256
G1 X41.663 Y96.131 E26.67249 A-103.64912
G1 X42.182 Y95.772 E26.69348 A-103.64792
G1 X42.547 Y95.537 E26.70792 A-103.68525
G1 X40.639 Y92.485 E26.82763 A-102.83565
G1 X40.227 Y92.752 E26.84396 A-103.8363
G1 X39.646 Y93.15 E26.86738 A-103.8757
G1 X39.078 Y93.564 E26.89076 A-103.88051
G1 X38.527 Y93.99 E26.91392 A-103.88412
G1 X38.01 Y94.413 E26.93614 A-103.88322
G1 X37.468 Y94.886 E26.96007 A-103.89825
G1 X36.973 Y95.339 E26.98239 A-103.89224
G1 X36.474 Y95.824 E27.00553 A-103.90186
G1 X35.976 Y96.337 E27.02931 A-103.91028
G1 X35.502 Y96.852 E27.05259 A-103.91088
G1 X35.05 Y97.374 E27.07556 A-103.91299
G1 X34.612 Y97.911 E27.0986 A-103.9175
G1 X34.183 Y98.465 E27.12191 A-103.92261
G1 X33.782 Y99.017 E27.1446 A-103.92201
G1 X33.395 Y99.583 E27.16741 A-103.92622
G1 X33.125 Y99.999 E27.1839 A-103.88111
G1 X36.177 Y101.905 E27.30358 A-104.32877
G0 F6000 X36.096 Y101.535 A-103.64461
G0 X35.815 Y101.087 A-103.62112
G0 X35.952 Y100.869 A-103.69036
; TYPE:SKIN
G1 F1200 X36.143 Y100.592 E27.31477 A-103.6726
G1 X36.518 Y100.082 E27.33583 A-103.60245
G1 X36.934 Y99.551 E27.35826 A-103.59613
G1 X37.352 Y99.046 E27.38007 A-103.60396
G1 X37.797 Y98.541 E27.40245 A-103.60396
G1 X38.234 Y98.078 E27.42363 A-103.61661
G1 X38.699 Y97.614 E27.44548 A-103.6163
G1 X39.174 Y97.166 E27.46719 A-103.62112
G1 X39.667 Y96.728 E27.48913 A-103.62413
G1 X40.167 Y96.31 E27.5108 A-103.63015
G1 X40.727 Y95.874 E27.53441 A-103.62474
G1 X41.212 Y95.519 E27.5544 A-103.64912
G1 X41.511 Y95.312 E27.5665 A-103.69367
G1 X40.408 Y93.548 E27.63569 A-103.22453
G1 X40.088 Y93.768 E27.64861 A-103.82216
G1 X39.557 Y94.156 E27.67048 A-103.87269
G1 X39.022 Y94.568 E27.69294 A-103.87991
G1 X38.488 Y95.005 E27.71589 A-103.88743
G1 X37.998 Y95.434 E27.73755 A-103.88502
G1 X37.474 Y95.914 E27.76119 A-103.90036
G1 X37.014 Y96.361 E27.78252 A-103.89044
G1 X36.545 Y96.84 E27.80482 A-103.90006
G1 X36.091 Y97.334 E27.82713 A-103.90457
G1 X35.649 Y97.843 E27.84955 A-103.90908
G1 X35.211 Y98.379 E27.87258 A-103.9172
G1 X34.812 Y98.894 E27.89424 A-103.91088
G1 X34.416 Y99.44 E27.91668 A-103.92021
G1 X34.189 Y99.767 E27.92992 A-103.85435
G1 X35.952 Y100.869 E27.99907 A-104.08733
G0 F6000 X35.815 Y101.087 A-103.82156
G0 X33.924 Y99.822 A-103.37499
G0 X34.168 Y99.341 A-103.61119
G0 X34.548 Y99.602 A-103.83449
G1 F1200 X34.955 Y100.009 E28.01821 A-103.87841
G0 F6000 X34.785 Y99.273 A-103.53439
G1 F1200 X35.986 Y100.474 E28.0747 A-104.11707
G0 F6000 X36.224 Y100.146 A-103.65725
G1 F1200 X35.022 Y98.945 E28.13122 A-103.39428
G0 F6000 X35.27 Y98.627 A-103.66026
G1 F1200 X36.466 Y99.823 E28.18747 A-104.11557
G0 F6000 X36.715 Y99.506 A-103.66056
G1 F1200 X35.522 Y98.313 E28.24359 A-103.39669
G0 F6000 X35.776 Y98.002 A-103.66237
G1 F1200 X36.969 Y99.195 E28.2997 A-104.11467
G0 F6000 X37.226 Y98.886 A-103.66297
G1 F1200 X36.038 Y97.698 E28.35558 A-103.3982
G0 F6000 X36.302 Y97.396 A-103.66508
G1 F1200 X37.491 Y98.585 E28.41151 A-104.11346
G0 F6000 X37.76 Y98.288 A-103.66658
G1 F1200 X36.573 Y97.102 E28.46732 A-103.3988
G0 F6000 X36.85 Y96.812 A-103.66869
G1 F1200 X38.035 Y97.997 E28.52306 A-104.11226
G0 F6000 X38.315 Y97.712 A-103.67019
G1 F1200 X37.13 Y96.527 E28.5788 A-103.39911
G0 F6000 X37.417 Y96.248 A-103.672
G1 F1200 X38.599 Y97.43 E28.6344 A-104.11136
G0 F6000 X38.89 Y97.156 A-103.67351
G1 F1200 X37.706 Y95.972 E28.69009 A-103.39941
G0 F6000 X38.002 Y95.701 A-103.67441
G1 F1200 X39.186 Y96.886 E28.7458 A-104.11226
G0 F6000 X39.485 Y96.619 A-103.67561
G1 F1200 X38.3 Y95.434 E28.80154 A-103.39911
G0 F6000 X38.602 Y95.17 A-103.67652
G1 F1200 X39.791 Y96.36 E28.85749 A-104.11376
G0 F6000 X40.102 Y96.105 A-103.67923
G1 F1200 X38.912 Y94.915 E28.91347 A-103.3976
G0 F6000 X39.226 Y94.663 A-103.68013
G1 F1200 X40.42 Y95.857 E28.96963 A-104.11497
G0 F6000 X40.743 Y95.614 A-103.68284
G1 F1200 X39.545 Y94.417 E29.02596 A-103.39549
G0 F6000 X39.87 Y94.176 A-103.68344
G1 F1200 X41.071 Y95.377 E29.08245 A-104.11707
G0 F6000 X40.781 Y94.521 A-103.49824
G1 F1200 X40.198 Y93.938 E29.10987 A-103.58047
G1 F1500 E22.60987
; MESH:bracelet.3mf(8)
G0 F6000 X39.927 Y93.565 A-103.6437
G0 X40.463 Y93.283 A-103.6711
G0 X41.767 Y95.365 A-104.38159
G0 X37.906 Y98.909 A-104.8199
G0 X36.113 Y101.613 A-104.56817
G0 X34.854 Y103.808 A-104.4155
G0 X32.537 Y111.802 A-106.14923
; TYPE:WALL-INNER
G1 F1500 E29.10987
G1 F1200 X32.593 Y111.11 E29.13296 A-103.54764
G1 X32.664 Y110.474 E29.15425 A-103.56451
G1 X32.753 Y109.834 E29.17574 A-103.56331
G1 X32.861 Y109.213 E29.1967 A-103.56903
G1 X32.991 Y108.567 E29.21862 A-103.5615
G1 X33.14 Y107.941 E29.24002 A-103.56752
G1 X33.307 Y107.321 E29.26138 A-103.56933
G1 X33.494 Y106.696 E29.28307 A-103.56782
G1 X33.699 Y106.086 E29.30448 A-103.57234
G1 X33.913 Y105.505 E29.32507 A-103.58107
G1 X34.172 Y104.861 E29.34816 A-103.5621
G1 X34.419 Y104.299 E29.36858 A-103.5868
G1 X34.712 Y103.686 E29.39117 A-103.57144
G1 X32.241 Y102.37 E29.48429 A-103.35962
G1 X31.908 Y103.061 E29.5098 A-103.9638
G1 X31.628 Y103.693 E29.53279 A-103.94606
G1 X31.36 Y104.344 E29.55621 A-103.95178
G1 X31.134 Y104.947 E29.57763 A-103.93734
G1 X30.905 Y105.613 E29.60105 A-103.95628
G1 X30.702 Y106.263 E29.6237 A-103.95147
G1 X30.52 Y106.906 E29.64593 A-103.94937
G1 X30.351 Y107.565 E29.66855 A-103.95418
G1 X30.202 Y108.232 E29.69128 A-103.95659
G1 X30.072 Y108.903 E29.71402 A-103.95779
G1 X29.96 Y109.597 E29.7374 A-103.9647
G1 X29.87 Y110.255 E29.75949 A-103.95388
G1 X29.797 Y110.943 E29.7825 A-103.9629
G1 X29.74 Y111.702 E29.80781 A-103.98424
G1 X32.537 Y111.802 E29.9009 A-103.78606
G0 F6000 X32.917 Y112.216 A-103.88051
; TYPE:WALL-OUTER
G1 F1200 X32.939 Y111.785 E29.91526 A-103.62624
G1 X32.991 Y111.154 E29.93631 A-103.56602
G1 X33.06 Y110.529 E29.95723 A-103.56782
G1 X33.147 Y109.902 E29.97828 A-103.56722
G1 X33.253 Y109.292 E29.99887 A-103.57234
G1 X33.381 Y108.659 E30.02035 A-103.56541
G1 X33.526 Y108.045 E30.04134 A-103.57114
G1 X33.691 Y107.435 E30.06236 A-103.57234
G1 X33.874 Y106.823 E30.0836 A-103.57174
G1 X34.075 Y106.224 E30.10462 A-103.57565
G1 X34.285 Y105.653 E30.12485 A-103.58408
G1 X34.538 Y105.022 E30.14746 A-103.56602
G1 X34.78 Y104.471 E30.16748 A-103.59011
G1 X35.051 Y103.902 E30.18844 A-103.58469
G1 X35.248 Y103.517 E30.20282 A-103.64009
G1 X32.07 Y101.826 E30.32256 A-103.24654
G1 X31.847 Y102.262 E30.33884 A-103.88713
G1 X31.548 Y102.884 E30.3618 A-103.94306
G1 X31.258 Y103.541 E30.38568 A-103.95358
G1 X30.986 Y104.203 E30.40949 A-103.95508
G1 X30.758 Y104.811 E30.43109 A-103.93885
G1 X30.523 Y105.493 E30.45508 A-103.96109
G1 X30.317 Y106.154 E30.47811 A-103.95478
G1 X30.129 Y106.822 E30.50119 A-103.95689
G1 X29.962 Y107.472 E30.52351 A-103.95147
G1 X29.81 Y108.15 E30.54662 A-103.95989
G1 X29.678 Y108.833 E30.56976 A-103.9614
G1 X29.566 Y109.519 E30.59287 A-103.9623
G1 X29.471 Y110.229 E30.6167 A-103.96951
G1 X29.398 Y110.912 E30.63955 A-103.9614
G1 X29.345 Y111.597 E30.6624 A-103.962
G1 X29.322 Y112.088 E30.67875 A-103.90367
G1 X32.917 Y112.216 E30.79839 A-103.79448
G0 F6000 X32.662 Y111.935 A-103.6714
G0 X32.464 Y111.45 A-103.60998
G0 X32.205 Y111.429 A-103.74965
; TYPE:SKIN
G1 F1200 X32.233 Y111.092 E30.80964 A-103.65454
G1 X32.301 Y110.464 E30.83065 A-103.56692
G1 X32.394 Y109.789 E30.85331 A-103.55276
G1 X32.503 Y109.163 E30.87445 A-103.56752
G1 X32.634 Y108.511 E30.89656 A-103.55969
G1 X32.789 Y107.855 E30.91898 A-103.55849
G1 X32.964 Y107.216 E30.94102 A-103.56361
G1 X33.145 Y106.604 E30.96225 A-103.57174
G1 X33.355 Y105.981 E30.98411 A-103.56842
G1 X33.571 Y105.392 E31.00498 A-103.57866
G1 X33.84 Y104.719 E31.02908 A-103.55337
G1 X34.084 Y104.165 E31.04922 A-103.5892
G1 X34.237 Y103.843 E31.06108 A-103.65906
G1 X32.403 Y102.864 E31.13022 A-103.46118
G1 X32.244 Y103.198 E31.14253 A-103.85645
G1 X31.896 Y103.987 E31.17121 A-103.99326
G1 X31.707 Y104.449 E31.18781 A-103.89495
G1 X31.478 Y105.056 E31.20939 A-103.93855
G1 X31.257 Y105.701 E31.23206 A-103.94997
G1 X31.056 Y106.343 E31.25444 A-103.94907
G1 X30.871 Y106.997 E31.27704 A-103.95268
G1 X30.705 Y107.645 E31.29929 A-103.95087
G1 X30.559 Y108.289 E31.32126 A-103.94967
G1 X30.431 Y108.948 E31.34358 A-103.95418
G1 X30.317 Y109.648 E31.36717 A-103.96651
G1 X30.229 Y110.295 E31.38889 A-103.95057
G1 X30.158 Y110.962 E31.4112 A-103.95659
G1 X30.127 Y111.354 E31.42428 A-103.87389
G1 X32.205 Y111.429 E31.49344 A-103.77854
G0 F6000 X32.464 Y111.45 A-103.76229
G0 X29.925 Y111.535 A-103.78155
G0 X29.929 Y110.663 A-103.49342
G0 X30.385 Y110.712 A-103.77071
G1 F1200 X30.851 Y111.179 E31.51538 A-103.89645
G0 F6000 X31.438 Y111.2 A-103.76229
G1 F1200 X30.443 Y110.204 E31.56221 A-103.45606
G0 F6000 X30.51 Y109.706 A-103.60607
G1 F1200 X32.022 Y111.217 E31.6333 A-104.21018
G0 F6000 X32.075 Y110.706 A-103.60215
G1 F1200 X30.588 Y109.219 E31.70325 A-103.30806
G0 F6000 X30.674 Y108.739 A-103.61149
G1 F1200 X32.136 Y110.201 E31.77201 A-104.19547
G0 F6000 X32.205 Y109.704 A-103.60637
G1 F1200 X30.768 Y108.267 E31.83961 A-103.32314
G0 F6000 X30.873 Y107.806 A-103.61721
G1 F1200 X32.29 Y109.223 E31.90626 A-104.18195
G0 F6000 X32.381 Y108.749 A-103.61329
G1 F1200 X30.986 Y107.353 E31.9719 A-103.3355
G0 F6000 X31.104 Y106.906 A-103.62142
G1 F1200 X32.482 Y108.284 E32.03672 A-104.17024
G0 F6000 X32.589 Y107.826 A-103.61811
G1 F1200 X31.228 Y106.464 E32.10076 A-103.34575
G0 F6000 X31.362 Y106.032 A-103.62594
G1 F1200 X32.711 Y107.381 E32.16421 A-104.16153
G0 F6000 X32.836 Y106.941 A-103.62353
G1 F1200 X31.5 Y105.605 E32.22705 A-103.35359
G0 F6000 X31.645 Y105.184 A-103.62925
G1 F1200 X32.966 Y106.505 E32.28919 A-104.15312
G0 F6000 X33.108 Y106.082 A-103.62865
G1 F1200 X31.799 Y104.772 E32.35078 A-103.36143
G0 F6000 X31.957 Y104.365 A-103.63347
G1 F1200 X33.257 Y105.665 E32.41193 A-104.14681
G0 F6000 X33.411 Y105.253 A-103.63196
G1 F1200 X32.123 Y103.965 E32.47251 A-103.36806
G0 F6000 X32.297 Y103.574 A-103.63828
G1 F1200 X33.572 Y104.848 E32.53246 A-104.139
G0 F6000 X33.741 Y104.451 A-103.63648
G1 F1200 X32.472 Y103.183 E32.59213 A-103.37409
G0 F6000 X32.057 Y102.984 A-103.69608
G0 X32.318 Y102.606 A-103.6422
G0 X33.783 Y103.305 A-103.96621
G0 X33.567 Y103.712 A-103.87841
G1 F1200 X33.915 Y104.06 E32.6085 A-103.86066
G1 F1500 E26.1085
; MESH:bracelet.3mf(3)
G0 F6000 X34.328 Y104.254 A-103.81434
G0 X33.147 Y108.613 A-105.06389
G0 X32.965 Y109.684 A-104.07801
G0 X32.773 Y111.14 A-104.19366
G0 X33.852 Y111.233 A-103.78395
G0 X33.728 Y113.097 A-104.31616
G0 X32.677 Y113.217 A-103.79208
G0 X32.243 Y123.919 A-106.95491
; TYPE:WALL-INNER
G1 F1500 E32.6085
G1 F1200 X34.713 Y122.603 E32.70158 A-103.35962
G1 X34.414 Y121.98 E32.72457 A-103.56842
G1 X34.158 Y121.392 E32.7459 A-103.57897
G1 X33.918 Y120.797 E32.76723 A-103.57686
G1 X33.694 Y120.195 E32.7886 A-103.57475
G1 X33.488 Y119.573 E32.81039 A-103.56873
G1 X33.305 Y118.964 E32.83154 A-103.57264
G1 X33.137 Y118.34 E32.85303 A-103.56812
G1 X32.986 Y117.699 E32.87494 A-103.563
G1 X32.862 Y117.083 E32.89584 A-103.57053
G1 X32.752 Y116.446 E32.91734 A-103.56421
G1 X32.663 Y115.811 E32.93866 A-103.56481
G1 X32.591 Y115.171 E32.96009 A-103.56331
G1 X32.536 Y114.486 E32.98294 A-103.54975
G1 X29.741 Y114.585 E33.07596 A-103.78576
G1 X29.798 Y115.351 E33.10151 A-103.98635
G1 X29.871 Y116.04 E33.12455 A-103.9632
G1 X29.963 Y116.715 E33.14721 A-103.95899
G1 X30.073 Y117.389 E33.16993 A-103.95869
G1 X30.205 Y118.059 E33.19264 A-103.95749
G1 X30.354 Y118.727 E33.2154 A-103.95689
G1 X30.518 Y119.375 E33.23763 A-103.95087
G1 X30.707 Y120.05 E33.26095 A-103.95899
G1 X30.911 Y120.7 E33.28361 A-103.95147
G1 X31.127 Y121.327 E33.30566 A-103.94456
G1 X31.376 Y121.979 E33.32888 A-103.95208
G1 X31.637 Y122.615 E33.35174 A-103.94727
G1 X31.91 Y123.232 E33.37418 A-103.94155
G1 X32.243 Y123.919 E33.39958 A-103.9626
G0 F6000 X32.073 Y124.463 A-103.9196
; TYPE:WALL-OUTER
G1 F1200 X35.248 Y122.772 E33.51922 A-103.24654
G1 X35.054 Y122.391 E33.53344 A-103.64129
G1 X34.781 Y121.82 E33.55449 A-103.58408
G1 X34.529 Y121.242 E33.57546 A-103.58198
G1 X34.293 Y120.657 E33.59644 A-103.57987
G1 X34.074 Y120.072 E33.61722 A-103.57987
G1 X33.871 Y119.458 E33.63873 A-103.57114
G1 X33.691 Y118.86 E33.6595 A-103.57595
G1 X33.527 Y118.248 E33.68057 A-103.57174
G1 X33.378 Y117.62 E33.70204 A-103.56692
G1 X33.256 Y117.015 E33.72257 A-103.57385
G1 X33.148 Y116.39 E33.74366 A-103.56782
G1 X33.061 Y115.766 E33.76462 A-103.56812
G1 X32.99 Y115.138 E33.78564 A-103.56692
G1 X32.939 Y114.508 E33.80666 A-103.56632
G1 X32.917 Y114.072 E33.82118 A-103.62474
G1 X29.321 Y114.2 E33.94086 A-103.79448
G1 X29.345 Y114.69 E33.95718 A-103.90337
G1 X29.4 Y115.393 E33.98063 A-103.96741
G1 X29.469 Y116.047 E34.0025 A-103.95268
G1 X29.564 Y116.755 E34.02626 A-103.96891
G1 X29.681 Y117.465 E34.0502 A-103.96951
G1 X29.814 Y118.146 E34.07327 A-103.96079
G1 X29.966 Y118.825 E34.09642 A-103.96019
G1 X30.132 Y119.483 E34.11899 A-103.95388
G1 X30.325 Y120.169 E34.14269 A-103.9623
G1 X30.516 Y120.782 E34.16405 A-103.94035
G1 X30.761 Y121.489 E34.18893 A-103.96861
G1 X31.006 Y122.13 E34.21176 A-103.94877
G1 X31.271 Y122.777 E34.23501 A-103.95057
G1 X31.549 Y123.404 E34.25782 A-103.94456
G1 X31.846 Y124.023 E34.28066 A-103.94215
G1 X32.073 Y124.463 E34.29713 A-103.88833
G0 F6000 X32.186 Y124.096 A-103.64551
G0 X32.168 Y123.538 A-103.588
G0 X32.402 Y123.425 A-103.72196
; TYPE:SKIN
G1 F1200 X34.24 Y122.446 E34.36639 A-103.46118
G1 X34.083 Y122.121 E34.37839 A-103.65815
G1 X33.833 Y121.547 E34.39922 A-103.58318
G1 X33.581 Y120.924 E34.42157 A-103.56842
G1 X33.354 Y120.323 E34.44294 A-103.57505
G1 X33.149 Y119.697 E34.46485 A-103.56752
G1 X32.963 Y119.078 E34.48634 A-103.56963
G1 X32.792 Y118.449 E34.50802 A-103.56662
G1 X32.634 Y117.783 E34.53079 A-103.55547
G1 X32.51 Y117.166 E34.55172 A-103.57023
G1 X32.398 Y116.52 E34.57353 A-103.5615
G1 X32.308 Y115.874 E34.59522 A-103.5615
G1 X32.234 Y115.223 E34.61701 A-103.55999
G1 X32.204 Y114.858 E34.62919 A-103.64611
G1 X30.127 Y114.933 E34.69832 A-103.77854
G1 X30.156 Y115.312 E34.71096 A-103.86998
G1 X30.23 Y116.005 E34.73414 A-103.9644
G1 X30.32 Y116.671 E34.75649 A-103.95628
G1 X30.424 Y117.304 E34.77783 A-103.94636
G1 X30.555 Y117.963 E34.80018 A-103.95418
G1 X30.701 Y118.618 E34.8225 A-103.95298
G1 X30.862 Y119.266 E34.84471 A-103.95087
G1 X31.042 Y119.908 E34.86688 A-103.94907
G1 X31.246 Y120.567 E34.88983 A-103.95418
G1 X31.464 Y121.199 E34.91206 A-103.94606
G1 X31.697 Y121.807 E34.93372 A-103.93885
G1 X31.961 Y122.455 E34.95699 A-103.95087
G1 X32.231 Y123.069 E34.9793 A-103.94065
G1 X32.402 Y123.425 E34.99244 A-103.86307
G0 F6000 X32.588 Y123.098 A-103.65755
G1 F1200 X32.363 Y122.873 E35.00302 A-103.68826
G0 F6000 X32.957 Y122.901 A-103.7644
G1 F1200 X31.947 Y121.891 E35.05053 A-103.45184
G0 F6000 X31.599 Y120.978 A-103.48107
G1 F1200 X33.326 Y122.704 E35.13174 A-104.27474
G0 F6000 X33.695 Y122.508 A-103.69698
G1 F1200 X31.32 Y120.133 E35.24345 A-103.04014
G0 F6000 X31.089 Y119.336 A-103.51602
G1 F1200 X33.867 Y122.114 E35.37412 A-104.59035
G0 F6000 X34.284 Y121.932 A-103.7012
G0 X33.73 Y120.579 A-103.34846
G0 X33.449 Y121.13 A-103.92171
G1 F1200 X30.896 Y118.577 E35.4942 A-102.9864
G0 F6000 X30.736 Y117.852 A-103.5377
G1 F1200 X33.113 Y120.228 E35.60599 A-104.4698
G0 F6000 X32.852 Y119.402 A-103.50728
G1 F1200 X30.602 Y117.152 E35.71182 A-103.07788
G0 F6000 X30.496 Y116.48 A-103.55367
G1 F1200 X32.628 Y118.612 E35.8121 A-104.39659
G0 F6000 X32.45 Y117.869 A-103.53228
G1 F1200 X30.411 Y115.83 E35.90801 A-103.14156
G0 F6000 X30.349 Y115.202 A-103.56692
G1 F1200 X32.307 Y117.159 E36.00009 A-104.34408
G0 F6000 X32.191 Y116.478 A-103.55096
G1 F1200 X30.819 Y115.107 E36.0646 A-103.34304
G0 F6000 X31.366 Y115.087 A-103.74995
G1 F1200 X32.101 Y115.822 E36.09917 A-103.97703
G0 F6000 X32.033 Y115.189 A-103.56541
G1 F1200 X31.912 Y115.068 E36.10486 A-103.71956
G1 F1500 E29.60486
; MESH:bracelet.3mf(11)
G0 F6000 X32.479 Y115.024 A-103.74273
G0 X33.645 Y119.533 A-105.10877
G0 X34.02 Y120.555 A-104.06329
G0 X34.583 Y121.915 A-104.16483
G0 X35.565 Y121.455 A-103.61751
G0 X36.391 Y123.133 A-104.26033
G0 X35.541 Y123.762 A-103.94516
G0 X40.516 Y133.249 A-106.59371
; TYPE:WALL-INNER
G1 F1500 E36.10486
G1 F1200 X41.999 Y130.875 E36.19796 A-103.04044
G1 X41.429 Y130.482 E36.22099 A-103.63768
G1 X40.91 Y130.099 E36.24244 A-103.64069
G1 X40.404 Y129.703 E36.26381 A-103.63678
G1 X39.908 Y129.291 E36.28526 A-103.63196
G1 X39.439 Y128.878 E36.30604 A-103.63166
G1 X38.962 Y128.429 E36.32783 A-103.62082
G1 X38.502 Y127.966 E36.34954 A-103.61661
G1 X38.073 Y127.51 E36.37036 A-103.61871
G1 X37.637 Y127.017 E36.39225 A-103.60757
G1 X37.22 Y126.52 E36.41383 A-103.60637
G1 X36.826 Y126.014 E36.43516 A-103.60366
G1 X36.443 Y125.495 E36.45661 A-103.59974
G1 X36.056 Y124.932 E36.47934 A-103.58649
G1 X33.684 Y126.414 E36.57236 A-104.20147
G1 X33.723 Y126.474 E36.57474 A-103.77402
G1 X34.116 Y127.048 E36.59788 A-103.92862
G1 X34.523 Y127.608 E36.6209 A-103.92441
G1 X34.928 Y128.133 E36.64296 A-103.91389
G1 X35.373 Y128.676 E36.66631 A-103.9193
G1 X35.823 Y129.194 E36.68913 A-103.91179
G1 X36.258 Y129.669 E36.71055 A-103.89886
G1 X36.76 Y130.185 E36.7345 A-103.91118
G1 X37.25 Y130.66 E36.75719 A-103.89886
G1 X37.755 Y131.124 E36.78 A-103.89555
G1 X38.256 Y131.559 E36.80207 A-103.88683
G1 X38.786 Y131.993 E36.82486 A-103.88653
G1 X39.325 Y132.411 E36.84754 A-103.88171
G1 X39.886 Y132.817 E36.87057 A-103.87811
G1 X40.516 Y133.249 E36.89598 A-103.88592
G0 F6000 X40.64 Y133.805 A-103.92321
; TYPE:WALL-OUTER
G1 F1200 X42.547 Y130.753 E37.01568 A-102.83565
G1 X42.186 Y130.519 E37.02999 A-103.68555
G1 X41.666 Y130.16 E37.051 A-103.64792
G1 X41.156 Y129.784 E37.07208 A-103.6428
G1 X40.66 Y129.395 E37.09304 A-103.63889
G1 X40.178 Y128.995 E37.11388 A-103.63557
G1 X39.699 Y128.573 E37.13511 A-103.62895
G1 X39.239 Y128.139 E37.15614 A-103.62534
G1 X38.794 Y127.692 E37.17712 A-103.62142
G1 X38.361 Y127.231 E37.19816 A-103.61721
G1 X37.943 Y126.76 E37.2191 A-103.6142
G1 X37.536 Y126.274 E37.24019 A-103.60968
G1 X37.148 Y125.776 E37.26118 A-103.60607
G1 X36.772 Y125.267 E37.28223 A-103.60275
G1 X36.413 Y124.748 E37.30322 A-103.59974
G1 X36.178 Y124.383 E37.31766 A-103.64611
G1 X33.127 Y126.29 E37.43733 A-104.32907
G1 X33.387 Y126.692 E37.45325 A-103.8769
G1 X33.792 Y127.284 E37.47711 A-103.93404
G1 X34.206 Y127.852 E37.50049 A-103.92682
G1 X34.598 Y128.361 E37.52185 A-103.90908
G1 X35.071 Y128.938 E37.54667 A-103.92953
G1 X35.528 Y129.464 E37.56984 A-103.91419
G1 X35.997 Y129.973 E37.59286 A-103.90908
G1 X36.481 Y130.472 E37.61599 A-103.90607
G1 X36.961 Y130.938 E37.63824 A-103.89615
G1 X37.493 Y131.426 E37.66225 A-103.90276
G1 X37.998 Y131.865 E37.6845 A-103.88803
G1 X38.553 Y132.318 E37.70833 A-103.89224
G1 X39.107 Y132.747 E37.73164 A-103.88502
G1 X39.659 Y133.147 E37.75431 A-103.8763
G1 X40.223 Y133.535 E37.77708 A-103.87269
G1 X40.64 Y133.805 E37.7936 A-103.8372
G0 F6000 X40.557 Y133.43 A-103.6431
G0 X40.261 Y132.954 A-103.61269
G0 X40.409 Y132.741 A-103.69187
; TYPE:SKIN
G1 F1200 X41.509 Y130.978 E37.86272 A-103.22483
G1 X41.233 Y130.786 E37.8739 A-103.69819
G1 X40.706 Y130.398 E37.89566 A-103.63919
G1 X40.192 Y129.995 E37.91739 A-103.63467
G1 X39.674 Y129.567 E37.93974 A-103.62714
G1 X39.195 Y129.145 E37.96097 A-103.62895
G1 X38.716 Y128.694 E37.98285 A-103.62022
G1 X38.253 Y128.228 E38.0047 A-103.6157
G1 X37.799 Y127.746 E38.02672 A-103.61088
G1 X37.374 Y127.266 E38.04805 A-103.61149
G1 X36.953 Y126.763 E38.06986 A-103.60456
G1 X36.514 Y126.199 E38.09364 A-103.58619
G1 X36.159 Y125.718 E38.11352 A-103.61119
G1 X35.953 Y125.42 E38.12557 A-103.66628
G1 X34.192 Y126.523 E38.19468 A-104.08763
G1 X34.404 Y126.829 E38.20706 A-103.84803
G1 X34.799 Y127.373 E38.22942 A-103.9196
G1 X35.21 Y127.907 E38.25183 A-103.9166
G1 X35.646 Y128.439 E38.27471 A-103.916
G1 X36.078 Y128.938 E38.29666 A-103.90607
G1 X36.554 Y129.457 E38.32009 A-103.91209
G1 X36.998 Y129.913 E38.34126 A-103.89314
G1 X37.503 Y130.404 E38.36468 A-103.90367
G1 X37.976 Y130.837 E38.38601 A-103.88623
G1 X38.489 Y131.283 E38.40862 A-103.89013
G1 X39.033 Y131.729 E38.43202 A-103.89013
G1 X39.536 Y132.117 E38.45315 A-103.87269
G1 X40.082 Y132.514 E38.4756 A-103.8754
G1 X40.409 Y132.741 E38.48884 A-103.82427
G0 F6000 X39.984 Y132.19 A-103.59011
G1 F1200 X34.737 Y126.944 E38.73562 A-102.17155
G0 F6000 X34.762 Y126.403 A-103.59312
G1 F1200 X40.529 Y132.17 E39.00688 A-105.48484
G0 F6000 X40.747 Y131.822 A-103.65123
G1 F1200 X35.109 Y126.184 E39.27207 A-102.05267
G0 F6000 X35.457 Y125.966 A-103.69036
G1 F1200 X40.964 Y131.473 E39.53111 A-105.40716
G0 F6000 X41.181 Y131.125 A-103.65123
G1 F1200 X40.689 Y130.633 E39.55425 A-103.60787
G0 F6000 X40.964 Y130.263 A-103.64461
G0 X36.673 Y125.975 A-102.4618
G0 X36.304 Y126.248 A-103.8381
G1 F1200 X35.804 Y125.748 E39.57777 A-103.60546
G1 F1500 E33.07777
; MESH:bracelet.3mf(5)
G0 F6000 X35.559 Y125.361 A-103.63949
G0 X36.006 Y125.163 A-103.69638
G0 X39.543 Y128.752 A-104.83338
G0 X41.153 Y130.05 A-104.14621
G0 X42.068 Y130.703 A-103.95238
G0 X44.245 Y131.967 A-104.136
G0 X52.343 Y137.19 A-105.32228
; TYPE:WALL-INNER
G1 F1500 E39.57777
G1 F1200 X52.443 Y134.393 E39.67085 A-102.9127
G1 X51.771 Y134.34 E39.69328 A-103.74002
G1 X51.114 Y134.266 E39.71527 A-103.7337
G1 X50.477 Y134.176 E39.73666 A-103.72889
G1 X49.855 Y134.069 E39.75765 A-103.72377
G1 X49.209 Y133.939 E39.77957 A-103.71685
G1 X48.584 Y133.79 E39.80094 A-103.71113
G1 X47.962 Y133.623 E39.82236 A-103.70571
G1 X47.337 Y133.435 E39.84407 A-103.69939
G1 X46.735 Y133.232 E39.8652 A-103.69488
G1 X46.146 Y133.016 E39.88607 A-103.69096
G1 X45.504 Y132.759 E39.90907 A-103.67862
G1 X44.942 Y132.511 E39.9295 A-103.68133
G1 X44.326 Y132.217 E39.9522 A-103.66749
G1 X43.013 Y134.688 E40.04527 A-104.49829
G1 X43.702 Y135.021 E40.07072 A-103.85615
G1 X44.335 Y135.301 E40.09374 A-103.84021
G1 X44.987 Y135.57 E40.1172 A-103.8369
G1 X45.605 Y135.801 E40.13914 A-103.82547
G1 X46.252 Y136.023 E40.16189 A-103.82276
G1 X46.906 Y136.228 E40.18469 A-103.81765
G1 X47.564 Y136.414 E40.20743 A-103.81193
G1 X48.206 Y136.579 E40.22948 A-103.80561
G1 X48.874 Y136.728 E40.25224 A-103.8008
G1 X49.544 Y136.858 E40.27494 A-103.79508
G1 X50.237 Y136.97 E40.29829 A-103.78967
G1 X50.896 Y137.06 E40.32041 A-103.78305
G1 X51.585 Y137.133 E40.34346 A-103.77794
G1 X52.343 Y137.19 E40.36874 A-103.77312
G0 F6000 X51.554 Y137.532 A-103.85886
; TYPE:WALL-OUTER
G1 F1200 X52.238 Y137.585 E40.39156 A-103.77192
G1 X52.729 Y137.608 E40.40791 A-103.76289
G1 X52.857 Y134.012 E40.52759 A-102.67119
G1 X52.428 Y133.99 E40.54187 A-103.74935
G1 X51.796 Y133.939 E40.56296 A-103.74062
G1 X51.17 Y133.87 E40.58391 A-103.73521
G1 X50.545 Y133.782 E40.6049 A-103.72949
G1 X49.934 Y133.677 E40.62552 A-103.72437
G1 X49.301 Y133.549 E40.647 A-103.71745
G1 X48.688 Y133.404 E40.66795 A-103.71233
G1 X48.077 Y133.24 E40.68899 A-103.70662
G1 X47.465 Y133.056 E40.71025 A-103.7006
G1 X46.873 Y132.856 E40.73103 A-103.69578
G1 X46.294 Y132.644 E40.75154 A-103.69217
G1 X45.666 Y132.393 E40.77403 A-103.68043
G1 X45.114 Y132.149 E40.79411 A-103.68254
G1 X44.542 Y131.879 E40.81515 A-103.67471
G1 X44.158 Y131.681 E40.82952 A-103.69638
G1 X42.467 Y134.86 E40.94928 A-104.71055
G1 X42.905 Y135.083 E40.96562 A-103.82306
G1 X43.54 Y135.387 E40.98904 A-103.84743
G1 X44.182 Y135.671 E41.01239 A-103.84141
G1 X44.819 Y135.934 E41.03531 A-103.83509
G1 X45.453 Y136.172 E41.05783 A-103.82757
G1 X46.132 Y136.405 E41.08171 A-103.82607
G1 X46.796 Y136.613 E41.10485 A-103.81855
G1 X47.465 Y136.802 E41.12798 A-103.81283
G1 X48.113 Y136.968 E41.15022 A-103.80592
G1 X48.792 Y137.12 E41.17337 A-103.8017
G1 X49.474 Y137.252 E41.19647 A-103.79569
G1 X50.16 Y137.364 E41.21959 A-103.78967
G1 X50.87 Y137.459 E41.24341 A-103.78455
G1 X51.554 Y137.532 E41.26629 A-103.77794
G0 F6000 X51.996 Y136.803 A-103.5365
; TYPE:SKIN
G1 F1200 X52.071 Y134.726 E41.33542 A-103.13009
G1 X51.736 Y134.698 E41.3466 A-103.74754
G1 X51.105 Y134.628 E41.36772 A-103.73491
G1 X50.44 Y134.536 E41.39005 A-103.72828
G1 X49.801 Y134.426 E41.41161 A-103.72287
G1 X49.136 Y134.292 E41.43417 A-103.71564
G1 X48.51 Y134.143 E41.45558 A-103.71113
G1 X47.878 Y133.973 E41.47734 A-103.70481
G1 X47.248 Y133.784 E41.49922 A-103.69909
G1 X46.604 Y133.568 E41.52181 A-103.69096
G1 X46.026 Y133.355 E41.5423 A-103.69187
G1 X45.409 Y133.111 E41.56437 A-103.68254
G1 X44.806 Y132.845 E41.58629 A-103.67591
G1 X44.483 Y132.692 E41.59818 A-103.70993
G1 X43.506 Y134.527 E41.66732 A-104.30746
G1 X43.841 Y134.688 E41.67968 A-103.80441
G1 X44.457 Y134.96 E41.70208 A-103.8378
G1 X45.136 Y135.243 E41.72655 A-103.84111
G1 X45.721 Y135.46 E41.7473 A-103.82126
G1 X46.377 Y135.687 E41.77039 A-103.82427
G1 X46.984 Y135.874 E41.79151 A-103.81223
G1 X47.642 Y136.062 E41.81427 A-103.81253
G1 X48.284 Y136.225 E41.8363 A-103.80501
G1 X48.93 Y136.371 E41.85833 A-103.7999
G1 X49.602 Y136.5 E41.88109 A-103.79478
G1 X50.275 Y136.612 E41.90378 A-103.78967
G1 X50.937 Y136.701 E41.926 A-103.78275
G1 X51.604 Y136.772 E41.94831 A-103.77733
G1 X51.996 Y136.803 E41.96139 A-103.7653
G0 F6000 X51.976 Y137.061 A-103.83359
G0 X52.32 Y135.032 A-103.14457
G0 X51.86 Y135.016 A-103.75116
G1 F1200 X51.741 Y134.896 E41.96701 A-103.71986
G0 F6000 X51.106 Y134.828 A-103.73551
G1 F1200 X51.84 Y135.562 E42.00153 A-103.97673
G0 F6000 X51.82 Y136.107 A-103.9199
G1 F1200 X50.452 Y134.739 E42.06588 A-103.34394
G0 F6000 X49.77 Y134.623 A-103.72106
G1 F1200 X51.724 Y136.577 E42.15779 A-104.34318
G0 F6000 X51.095 Y136.514 A-103.73701
G1 F1200 X49.061 Y134.479 E42.25349 A-103.14276
G0 F6000 X48.312 Y134.296 A-103.7009
G1 F1200 X50.447 Y136.432 E42.35393 A-104.3978
G0 F6000 X49.774 Y136.324 A-103.72347
G1 F1200 X47.526 Y134.075 E42.4597 A-103.07818
G0 F6000 X46.693 Y133.808 A-103.67561
G1 F1200 X49.079 Y136.195 E42.57195 A-104.4731
G0 F6000 X48.352 Y136.033 A-103.70722
G1 F1200 X45.799 Y133.48 E42.69204 A-102.9864
G0 F6000 X45.97 Y133.054 A-103.62775
G0 X45 Y132.647 A-103.63347
G0 X44.816 Y133.063 A-103.88111
G1 F1200 X47.591 Y135.838 E42.82256 A-104.58945
G0 F6000 X46.792 Y135.604 A-103.68555
G1 F1200 X44.42 Y133.233 E42.93411 A-103.04135
G0 F6000 X44.224 Y133.602 A-103.86698
G1 F1200 X45.947 Y135.326 E43.01518 A-104.27414
G0 F6000 X45.043 Y134.987 A-103.65394
G1 F1200 X44.028 Y133.971 E43.06295 A-103.45004
G0 F6000 X43.831 Y134.341 A-103.86728
G1 F1200 X44.044 Y134.553 E43.07294 A-103.81975
G1 F1500 E36.57294
; MESH:bracelet.3mf(6)
G0 F6000 X43.855 Y134.978 A-103.88382
G0 X46.949 Y136.074 A-104.08552
G0 X49.573 Y136.7 A-103.94426
G0 X51.6 Y136.972 A-103.8378
G0 X51.926 Y136.99 A-103.76139
G0 X52.535 Y136.962 A-103.74754
G0 X55.015 Y136.876 A-103.73009
G0 X55.226 Y137.189 A-103.85013
; TYPE:WALL-INNER
G1 F1500 E43.07294
G1 F1200 X55.993 Y137.132 E43.09852 A-103.73882
G1 X56.681 Y137.059 E43.12153 A-103.734
G1 X57.356 Y136.967 E43.14419 A-103.72828
G1 X58.031 Y136.856 E43.16694 A-103.72257
G1 X58.701 Y136.726 E43.18964 A-103.71685
G1 X59.369 Y136.577 E43.21241 A-103.71113
G1 X60.017 Y136.412 E43.23465 A-103.70631
G1 X60.693 Y136.223 E43.25799 A-103.69909
G1 X61.341 Y136.019 E43.28059 A-103.69458
G1 X61.99 Y135.794 E43.30343 A-103.68826
G1 X62.622 Y135.553 E43.32593 A-103.68344
G1 X63.255 Y135.293 E43.34869 A-103.67772
G1 X63.873 Y135.02 E43.37116 A-103.67381
G1 X64.56 Y134.687 E43.39656 A-103.65575
G1 X63.245 Y132.216 E43.48965 A-103.01116
G1 X62.622 Y132.514 E43.51262 A-103.84562
G1 X62.032 Y132.773 E43.53406 A-103.83389
G1 X61.439 Y133.011 E43.55531 A-103.82757
G1 X60.838 Y133.235 E43.57664 A-103.82336
G1 X60.229 Y133.439 E43.598 A-103.81735
G1 X59.61 Y133.624 E43.61949 A-103.81163
G1 X58.992 Y133.791 E43.64078 A-103.80622
G1 X58.341 Y133.944 E43.66302 A-103.802
G1 X57.723 Y134.068 E43.68399 A-103.79328
G1 X57.102 Y134.175 E43.70495 A-103.78816
G1 X56.466 Y134.266 E43.72632 A-103.78335
G1 X55.811 Y134.339 E43.74824 A-103.77794
G1 X55.128 Y134.393 E43.77102 A-103.77222
G1 X55.226 Y137.189 E43.86408 A-104.59575
G0 F6000 X54.841 Y137.609 A-103.88232
; TYPE:WALL-OUTER
G1 F1200 X55.332 Y137.585 E43.88043 A-103.74875
G1 X56.035 Y137.53 E43.90388 A-103.73942
G1 X56.688 Y137.461 E43.92572 A-103.73521
G1 X57.42 Y137.362 E43.95029 A-103.72618
G1 X58.107 Y137.249 E43.97344 A-103.72196
G1 X58.788 Y137.116 E43.99652 A-103.71595
G1 X59.467 Y136.965 E44.01966 A-103.71053
G1 X60.125 Y136.798 E44.04224 A-103.70571
G1 X60.813 Y136.605 E44.066 A-103.69789
G1 X61.471 Y136.397 E44.08896 A-103.69337
G1 X62.132 Y136.168 E44.11222 A-103.68705
G1 X62.774 Y135.923 E44.13508 A-103.68224
G1 X63.417 Y135.659 E44.1582 A-103.67652
G1 X64.045 Y135.381 E44.18104 A-103.6723
G1 X64.664 Y135.084 E44.20387 A-103.66658
G1 X65.104 Y134.857 E44.22034 A-103.68765
G1 X63.413 Y131.681 E44.34002 A-102.79818
G1 X63.032 Y131.876 E44.35425 A-103.81464
G1 X62.462 Y132.148 E44.37526 A-103.8378
G1 X61.883 Y132.401 E44.39627 A-103.83209
G1 X61.299 Y132.636 E44.41721 A-103.82667
G1 X60.711 Y132.855 E44.43808 A-103.82186
G1 X60.106 Y133.057 E44.45929 A-103.81675
G1 X59.501 Y133.238 E44.4803 A-103.81043
G1 X58.894 Y133.403 E44.50122 A-103.80561
G1 X58.262 Y133.552 E44.52282 A-103.8008
G1 X57.655 Y133.674 E44.54341 A-103.79268
G1 X57.033 Y133.78 E44.56439 A-103.78786
G1 X56.408 Y133.869 E44.58539 A-103.78275
G1 X55.779 Y133.94 E44.60645 A-103.77733
G1 X55.15 Y133.99 E44.62743 A-103.77101
G1 X54.714 Y134.012 E44.64195 A-103.76259
G1 X54.841 Y137.609 E44.76166 A-104.83577
G0 F6000 X55.1 Y137.326 A-103.6708
G0 X55.592 Y137.063 A-103.67682
G0 X55.574 Y136.803 A-103.67772
; TYPE:SKIN
G1 F1200 X55.947 Y136.774 E44.77411 A-103.74724
G1 X56.618 Y136.703 E44.79655 A-103.7346
G1 X57.279 Y136.615 E44.81873 A-103.72949
G1 X57.943 Y136.505 E44.84111 A-103.72287
G1 X58.604 Y136.377 E44.86351 A-103.71745
G1 X59.285 Y136.227 E44.8867 A-103.71083
G1 X59.906 Y136.07 E44.908 A-103.70872
G1 X60.585 Y135.88 E44.93146 A-103.69879
G1 X61.238 Y135.674 E44.95423 A-103.69397
G1 X61.842 Y135.465 E44.97549 A-103.69307
G1 X62.467 Y135.227 E44.99773 A-103.68434
G1 X63.13 Y134.957 E45.02154 A-103.67471
G1 X63.708 Y134.698 E45.04261 A-103.67802
G1 X64.067 Y134.526 E45.05585 A-103.70421
G1 X63.089 Y132.691 E45.12501 A-103.20311
G1 X62.79 Y132.833 E45.13602 A-103.79869
G1 X62.175 Y133.105 E45.15838 A-103.8378
G1 X61.572 Y133.347 E45.17999 A-103.82878
G1 X60.941 Y133.584 E45.20241 A-103.82727
G1 X60.341 Y133.783 E45.22344 A-103.81584
G1 X59.71 Y133.971 E45.24534 A-103.81253
G1 X59.085 Y134.14 E45.26687 A-103.80682
G1 X58.427 Y134.296 E45.28936 A-103.80291
G1 X57.806 Y134.42 E45.31042 A-103.79328
G1 X57.16 Y134.53 E45.33222 A-103.78907
G1 X56.509 Y134.623 E45.35409 A-103.78395
G1 X55.865 Y134.696 E45.37565 A-103.77794
G1 X55.5 Y134.726 E45.38783 A-103.765
G1 X55.513 Y135.09 E45.39994 A-103.86547
G1 X55.574 Y136.803 E45.45695 A-104.27084
G0 F6000 X56.214 Y136.542 A-103.67742
G1 F1200 X55.748 Y136.075 E45.4789 A-103.6154
G0 F6000 X55.727 Y135.489 A-103.57957
G1 F1200 X56.724 Y136.486 E45.52579 A-104.05577
G0 F6000 X57.224 Y136.419 A-103.73581
G1 F1200 X55.712 Y134.908 E45.59689 A-103.30083
G0 F6000 X56.224 Y134.854 A-103.73972
G1 F1200 X57.709 Y136.34 E45.66676 A-104.20267
G0 F6000 X58.187 Y136.252 A-103.72949
G1 F1200 X56.729 Y134.793 E45.73537 A-103.31651
G0 F6000 X57.224 Y134.722 A-103.7346
G1 F1200 X58.659 Y136.158 E45.80289 A-104.18766
G0 F6000 X59.124 Y136.057 A-103.72558
G1 F1200 X57.706 Y134.64 E45.86956 A-103.32917
G0 F6000 X58.181 Y134.548 A-103.72828
G1 F1200 X59.577 Y135.945 E45.93525 A-104.17594
G0 F6000 X60.025 Y135.827 A-103.72046
G1 F1200 X58.647 Y134.449 E46.00007 A-103.34093
G0 F6000 X59.104 Y134.341 A-103.72347
G1 F1200 X60.467 Y135.703 E46.06415 A-104.16543
G0 F6000 X60.898 Y135.569 A-103.71564
G1 F1200 X59.55 Y134.22 E46.12758 A-103.34967
G0 F6000 X59.99 Y134.095 A-103.71835
G1 F1200 X61.325 Y135.43 E46.19038 A-104.15732
G0 F6000 X61.747 Y135.286 A-103.71264
G1 F1200 X60.425 Y133.964 E46.25256 A-103.35781
G0 F6000 X60.85 Y133.824 A-103.71384
G1 F1200 X62.157 Y135.13 E46.31401 A-104.14861
G0 F6000 X62.563 Y134.971 A-103.70812
G1 F1200 X61.267 Y133.675 E46.37497 A-103.36565
G0 F6000 X61.677 Y133.519 A-103.70902
G1 F1200 X62.965 Y134.807 E46.43556 A-104.1432
G0 F6000 X63.356 Y134.633 A-103.70361
G1 F1200 X62.081 Y133.358 E46.49553 A-103.37198
G0 F6000 X62.477 Y133.188 A-103.70481
G1 F1200 X63.745 Y134.456 E46.55517 A-104.1372
G0 F6000 X63.945 Y134.874 A-103.88171
G0 X64.325 Y134.611 A-103.67682
G0 X63.631 Y133.154 A-103.31711
G0 X63.225 Y133.37 A-103.82096
G1 F1200 X62.868 Y133.013 E46.57196 A-103.64852
G1 F1500 E40.07196
; MESH:bracelet.3mf(1)
G0 F6000 X63.404 Y132.729 A-103.6705
G0 X64.611 Y134.398 A-104.25762
G0 X66.733 Y133.074 A-103.35721
G0 X67.055 Y133.247 A-103.80802
; TYPE:WALL-INNER
G1 F1500 E46.57196
G1 F1200 X67.689 Y132.814 E46.5975 A-103.62564
G1 X68.248 Y132.407 E46.6205 A-103.63347
G1 X68.777 Y132 E46.6427 A-103.63347
G1 X69.303 Y131.569 E46.66532 A-103.62624
G1 X69.82 Y131.12 E46.68809 A-103.62082
G1 X70.338 Y130.645 E46.71147 A-103.61299
G1 X70.828 Y130.168 E46.73421 A-103.61239
G1 X71.301 Y129.681 E46.75679 A-103.60938
G1 X71.766 Y129.175 E46.77965 A-103.60366
G1 X72.213 Y128.658 E46.80238 A-103.60035
G1 X72.643 Y128.131 E46.825 A-103.59733
G1 X73.064 Y127.588 E46.84785 A-103.59252
G1 X73.46 Y127.044 E46.87023 A-103.59222
G1 X73.889 Y126.414 E46.89559 A-103.56632
G1 X71.516 Y124.931 E46.98866 A-103.30927
G1 X71.123 Y125.501 E47.01168 A-103.92742
G1 X70.742 Y126.019 E47.03307 A-103.91179
G1 X70.345 Y126.524 E47.05444 A-103.90788
G1 X69.933 Y127.021 E47.07591 A-103.90547
G1 X69.506 Y127.504 E47.09735 A-103.90126
G1 X69.078 Y127.959 E47.11813 A-103.89284
G1 X68.616 Y128.422 E47.13988 A-103.89525
G1 X68.148 Y128.863 E47.16127 A-103.88863
G1 X67.658 Y129.296 E47.18302 A-103.88623
G1 X67.164 Y129.708 E47.20441 A-103.87991
G1 X66.628 Y130.124 E47.22698 A-103.88111
G1 X66.137 Y130.486 E47.24727 A-103.86487
G1 X65.574 Y130.874 E47.27001 A-103.87269
G1 X67.055 Y133.247 E47.36305 A-104.4689
G0 F6000 X66.931 Y133.804 A-103.92351
; TYPE:WALL-OUTER
G1 F1200 X67.343 Y133.537 E47.37938 A-103.67561
G1 X67.925 Y133.138 E47.40285 A-103.63588
G1 X68.492 Y132.724 E47.4262 A-103.63136
G1 X69.047 Y132.296 E47.44951 A-103.62714
G1 X69.561 Y131.875 E47.47161 A-103.62925
G1 X70.103 Y131.402 E47.49553 A-103.61359
G1 X70.616 Y130.932 E47.51867 A-103.6145
G1 X71.115 Y130.447 E47.54182 A-103.60998
G1 X71.595 Y129.952 E47.56475 A-103.60697
G1 X72.068 Y129.437 E47.58801 A-103.60095
G1 X72.523 Y128.911 E47.61114 A-103.59764
G1 X72.959 Y128.377 E47.63407 A-103.59523
G1 X73.387 Y127.824 E47.65733 A-103.58951
G1 X73.79 Y127.271 E47.68009 A-103.58951
G1 X74.177 Y126.706 E47.70286 A-103.58589
G1 X74.446 Y126.29 E47.71934 A-103.63076
G1 X71.394 Y124.383 E47.83904 A-103.18139
G1 X71.16 Y124.744 E47.85334 A-103.86457
G1 X70.801 Y125.264 E47.87436 A-103.91239
G1 X70.427 Y125.772 E47.89534 A-103.90878
G1 X70.037 Y126.269 E47.91636 A-103.90547
G1 X69.637 Y126.751 E47.93719 A-103.90096
G1 X69.214 Y127.23 E47.95844 A-103.90006
G1 X68.786 Y127.685 E47.97922 A-103.89284
G1 X68.334 Y128.136 E48.00046 A-103.89164
G1 X67.874 Y128.569 E48.02147 A-103.88623
G1 X67.402 Y128.989 E48.04248 A-103.88232
G1 X66.918 Y129.392 E48.06343 A-103.8772
G1 X66.39 Y129.802 E48.08566 A-103.87931
G1 X65.909 Y130.157 E48.10555 A-103.86277
G1 X65.389 Y130.517 E48.12658 A-103.86427
G1 X65.025 Y130.751 E48.14098 A-103.82637
G1 X66.931 Y133.804 E48.26068 A-104.67279
G0 F6000 X67.014 Y133.43 A-103.6434
G0 X66.941 Y132.874 A-103.5886
G0 X67.162 Y132.738 A-103.71504
; TYPE:SKIN
G1 F1200 X67.467 Y132.529 E48.27298 A-103.69307
G1 X68.015 Y132.13 E48.29553 A-103.63588
G1 X68.55 Y131.718 E48.31798 A-103.63196
G1 X69.081 Y131.283 E48.34082 A-103.62504
G1 X69.578 Y130.853 E48.36267 A-103.62654
G1 X70.075 Y130.399 E48.38506 A-103.61932
G1 X70.559 Y129.929 E48.4075 A-103.6145
G1 X71.024 Y129.45 E48.42971 A-103.61179
G1 X71.481 Y128.954 E48.45214 A-103.60667
G1 X71.923 Y128.445 E48.47456 A-103.60275
G1 X72.349 Y127.923 E48.49697 A-103.59884
G1 X72.76 Y127.392 E48.5193 A-103.59613
G1 X73.16 Y126.844 E48.54187 A-103.59101
G1 X73.382 Y126.522 E48.55488 A-103.65906
G1 X71.619 Y125.421 E48.62401 A-103.42442
G1 X71.427 Y125.698 E48.63522 A-103.83931
G1 X71.052 Y126.208 E48.65627 A-103.90938
G1 X70.63 Y126.749 E48.67909 A-103.9187
G1 X70.218 Y127.243 E48.70049 A-103.90457
G1 X69.775 Y127.745 E48.72276 A-103.90697
G1 X69.339 Y128.208 E48.74391 A-103.89525
G1 X68.872 Y128.675 E48.76588 A-103.89645
G1 X68.388 Y129.132 E48.78802 A-103.89344
G1 X67.911 Y129.555 E48.80922 A-103.88322
G1 X67.405 Y129.978 E48.83116 A-103.88322
G1 X66.884 Y130.382 E48.85308 A-103.8775
G1 X66.362 Y130.769 E48.8747 A-103.87239
G1 X66.062 Y130.977 E48.88684 A-103.81855
G1 X67.162 Y132.738 E48.9559 A-104.28525
G0 F6000 X67.325 Y132.378 A-103.64762
G1 F1200 X66.922 Y131.976 E48.97483 A-103.63497
G0 F6000 X67.653 Y132.141 A-103.80561
G1 F1200 X66.455 Y130.943 E49.03118 A-103.39519
G0 F6000 X66.781 Y130.704 A-103.68404
G1 F1200 X67.979 Y131.902 E49.08753 A-104.11617
G0 F6000 X68.299 Y131.656 A-103.68193
G1 F1200 X67.105 Y130.462 E49.14369 A-103.39639
G0 F6000 X67.424 Y130.215 A-103.68163
G1 F1200 X68.614 Y131.405 E49.19967 A-104.11376
G0 F6000 X68.925 Y131.151 A-103.67953
G1 F1200 X67.735 Y129.961 E49.25564 A-103.3976
G0 F6000 X68.044 Y129.703 A-103.67832
G1 F1200 X69.229 Y130.889 E49.3114 A-104.11256
G0 F6000 X69.529 Y130.623 A-103.67591
G1 F1200 X68.344 Y129.438 E49.36714 A-103.39911
G0 F6000 X68.641 Y129.17 A-103.67531
G1 F1200 X69.826 Y130.354 E49.42286 A-104.11196
G0 F6000 X70.116 Y130.078 A-103.6729
G1 F1200 X68.931 Y128.894 E49.47857 A-103.39941
G0 F6000 X69.216 Y128.613 A-103.6714
G1 F1200 X70.403 Y129.8 E49.5344 A-104.11286
G0 F6000 X70.683 Y129.514 A-103.66989
G1 F1200 X69.498 Y128.329 E49.59014 A-103.39911
G0 F6000 X69.772 Y128.037 A-103.66809
G1 F1200 X70.959 Y129.225 E49.646 A-104.11316
G0 F6000 X71.23 Y128.93 A-103.66718
G1 F1200 X70.043 Y127.743 E49.70183 A-103.3985
G0 F6000 X70.307 Y127.441 A-103.66508
G1 F1200 X71.496 Y128.63 E49.75776 A-104.11346
G0 F6000 X71.759 Y128.327 A-103.66478
G1 F1200 X70.567 Y127.135 E49.81383 A-103.397
G0 F6000 X70.823 Y126.825 A-103.66267
G1 F1200 X72.013 Y128.016 E49.86983 A-104.11406
G0 F6000 X72.266 Y127.703 A-103.66177
G1 F1200 X71.07 Y126.507 E49.92608 A-103.39579
G0 F6000 X71.314 Y126.186 A-103.65936
G1 F1200 X72.513 Y127.384 E49.98246 A-104.11617
G0 F6000 X72.753 Y127.059 A-103.65815
G1 F1200 X71.552 Y125.858 E50.03895 A-103.39428
G0 F6000 X72.411 Y126.151 A-103.84412
G1 F1200 X72.99 Y126.73 E50.06618 A-103.93013
G1 F1500 E43.56618
; MESH:bracelet.3mf(10)
G0 F6000 X73.363 Y127.005 A-103.8387
G0 X73.658 Y126.056 A-103.47022
G0 X74.828 Y123.857 A-103.09327
G0 X75.33 Y123.917 A-103.77402
; TYPE:WALL-INNER
G1 F1500 E50.06618
G1 F1200 X75.663 Y123.228 E50.09163 A-103.54855
G1 X75.942 Y122.596 E50.11461 A-103.56571
G1 X76.204 Y121.965 E50.13734 A-103.56602
G1 X76.442 Y121.326 E50.16001 A-103.56361
G1 X76.661 Y120.694 E50.18226 A-103.56571
G1 X76.87 Y120.023 E50.20564 A-103.55397
G1 X77.051 Y119.383 E50.22776 A-103.56331
G1 X77.22 Y118.723 E50.25042 A-103.55728
G1 X77.369 Y118.056 E50.27315 A-103.55517
G1 X77.499 Y117.386 E50.29585 A-103.55427
G1 X77.61 Y116.711 E50.3186 A-103.55276
G1 X77.701 Y116.034 E50.34132 A-103.55216
G1 X77.774 Y115.345 E50.36437 A-103.54855
G1 X77.83 Y114.586 E50.38968 A-103.52746
G1 X75.035 Y114.487 E50.4827 A-103.72618
G1 X74.979 Y115.177 E50.50572 A-103.9635
G1 X74.908 Y115.815 E50.52707 A-103.94787
G1 X74.818 Y116.454 E50.54854 A-103.94817
G1 X74.71 Y117.075 E50.5695 A-103.94276
G1 X74.58 Y117.721 E50.59142 A-103.95027
G1 X74.434 Y118.34 E50.61257 A-103.94215
G1 X74.265 Y118.968 E50.6342 A-103.94486
G1 X74.077 Y119.593 E50.65591 A-103.94396
G1 X73.872 Y120.202 E50.67728 A-103.93915
G1 X73.658 Y120.784 E50.69791 A-103.93103
G1 X73.399 Y121.427 E50.72096 A-103.94937
G1 X73.152 Y121.989 E50.74138 A-103.92502
G1 X72.859 Y122.603 E50.76401 A-103.94065
G1 X72.894 Y122.622 E50.76533 A-103.76169
G1 X75.33 Y123.917 E50.85709 A-104.14531
G0 F6000 X75.502 Y124.462 A-103.9199
; TYPE:WALL-OUTER
G1 F1200 X75.725 Y124.025 E50.87341 A-103.62443
G1 X76.029 Y123.39 E50.89683 A-103.56481
G1 X76.312 Y122.749 E50.92013 A-103.563
G1 X76.576 Y122.111 E50.9431 A-103.56391
G1 X76.82 Y121.457 E50.96631 A-103.55909
G1 X77.041 Y120.82 E50.98874 A-103.56421
G1 X77.249 Y120.156 E51.01188 A-103.55608
G1 X77.442 Y119.467 E51.03568 A-103.54855
G1 X77.609 Y118.816 E51.05803 A-103.55999
G1 X77.761 Y118.138 E51.08114 A-103.55186
G1 X77.893 Y117.456 E51.10425 A-103.55066
G1 X78.006 Y116.77 E51.12737 A-103.54945
G1 X78.1 Y116.061 E51.15116 A-103.54252
G1 X78.173 Y115.376 E51.17407 A-103.54975
G1 X78.226 Y114.692 E51.19689 A-103.55005
G1 X78.25 Y114.2 E51.21327 A-103.60787
G1 X74.654 Y114.073 E51.33295 A-103.71775
G1 X74.632 Y114.502 E51.34724 A-103.88502
G1 X74.581 Y115.133 E51.36829 A-103.94576
G1 X74.512 Y115.759 E51.38924 A-103.94426
G1 X74.424 Y116.386 E51.4103 A-103.94456
G1 X74.318 Y116.996 E51.43089 A-103.93945
G1 X74.19 Y117.629 E51.45237 A-103.94636
G1 X74.045 Y118.242 E51.47332 A-103.94035
G1 X73.881 Y118.853 E51.49436 A-103.93975
G1 X73.699 Y119.462 E51.5155 A-103.93915
G1 X73.496 Y120.064 E51.53663 A-103.93704
G1 X73.286 Y120.635 E51.55687 A-103.92772
G1 X73.033 Y121.266 E51.57948 A-103.94576
G1 X72.791 Y121.817 E51.5995 A-103.92171
G1 X72.52 Y122.386 E51.62046 A-103.92712
G1 X72.323 Y122.772 E51.63487 A-103.87209
G1 X72.706 Y122.975 E51.64929 A-103.81705
G1 X75.502 Y124.462 E51.75462 A-104.20297
G0 F6000 X75.386 Y124.096 A-103.64581
G0 X75.048 Y123.652 A-103.62233
G0 X75.169 Y123.423 A-103.68705
; TYPE:SKIN
G1 F1200 X75.328 Y123.092 E51.76683 A-103.65635
G1 X75.602 Y122.472 E51.78938 A-103.56933
G1 X75.883 Y121.795 E51.81376 A-103.55216
G1 X76.105 Y121.196 E51.835 A-103.57565
G1 X76.325 Y120.567 E51.85717 A-103.56662
G1 X76.516 Y119.947 E51.87875 A-103.56933
G1 X76.705 Y119.277 E51.9019 A-103.55427
G1 X76.863 Y118.658 E51.92315 A-103.56963
G1 X77.016 Y117.982 E51.9462 A-103.55246
G1 X77.14 Y117.34 E51.96795 A-103.5627
G1 X77.254 Y116.656 E51.99101 A-103.55005
G1 X77.342 Y115.994 E52.01322 A-103.55668
G1 X77.415 Y115.315 E52.03594 A-103.55156
G1 X77.444 Y114.934 E52.04865 A-103.64129
G1 X75.368 Y114.86 E52.11774 A-103.7337
G1 X75.34 Y115.192 E52.12882 A-103.85585
G1 X75.271 Y115.821 E52.14987 A-103.94516
G1 X75.177 Y116.492 E52.1724 A-103.95779
G1 X75.067 Y117.127 E52.19384 A-103.94696
G1 X74.933 Y117.796 E52.21653 A-103.95719
G1 X74.785 Y118.427 E52.23809 A-103.94576
G1 X74.616 Y119.06 E52.25988 A-103.94636
G1 X74.418 Y119.707 E52.28238 A-103.95057
G1 X74.217 Y120.306 E52.3034 A-103.93614
G1 X74 Y120.898 E52.32437 A-103.93404
G1 X73.75 Y121.52 E52.34666 A-103.94306
G1 X73.487 Y122.123 E52.36854 A-103.93734
G1 X73.333 Y122.447 E52.38047 A-103.85344
G1 X75.169 Y123.423 E52.44963 A-104.04946
G0 F6000 X75.048 Y123.652 A-103.82487
G0 X73.085 Y122.53 A-103.41809
G0 X73.22 Y122.082 A-103.62112
G0 X73.631 Y122.279 A-103.81524
G1 F1200 X73.839 Y122.488 E52.45944 A-103.81885
G0 F6000 X73.805 Y121.888 A-103.57535
G1 F1200 X75.045 Y123.129 E52.51779 A-104.12909
G0 F6000 X75.25 Y122.767 A-103.64701
G1 F1200 X73.976 Y121.494 E52.57769 A-103.37258
G0 F6000 X74.138 Y121.089 A-103.63407
G1 F1200 X75.424 Y122.376 E52.6382 A-104.1429
G0 F6000 X75.591 Y121.977 A-103.63588
G1 F1200 X74.292 Y120.678 E52.6993 A-103.36474
G0 F6000 X74.442 Y120.262 A-103.63076
G1 F1200 X75.752 Y121.572 E52.76092 A-104.14981
G0 F6000 X75.905 Y121.16 A-103.63196
G1 F1200 X74.584 Y119.839 E52.82306 A-103.35811
G0 F6000 X74.719 Y119.408 A-103.62624
G1 F1200 X76.052 Y120.741 E52.88576 A-104.15672
G0 F6000 X76.192 Y120.316 A-103.62805
G1 F1200 X74.847 Y118.97 E52.94905 A-103.35057
G0 F6000 X74.965 Y118.523 A-103.62142
G1 F1200 X76.325 Y119.883 E53.01302 A-104.16483
G0 F6000 X76.451 Y119.443 A-103.62353
G1 F1200 X75.074 Y118.066 E53.07779 A-103.34123
G0 F6000 X75.175 Y117.601 A-103.616
G1 F1200 X76.57 Y118.996 E53.1434 A-104.17534
G0 F6000 X76.683 Y118.544 A-103.61992
G1 F1200 X75.269 Y117.13 E53.20991 A-103.33007
G0 F6000 X75.352 Y116.647 A-103.61058
G1 F1200 X76.788 Y118.083 E53.27746 A-104.18766
G0 F6000 X76.883 Y117.613 A-103.6145
G1 F1200 X75.425 Y116.155 E53.34604 A-103.31681
G0 F6000 X75.489 Y115.652 A-103.60456
G1 F1200 X76.971 Y117.135 E53.41577 A-104.20177
G0 F6000 X77.052 Y116.649 A-103.60968
G1 F1200 X75.543 Y115.141 E53.48673 A-103.30173
G0 F6000 X76.052 Y115.084 A-103.73882
G1 F1200 X77.119 Y116.152 E53.53694 A-104.07711
G0 F6000 X77.176 Y115.643 A-103.60275
G1 F1200 X76.639 Y115.105 E53.56222 A-103.59402
G1 F1500 E47.06222
; MESH:bracelet.3mf(4)
G0 F6000 X76.655 Y114.645 A-103.61751
G0 X75.017 Y114.305 A-103.65364
G0 X74.937 Y112.004 A-103.06248
G0 X75.035 Y111.802 A-103.69518
; TYPE:WALL-INNER
G1 F1500 E53.56222
G1 F1200 X77.83 Y111.702 E53.65524 A-103.72588
G1 X77.773 Y110.937 E53.68076 A-103.52566
G1 X77.702 Y110.267 E53.70317 A-103.55427
G1 X77.609 Y109.567 E53.72665 A-103.54523
G1 X77.497 Y108.902 E53.74908 A-103.55578
G1 X77.367 Y108.229 E53.77188 A-103.55337
G1 X77.217 Y107.561 E53.79465 A-103.55487
G1 X77.053 Y106.914 E53.81685 A-103.5612
G1 X76.865 Y106.236 E53.84025 A-103.55186
G1 X76.661 Y105.59 E53.86278 A-103.5615
G1 X76.436 Y104.942 E53.8856 A-103.5609
G1 X76.194 Y104.305 E53.90826 A-103.56421
G1 X75.935 Y103.675 E53.93092 A-103.56632
G1 X75.661 Y103.056 E53.95343 A-103.56963
G1 X75.329 Y102.37 E53.97878 A-103.54945
G1 X72.859 Y103.685 E54.07185 A-104.15132
G1 X73.157 Y104.308 E54.09482 A-103.94336
G1 X73.413 Y104.896 E54.11615 A-103.93283
G1 X73.653 Y105.49 E54.13746 A-103.93464
G1 X73.869 Y106.072 E54.15811 A-103.93103
G1 X74.083 Y106.714 E54.18061 A-103.94907
G1 X74.267 Y107.324 E54.20181 A-103.93945
G1 X74.434 Y107.947 E54.22326 A-103.94336
G1 X74.585 Y108.589 E54.24519 A-103.94907
G1 X74.709 Y109.204 E54.26606 A-103.94095
G1 X74.817 Y109.824 E54.28699 A-103.94245
G1 X74.908 Y110.466 E54.30856 A-103.94907
G1 X74.981 Y111.118 E54.33038 A-103.95208
G1 X75.035 Y111.802 E54.3532 A-103.9617
G0 F6000 X74.654 Y112.216 A-103.88051
; TYPE:WALL-OUTER
G1 F1200 X78.25 Y112.088 E54.47288 A-103.71745
G1 X78.226 Y111.598 E54.4892 A-103.60848
G1 X78.171 Y110.895 E54.51265 A-103.54433
G1 X78.096 Y110.199 E54.53593 A-103.54644
G1 X78.008 Y109.53 E54.55838 A-103.55457
G1 X77.895 Y108.849 E54.58134 A-103.55096
G1 X77.757 Y108.142 E54.6053 A-103.54313
G1 X77.605 Y107.463 E54.62844 A-103.55156
G1 X77.439 Y106.807 E54.65094 A-103.55849
G1 X77.247 Y106.116 E54.6748 A-103.54794
G1 X77.039 Y105.46 E54.69769 A-103.55849
G1 X76.81 Y104.8 E54.72092 A-103.55728
G1 X76.564 Y104.153 E54.74394 A-103.5612
G1 X76.301 Y103.513 E54.76696 A-103.56331
G1 X76.022 Y102.884 E54.78984 A-103.56662
G1 X75.726 Y102.266 E54.81264 A-103.56993
G1 X75.499 Y101.826 E54.8291 A-103.62353
G1 X72.323 Y103.517 E54.94878 A-104.26423
G1 X72.517 Y103.896 E54.96294 A-103.86998
G1 X72.79 Y104.468 E54.98402 A-103.92802
G1 X73.042 Y105.046 E55.00499 A-103.92983
G1 X73.278 Y105.63 E55.02594 A-103.93163
G1 X73.497 Y106.216 E55.04675 A-103.93223
G1 X73.7 Y106.827 E55.06816 A-103.93975
G1 X73.881 Y107.428 E55.08904 A-103.93674
G1 X74.044 Y108.039 E55.11007 A-103.93975
G1 X74.193 Y108.668 E55.13157 A-103.94516
G1 X74.315 Y109.273 E55.1521 A-103.93795
G1 X74.422 Y109.894 E55.17306 A-103.94276
G1 X74.515 Y110.557 E55.19532 A-103.95538
G1 X74.582 Y111.15 E55.21517 A-103.93434
G1 X74.632 Y111.78 E55.23619 A-103.94546
G1 X74.654 Y112.216 E55.25071 A-103.88713
G0 F6000 X74.91 Y111.935 A-103.6714
G0 X75.108 Y111.451 A-103.61028
G0 X75.367 Y111.43 A-103.74965
; TYPE:SKIN
G1 F1200 X77.444 Y111.353 E55.31984 A-103.7328
G1 X77.415 Y110.976 E55.33242 A-103.6425
G1 X77.345 Y110.314 E55.35456 A-103.55668
G1 X77.256 Y109.645 E55.377 A-103.55457
G1 X77.146 Y108.988 E55.39916 A-103.55819
G1 X77.017 Y108.325 E55.42163 A-103.55638
G1 X76.87 Y107.666 E55.44408 A-103.55758
G1 X76.71 Y107.02 E55.46622 A-103.5615
G1 X76.519 Y106.343 E55.48961 A-103.55216
G1 X76.335 Y105.751 E55.51023 A-103.57776
G1 X76.106 Y105.089 E55.53353 A-103.55668
G1 X75.861 Y104.443 E55.55651 A-103.5615
G1 X75.599 Y103.8 E55.5796 A-103.5624
G1 X75.339 Y103.221 E55.60071 A-103.58168
G1 X75.168 Y102.864 E55.61388 A-103.64852
G1 X73.333 Y103.841 E55.68302 A-104.04976
G1 X73.476 Y104.14 E55.69405 A-103.84592
G1 X73.746 Y104.755 E55.71639 A-103.94095
G1 X73.99 Y105.365 E55.73824 A-103.93945
G1 X74.21 Y105.952 E55.75909 A-103.93253
G1 X74.426 Y106.6 E55.78181 A-103.95087
G1 X74.608 Y107.202 E55.80272 A-103.93704
G1 X74.78 Y107.842 E55.82477 A-103.94847
G1 X74.936 Y108.503 E55.84736 A-103.95478
G1 X75.067 Y109.139 E55.86895 A-103.94727
G1 X75.171 Y109.765 E55.89006 A-103.94426
G1 X75.264 Y110.416 E55.91193 A-103.95178
G1 X75.34 Y111.088 E55.93442 A-103.95809
G1 X75.367 Y111.43 E55.94584 A-103.85886
G0 F6000 X76.127 Y111.2 A-103.68675
G1 F1200 X75.479 Y110.551 E55.97634 A-103.56059
G0 F6000 X75.392 Y109.899 A-103.55969
G1 F1200 X76.673 Y111.18 E56.03659 A-104.1411
G0 F6000 X77.218 Y111.16 A-103.74995
G1 F1200 X75.282 Y109.223 E56.12768 A-103.17233
G0 F6000 X75.142 Y108.518 A-103.54373
G1 F1200 X77.167 Y110.543 E56.22293 A-104.36449
G0 F6000 X77.088 Y109.898 A-103.5618
G1 F1200 X74.971 Y107.781 E56.32251 A-103.11802
G0 F6000 X74.757 Y107.001 A-103.52114
G1 F1200 X76.984 Y109.228 E56.42726 A-104.4251
G0 F6000 X76.855 Y108.533 A-103.54674
G1 F1200 X74.495 Y106.173 E56.53827 A-103.04467
G0 F6000 X74.174 Y105.286 A-103.4889
G1 F1200 X76.698 Y107.811 E56.65701 A-104.51449
G0 F6000 X76.513 Y107.06 A-103.52987
G1 F1200 X73.77 Y104.317 E56.78603 A-102.92901
G0 F6000 X73.824 Y103.806 A-103.60215
G1 F1200 X76.285 Y106.266 E56.90177 A-104.49499
G0 F6000 X76.011 Y105.427 A-103.50336
G1 F1200 X74.193 Y103.609 E56.98728 A-103.20824
G0 F6000 X74.562 Y103.412 A-103.69668
G1 F1200 X75.683 Y104.533 E57.04001 A-104.09303
G0 F6000 X76.114 Y104.378 A-103.70932
G0 X75.687 Y103.363 A-103.45034
G0 X75.265 Y103.549 A-103.81193
G1 F1200 X74.932 Y103.216 E57.05567 A-103.65575
G1 F1500 E50.55567
; MESH:bracelet.3mf(7)
G0 F6000 X74.719 Y102.808 A-103.63317
G0 X72.902 Y103.433 A-103.94396
G0 X71.686 Y101.487 A-103.16962
G0 X71.515 Y101.356 A-103.71655
; TYPE:WALL-INNER
G1 F1500 E57.05567
G1 F1200 X73.888 Y99.874 E57.14873 A-103.30957
G1 X73.456 Y99.239 E57.17427 A-103.56481
G1 X73.048 Y98.682 E57.19723 A-103.5883
G1 X72.629 Y98.139 E57.22005 A-103.59252
G1 X72.197 Y97.611 E57.24274 A-103.59703
G1 X71.75 Y97.095 E57.26544 A-103.60065
G1 X71.286 Y96.594 E57.28815 A-103.60516
G1 X70.808 Y96.102 E57.31097 A-103.60787
G1 X70.335 Y95.64 E57.33296 A-103.61691
G1 X69.816 Y95.164 E57.35638 A-103.61269
G1 X69.315 Y94.729 E57.37845 A-103.62504
G1 X68.771 Y94.285 E57.40181 A-103.62233
G1 X68.246 Y93.877 E57.42392 A-103.63317
G1 X67.685 Y93.47 E57.44697 A-103.63347
G1 X67.056 Y93.04 E57.47232 A-103.62654
G1 X65.573 Y95.414 E57.56542 A-104.4692
G1 X66.144 Y95.806 E57.58845 A-103.87389
G1 X66.66 Y96.187 E57.60979 A-103.87059
G1 X67.168 Y96.585 E57.63125 A-103.8757
G1 X67.663 Y96.996 E57.65265 A-103.87961
G1 X68.141 Y97.417 E57.67383 A-103.88262
G1 X68.615 Y97.865 E57.69553 A-103.89074
G1 X69.057 Y98.311 E57.71641 A-103.89013
G1 X69.502 Y98.781 E57.73794 A-103.89735
G1 X69.934 Y99.271 E57.75967 A-103.90337
G1 X70.35 Y99.766 E57.78117 A-103.90487
G1 X70.738 Y100.263 E57.80214 A-103.90547
G1 X71.128 Y100.793 E57.82403 A-103.91539
G1 X71.515 Y101.356 E57.84675 A-103.92532
G0 F6000 X71.393 Y101.905 A-103.92111
; TYPE:WALL-OUTER
G1 F1200 X74.445 Y99.998 E57.96645 A-103.18139
G1 X74.179 Y99.587 E57.98273 A-103.63226
G1 X73.78 Y99.003 E58.00626 A-103.58017
G1 X73.365 Y98.438 E58.02957 A-103.58589
G1 X72.939 Y97.886 E58.05276 A-103.58981
G1 X72.516 Y97.368 E58.07501 A-103.60004
G1 X72.044 Y96.825 E58.09894 A-103.59252
G1 X71.574 Y96.316 E58.12198 A-103.60275
G1 X71.106 Y95.833 E58.14435 A-103.61058
G1 X70.61 Y95.35 E58.16737 A-103.61058
G1 X70.078 Y94.862 E58.19139 A-103.60908
G1 X69.573 Y94.423 E58.21364 A-103.62383
G1 X69.017 Y93.969 E58.23752 A-103.61932
G1 X68.465 Y93.542 E58.26073 A-103.62745
G1 X67.913 Y93.141 E58.28342 A-103.63527
G1 X67.347 Y92.752 E58.30626 A-103.63889
G1 X66.931 Y92.484 E58.32272 A-103.67531
G1 X65.025 Y95.536 E58.4424 A-104.67249
G1 X65.385 Y95.77 E58.45668 A-103.82637
G1 X65.906 Y96.128 E58.47771 A-103.86367
G1 X66.414 Y96.503 E58.49871 A-103.86878
G1 X66.912 Y96.893 E58.51975 A-103.87329
G1 X67.393 Y97.292 E58.54053 A-103.876
G1 X67.872 Y97.715 E58.56179 A-103.88322
G1 X68.331 Y98.147 E58.58275 A-103.88592
G1 X68.777 Y98.597 E58.60382 A-103.89134
G1 X69.209 Y99.056 E58.62479 A-103.89404
G1 X69.628 Y99.528 E58.64578 A-103.89795
G1 X70.034 Y100.012 E58.66679 A-103.90156
G1 X70.444 Y100.54 E58.68903 A-103.91479
G1 X70.799 Y101.021 E58.70891 A-103.90066
G1 X71.158 Y101.54 E58.7299 A-103.91209
G1 X71.393 Y101.905 E58.74434 A-103.86577
G0 F6000 X71.475 Y101.535 A-103.64461
G0 X71.757 Y101.088 A-103.62142
G0 X71.619 Y100.869 A-103.69006
; TYPE:SKIN
G1 F1200 X73.381 Y99.766 E58.81348 A-103.42382
G1 X73.17 Y99.459 E58.82587 A-103.66357
G1 X72.772 Y98.917 E58.84823 A-103.59282
G1 X72.344 Y98.362 E58.87154 A-103.5889
G1 X71.936 Y97.861 E58.89303 A-103.60516
G1 X71.506 Y97.364 E58.91489 A-103.60637
G1 X71.056 Y96.877 E58.93695 A-103.60938
G1 X70.568 Y96.372 E58.9603 A-103.60396
G1 X70.1 Y95.914 E58.98208 A-103.61811
G1 X69.595 Y95.449 E59.00491 A-103.616
G1 X69.082 Y95.004 E59.0275 A-103.62203
G1 X68.564 Y94.58 E59.04977 A-103.62835
G1 X68.034 Y94.169 E59.07207 A-103.63226
G1 X67.485 Y93.77 E59.09465 A-103.63588
G1 X67.164 Y93.547 E59.10765 A-103.68886
G1 X66.061 Y95.31 E59.17681 A-104.28585
G1 X66.339 Y95.501 E59.18803 A-103.81344
G1 X66.845 Y95.874 E59.20894 A-103.86818
G1 X67.383 Y96.294 E59.23164 A-103.88232
G1 X67.895 Y96.718 E59.25375 A-103.88352
G1 X68.384 Y97.151 E59.27548 A-103.88623
G1 X68.862 Y97.598 E59.29724 A-103.89044
G1 X69.317 Y98.059 E59.31879 A-103.89465
G1 X69.77 Y98.54 E59.34076 A-103.90066
G1 X70.198 Y99.022 E59.3622 A-103.90096
G1 X70.619 Y99.523 E59.38397 A-103.90667
G1 X71.058 Y100.091 E59.40784 A-103.92682
G1 X71.408 Y100.563 E59.42739 A-103.89795
G1 X71.619 Y100.869 E59.43975 A-103.84803
G0 F6000 X71.757 Y101.088 A-103.82186
G0 X73.646 Y99.821 A-103.37439
G0 X73.424 Y99.369 A-103.61992
G0 X73.042 Y99.629 A-103.83419
G1 F1200 X67.295 Y93.882 E59.71007 A-102.0196
G0 F6000 X67.012 Y94.165 A-103.84111
G1 F1200 X72.762 Y99.915 E59.98053 A-105.47976
G0 F6000 X72.414 Y100.133 A-103.82156
G1 F1200 X66.794 Y94.513 E60.24488 A-102.05813
G0 F6000 X66.576 Y94.861 A-103.86066
G1 F1200 X72.066 Y100.351 E60.50311 A-105.40208
G0 F6000 X71.719 Y100.568 A-103.82126
G1 F1200 X71.5 Y100.35 E60.51339 A-103.69036
G0 F6000 X71.128 Y100.623 A-103.8381
G0 X66.317 Y95.809 A-102.30249
G0 X66.591 Y95.441 A-103.64521
G1 F1200 X66.359 Y95.209 E60.5243 A-103.68615
G1 F1500 E54.0243
; MESH:bracelet.3mf(2)
G0 F6000 X65.97 Y94.966 A-103.68284
G0 X65.503 Y95.184 A-103.82156
G0 X63.46 Y94.097 A-103.42864
G0 X63.245 Y94.07 A-103.74785
; TYPE:WALL-INNER
G1 F1500 E60.5243
G1 F1200 X64.559 Y91.599 E60.61739 A-103.01116
G1 X63.869 Y91.267 E60.64286 A-103.65605
G1 X63.237 Y90.987 E60.66585 A-103.6717
G1 X62.606 Y90.726 E60.68856 A-103.67742
G1 X61.968 Y90.488 E60.71121 A-103.68434
G1 X61.317 Y90.264 E60.73411 A-103.68856
G1 X60.666 Y90.06 E60.7568 A-103.69458
G1 X60.025 Y89.878 E60.77896 A-103.7012
G1 X59.365 Y89.71 E60.80161 A-103.70541
G1 X58.677 Y89.556 E60.82506 A-103.70963
G1 X58.027 Y89.43 E60.84708 A-103.71805
G1 X57.334 Y89.318 E60.87043 A-103.72227
G1 X56.675 Y89.228 E60.89255 A-103.72889
G1 X55.986 Y89.155 E60.9156 A-103.734
G1 X55.227 Y89.098 E60.94091 A-103.73882
G1 X55.128 Y91.896 E61.03403 A-104.59635
G1 X55.82 Y91.951 E61.05712 A-103.77252
G1 X56.457 Y92.022 E61.07844 A-103.77733
G1 X57.095 Y92.112 E61.09987 A-103.78305
G1 X57.712 Y92.217 E61.12068 A-103.78756
G1 X58.357 Y92.348 E61.14257 A-103.79539
G1 X58.981 Y92.495 E61.1639 A-103.8002
G1 X59.609 Y92.665 E61.18554 A-103.80712
G1 X60.224 Y92.848 E61.20688 A-103.81103
G1 X60.836 Y93.056 E61.22838 A-103.81855
G1 X61.413 Y93.266 E61.2488 A-103.81915
G1 X62.029 Y93.513 E61.27087 A-103.83028
G1 X62.63 Y93.777 E61.29271 A-103.8354
G1 X63.245 Y94.07 E61.31536 A-103.84412
G0 F6000 X63.413 Y94.606 A-103.9172
; TYPE:WALL-OUTER
G1 F1200 X65.104 Y91.428 E61.4351 A-102.79757
G1 X64.666 Y91.205 E61.45144 A-103.68886
G1 X64.031 Y90.901 E61.47486 A-103.66448
G1 X63.409 Y90.625 E61.49749 A-103.6729
G1 X62.724 Y90.343 E61.52213 A-103.6711
G1 X62.099 Y90.11 E61.54432 A-103.68585
G1 X61.437 Y89.882 E61.5676 A-103.68735
G1 X60.798 Y89.681 E61.58988 A-103.69548
G1 X60.106 Y89.486 E61.6138 A-103.69729
G1 X59.458 Y89.321 E61.63604 A-103.70631
G1 X58.78 Y89.168 E61.65915 A-103.70993
G1 X58.097 Y89.036 E61.68229 A-103.71625
G1 X57.411 Y88.924 E61.70541 A-103.72227
G1 X56.701 Y88.829 E61.72923 A-103.72738
G1 X56.017 Y88.756 E61.75211 A-103.734
G1 X55.333 Y88.703 E61.77493 A-103.74002
G1 X54.841 Y88.68 E61.79131 A-103.74905
G1 X54.714 Y92.276 E61.91099 A-104.83547
G1 X55.144 Y92.298 E61.92531 A-103.76259
G1 X55.776 Y92.349 E61.9464 A-103.77132
G1 X56.401 Y92.418 E61.96731 A-103.77673
G1 X57.027 Y92.506 E61.98834 A-103.78245
G1 X57.637 Y92.611 E62.00893 A-103.78756
G1 X58.264 Y92.739 E62.03021 A-103.79448
G1 X58.885 Y92.884 E62.05142 A-103.7996
G1 X59.495 Y93.049 E62.07244 A-103.80561
G1 X60.108 Y93.232 E62.09372 A-103.81103
G1 X60.698 Y93.432 E62.11444 A-103.81614
G1 X61.277 Y93.644 E62.13494 A-103.81975
G1 X61.908 Y93.897 E62.15756 A-103.83209
G1 X62.458 Y94.139 E62.17754 A-103.82878
G1 X63.029 Y94.409 E62.19855 A-103.8372
G1 X63.413 Y94.606 E62.2129 A-103.81524
G0 F6000 X63.302 Y94.245 A-103.64732
G0 X62.975 Y93.83 A-103.63106
G0 X63.089 Y93.595 A-103.68525
; TYPE:SKIN
G1 F1200 X64.064 Y91.761 E62.28199 A-103.20341
G1 X63.733 Y91.603 E62.29419 A-103.70842
G1 X63.084 Y91.313 E62.31783 A-103.66869
G1 X62.465 Y91.059 E62.34008 A-103.67953
G1 X61.863 Y90.834 E62.36146 A-103.68826
G1 X61.214 Y90.609 E62.3843 A-103.68826
G1 X60.587 Y90.414 E62.40614 A-103.69729
G1 X59.934 Y90.229 E62.42872 A-103.7003
G1 X59.297 Y90.066 E62.45059 A-103.70692
G1 X58.642 Y89.917 E62.47293 A-103.71113
G1 X57.969 Y89.788 E62.49572 A-103.71715
G1 X57.3 Y89.677 E62.51828 A-103.72257
G1 X56.634 Y89.587 E62.54063 A-103.72889
G1 X55.967 Y89.516 E62.56294 A-103.7346
G1 X55.574 Y89.484 E62.57605 A-103.74634
G1 X55.5 Y91.563 E62.64524 A-104.38069
G1 X55.836 Y91.591 E62.65646 A-103.7644
G1 X56.464 Y91.66 E62.67747 A-103.77673
G1 X57.15 Y91.754 E62.7005 A-103.78425
G1 X57.794 Y91.866 E62.72224 A-103.78967
G1 X58.443 Y91.998 E62.74427 A-103.79569
G1 X59.06 Y92.142 E62.76534 A-103.7993
G1 X59.696 Y92.313 E62.78725 A-103.80742
G1 X60.344 Y92.508 E62.80976 A-103.81464
G1 X60.943 Y92.712 E62.8308 A-103.81735
G1 X61.541 Y92.931 E62.85198 A-103.82186
G1 X62.176 Y93.186 E62.87474 A-103.83269
G1 X62.789 Y93.452 E62.89697 A-103.836
G1 X63.089 Y93.595 E62.90802 A-103.799
G0 F6000 X62.975 Y93.83 A-103.82667
G0 X64.121 Y92.209 A-103.26766
G0 X63.711 Y91.996 A-103.69187
G1 F1200 X63.383 Y91.667 E62.92347 A-103.65695
G0 F6000 X63.515 Y92.365 A-103.9659
G1 F1200 X62.396 Y91.246 E62.97611 A-103.419
G0 F6000 X61.506 Y90.922 A-103.65845
G1 F1200 X63.319 Y92.734 E63.06136 A-104.30056
G0 F6000 X63.122 Y93.104 A-103.86728
G1 F1200 X60.666 Y90.647 E63.17691 A-103.01538
G0 F6000 X59.874 Y90.421 A-103.68795
G1 F1200 X62.611 Y93.158 E63.30565 A-104.57806
G0 F6000 X62.426 Y93.578 A-103.88232
G0 X61.465 Y93.178 A-103.63557
G0 X61.641 Y92.754 A-103.62835
G1 F1200 X59.117 Y90.23 E63.42437 A-102.99515
G0 F6000 X58.394 Y90.072 A-103.70842
G1 F1200 X60.758 Y92.437 E63.53559 A-104.4665
G0 F6000 X59.928 Y92.172 A-103.67622
G1 F1200 X57.702 Y89.946 E63.64029 A-103.08512
G0 F6000 X57.033 Y89.842 A-103.72467
G1 F1200 X59.146 Y91.956 E63.7397 A-104.39119
G0 F6000 X58.409 Y91.784 A-103.70421
G1 F1200 X56.388 Y89.763 E63.83477 A-103.14699
G0 F6000 X55.765 Y89.707 A-103.73912
G1 F1200 X57.705 Y91.646 E63.92599 A-104.33868
G0 F6000 X57.026 Y91.533 A-103.72196
G1 F1200 X55.746 Y90.253 E63.9862 A-103.37047
G0 F6000 X55.727 Y90.799 A-103.92021
M104 S200
G1 F1200 X56.376 Y91.449 E64.01675 A-103.95147
G1 F1500 E57.51675
; MESH:NONMESH
; ::: End layer 0 postamble :::
; ====== End layer 0 ====
; ==== Start layer 1 ====
; ::: Layer 1 postamble :::
G0 F300 X56.376 Y91.449 Z0.4
G0 F6000 X56.323 Y91.906 A-103.89344
G0 X54.936 Y92.075 A-103.80682
G0 X52.636 Y92.074 A-103.75567
G0 X44.326 Y94.071 A-104.35608
; TIME_ELAPSED:132.873644
; LAYER:1
M106 S85
; TYPE:WALL-INNER
; MESH:bracelet.3mf(9)
G1 F1500 E64.01675
G1 F1350 X44.937 Y93.78 E64.03926 A-103.66839
G1 X45.526 Y93.522 E64.06065 A-103.67832
G1 X46.123 Y93.281 E64.08206 A-103.68344
G1 X46.719 Y93.062 E64.10318 A-103.69006
G1 X47.338 Y92.852 E64.12492 A-103.69277
G1 X47.955 Y92.666 E64.14636 A-103.69999
G1 X48.577 Y92.499 E64.16778 A-103.70571
G1 X49.2 Y92.352 E64.18907 A-103.71173
G1 X49.835 Y92.223 E64.21062 A-103.71715
G1 X50.469 Y92.114 E64.23201 A-103.72317
G1 X51.107 Y92.022 E64.25345 A-103.72828
G1 X51.747 Y91.952 E64.27487 A-103.73491
G1 X52.444 Y91.897 E64.29812 A-103.73942
G1 X52.344 Y89.099 E64.39124 A-102.9124
G1 X51.571 Y89.156 E64.41702 A-103.77312
G1 X50.905 Y89.227 E64.4393 A-103.77733
G1 X50.23 Y89.319 E64.46196 A-103.78365
G1 X49.553 Y89.43 E64.48477 A-103.78937
G1 X48.882 Y89.56 E64.50751 A-103.79508
G1 X48.217 Y89.709 E64.53017 A-103.8008
G1 X47.564 Y89.873 E64.55257 A-103.80531
G1 X46.874 Y90.067 E64.57641 A-103.81434
G1 X46.246 Y90.265 E64.59831 A-103.81554
G1 X45.597 Y90.489 E64.62114 A-103.82336
G1 X44.962 Y90.73 E64.64373 A-103.82848
G1 X44.364 Y90.974 E64.66521 A-103.82938
G1 X43.712 Y91.263 E64.68893 A-103.84292
G1 X43.011 Y91.601 E64.71482 A-103.85765
G1 X44.326 Y94.071 E64.80789 A-104.49799
G0 F7500 X44.158 Y94.607 A-103.9172
; TYPE:WALL-OUTER
G1 F1350 X44.528 Y94.417 E64.82172 A-103.69879
G1 X45.098 Y94.146 E64.84271 A-103.67441
G1 X45.676 Y93.893 E64.8637 A-103.67983
G1 X46.261 Y93.657 E64.88468 A-103.68494
G1 X46.848 Y93.441 E64.90548 A-103.69096
G1 X47.454 Y93.235 E64.92677 A-103.69397
G1 X48.059 Y93.052 E64.9478 A-103.7009
G1 X48.669 Y92.889 E64.9688 A-103.70692
G1 X49.298 Y92.741 E64.99029 A-103.71143
G1 X49.903 Y92.617 E65.01083 A-103.71865
G1 X50.52 Y92.51 E65.03166 A-103.72377
G1 X51.151 Y92.42 E65.05286 A-103.72889
G1 X51.78 Y92.35 E65.07391 A-103.73491
G1 X52.409 Y92.299 E65.09489 A-103.74062
G1 X52.858 Y92.277 E65.10985 A-103.74935
G1 X52.73 Y88.679 E65.22959 A-102.67059
G1 X52.253 Y88.702 E65.24548 A-103.76289
G1 X51.529 Y88.758 E65.26963 A-103.77282
G1 X50.852 Y88.831 E65.29228 A-103.77794
G1 X50.166 Y88.924 E65.3153 A-103.78395
G1 X49.477 Y89.037 E65.33852 A-103.78997
G1 X48.82 Y89.164 E65.36078 A-103.79418
G1 X48.121 Y89.321 E65.38461 A-103.80321
G1 X47.456 Y89.487 E65.4074 A-103.80592
G1 X46.754 Y89.685 E65.43166 A-103.81554
G1 X46.116 Y89.887 E65.45392 A-103.81675
G1 X45.455 Y90.115 E65.47718 A-103.82457
G1 X44.811 Y90.36 E65.5001 A-103.82968
G1 X44.165 Y90.624 E65.52331 A-103.8354
G1 X43.54 Y90.902 E65.54606 A-103.83961
G1 X42.92 Y91.198 E65.56891 A-103.84502
G1 X42.467 Y91.431 E65.58585 A-103.82607
G1 X44.158 Y94.607 E65.70553 A-104.70965
G0 F7500 X44.269 Y94.245 A-103.64701
G0 X44.592 Y93.832 A-103.63166
G0 X44.482 Y93.597 A-103.68525
; TYPE:SKIN
G1 F1350 X44.771 Y93.459 E65.71618 A-103.71444
G1 X45.366 Y93.199 E65.73777 A-103.67772
G1 X45.975 Y92.953 E65.75962 A-103.68193
G1 X46.583 Y92.728 E65.78118 A-103.68826
G1 X47.223 Y92.509 E65.80368 A-103.69006
G1 X47.838 Y92.323 E65.82505 A-103.69999
G1 X48.471 Y92.153 E65.84685 A-103.70481
G1 X49.143 Y91.993 E65.86983 A-103.70782
G1 X49.773 Y91.865 E65.89121 A-103.71745
G1 X50.398 Y91.759 E65.91229 A-103.72407
G1 X51.044 Y91.668 E65.93399 A-103.72859
