; FLAVOR:Marlin
; TIME:3105
; Filament used: 1.6645m
; Layer height: 0.2
; MINX:18.116
; MINY:77.474
; MINZ:0.2
; MAXX:89.457
; MAXY:148.814
; MAXZ:10
; Generated with Cura_SteamEngine 5.2.2
M82 ; absolute extrusion mode
; Ender 3 Custom Start G-code
G92 E0 ; Reset Extruder
G28 X Y Z ; Home only X, Y, and Z axes, but avoid trying to home A
M104 S175 ; Start heating up the nozzle most of the way
M190 S60 ; Start heating the bed, wait until target temperature reached
M109 S200 ; Finish heating the nozzle
G92 A90 ; Assume the ring has been manually homed, set its position to 90°
M92 A52.3977 ; Set fractional steps/unit for ring moves
G0 F5000 X55.0 ; Move head out of the way of the carrier
G0 F5000 A41.81 ; Move ring to initial thread position (🧵H({-20.00,   0.00,   0.00}, ↗ 90.00° (  0.00,   1.00,   0.00)),  ⃘131.810°)
; --- Printer state ---
; Ring(131.810°, ⌀186 → {-20.00,  60.12,   0.00}, ⊙{ 42.00,  -9.20,   0.00})
; Bed(0, 0, ⚓︎{-20.00,   0.00,   0.00})
; Carrier: {-20.00,  60.12,   0.00}
; Print head: {  0.00,   0.00,   0.00}
G1 Z2.0 F3000 ; Move Z Axis up little to prevent scratching of Heat Bed
G1 X0.1 Y20 Z0.3 F5000.0 ; Move to start position
G1 X0.1 Y200.0 Z0.3 F1500.0 E15 ; Draw the first line
G1 X0.4 Y200.0 Z0.3 F5000.0 ; Move to side a little
G1 X0.4 Y20 Z0.3 F1500.0 E30 ; Draw the second line
G92 E0 ; Reset Extruder
G1 Z2.0 F3000 ; Move Z Axis up little to prevent scratching of Heat Bed
G1 X5 Y20 Z0.3 F5000.0 ; Move over to prevent blob squish
G92 E0
G92 E0
G1 F1500 E-6.5
; LAYER_COUNT:50
; LAYER:0
M107
; ==== Start layer 0 ====
; ::: Layer 0 postamble :::
G0 F6000 X38.25 Y81.022 Z0.2
; TYPE:SKIRT
G1 F1500 E0
G1 F1200 X39.239 Y80.563 E0.03626
G1 X40.343 Y80.092 E0.07619
G1 X41.067 Y79.807 E0.10206
G1 X42.271 Y79.372 E0.14464
G1 X43.247 Y79.054 E0.17878
G1 X43.938 Y78.848 E0.20277
G1 X44.961 Y78.572 E0.23801
G1 X45.81 Y78.366 E0.26707
G1 X46.852 Y78.143 E0.30251
G1 X47.872 Y77.956 E0.337
G1 X48.912 Y77.797 E0.37199
G1 X49.858 Y77.679 E0.4037
G1 X50.902 Y77.579 E0.43858
G1 X51.868 Y77.514 E0.47078
G1 X52.822 Y77.48 E0.50253
G1 X53.762 Y77.474 E0.5338
G1 X54.739 Y77.48 E0.56629
G1 X55.337 Y77.496 E0.58619
G1 X56.679 Y77.58 E0.63091
G1 X57.472 Y77.653 E0.6574
G1 X58.415 Y77.763 E0.68898
G1 X59.379 Y77.903 E0.72138
G1 X60.702 Y78.139 E0.76607
G1 X61.459 Y78.296 E0.79179
G1 X62.393 Y78.514 E0.82369
G1 X63.643 Y78.851 E0.86675
G1 X64.615 Y79.146 E0.90053
G1 X65.315 Y79.377 E0.92505
G1 X66.502 Y79.806 E0.96703
G1 X67.589 Y80.24 E1.00596
G1 X68.089 Y80.454 E1.02405
G1 X69.028 Y80.883 E1.05838
G1 X70.263 Y81.495 E1.10423
G1 X70.81 Y81.791 E1.12491
G1 X71.598 Y82.24 E1.15508
G1 X72.686 Y82.882 E1.19709
G1 X73.209 Y83.214 E1.2177
G1 X74.159 Y83.851 E1.25574
G1 X74.901 Y84.38 E1.28605
G1 X75.694 Y84.98 E1.31912
G1 X76.316 Y85.475 E1.34556
G1 X77.292 Y86.299 E1.38805
G1 X78.032 Y86.967 E1.42121
G1 X78.793 Y87.693 E1.45619
G1 X79.492 Y88.399 E1.48923
G1 X80.127 Y89.076 E1.5201
G1 X80.867 Y89.911 E1.55721
G1 X81.51 Y90.68 E1.59055
G1 X82.107 Y91.439 E1.62267
G1 X82.727 Y92.274 E1.65726
G1 X83.313 Y93.111 E1.69124
G1 X83.86 Y93.943 E1.72436
G1 X84.195 Y94.487 E1.74561
G1 X84.71 Y95.367 E1.77952
G1 X85.129 Y96.102 E1.80766
G1 X85.462 Y96.717 E1.83092
G1 X85.887 Y97.565 E1.86247
G1 X86.372 Y98.609 E1.90076
G1 X86.838 Y99.701 E1.94025
G1 X87.123 Y100.425 E1.96613
G1 X87.455 Y101.33 E1.99819
G1 X87.76 Y102.24 E2.03011
G1 X88.121 Y103.44 E2.07179
G1 X88.395 Y104.465 E2.10708
G1 X88.659 Y105.593 E2.14561
G1 X88.794 Y106.245 E2.16776
G1 X88.958 Y107.137 E2.19792
G1 X89.139 Y108.319 E2.23769
G1 X89.28 Y109.5 E2.27725
G1 X89.372 Y110.542 E2.31204
G1 X89.431 Y111.525 E2.3448
G1 X89.45 Y112.177 E2.36649
G1 X89.457 Y112.919 E2.39117
G1 X89.452 Y113.98 E2.42646
G1 X89.414 Y115.103 E2.46383
G1 X89.351 Y116.019 E2.49437
G1 X89.271 Y116.88 E2.52313
G1 X89.136 Y118 E2.56065
G1 X88.962 Y119.129 E2.59865
G1 X88.792 Y120.056 E2.62999
G1 X88.591 Y121.004 E2.66223
G1 X88.381 Y121.881 E2.69222
G1 X88.174 Y122.663 E2.71912
G1 X87.874 Y123.687 E2.75461
G1 X87.549 Y124.686 E2.78956
G1 X87.12 Y125.869 E2.83141
G1 X86.714 Y126.889 E2.86792
G1 X86.337 Y127.76 E2.89949
G1 X85.915 Y128.663 E2.93264
G1 X85.446 Y129.6 E2.96749
G1 X85.095 Y130.246 E2.99195
G1 X84.257 Y131.697 E3.04768
G1 X84.05 Y132.041 E3.06103
G1 X83.682 Y132.621 E3.08388
G1 X83.119 Y133.459 E3.11745
G1 X82.508 Y134.314 E3.15241
G1 X81.929 Y135.08 E3.18434
G1 X81.307 Y135.855 E3.21739
G1 X80.644 Y136.635 E3.25144
G1 X80.117 Y137.224 E3.27773
G1 X79.524 Y137.857 E3.30658
G1 X78.524 Y138.855 E3.35357
G1 X77.769 Y139.562 E3.38797
G1 X77.057 Y140.192 E3.41959
G1 X76.304 Y140.822 E3.45225
G1 X75.443 Y141.501 E3.48872
G1 X74.63 Y142.104 E3.52238
G1 X73.873 Y142.634 E3.55312
G1 X73.256 Y143.046 E3.5778
G1 X72.697 Y143.401 E3.59982
G1 X70.881 Y144.456 E3.66967
G1 X70.532 Y144.65 E3.68295
G1 X69.947 Y144.956 E3.70491
G1 X69.321 Y145.266 E3.72815
G1 X68.295 Y145.742 E3.76576
G1 X67.222 Y146.201 E3.80458
G1 X66.591 Y146.449 E3.82713
G1 X65.5 Y146.848 E3.86577
G1 X64.398 Y147.21 E3.90435
G1 X63.264 Y147.544 E3.94367
G1 X62.733 Y147.686 E3.96195
G1 X61.659 Y147.946 E3.9987
G1 X60.727 Y148.144 E4.03039
G1 X59.707 Y148.33 E4.06488
G1 X58.665 Y148.49 E4.09994
G1 X57.705 Y148.61 E4.13212
G1 X56.685 Y148.708 E4.1662
G1 X55.384 Y148.79 E4.20956
G1 X54.736 Y148.808 E4.23112
G1 X53.747 Y148.814 E4.26401
G1 X52.862 Y148.809 E4.29345
G1 X52.227 Y148.792 E4.31458
G1 X51.21 Y148.733 E4.34846
G1 X50.09 Y148.634 E4.38586
G1 X49.163 Y148.526 E4.4169
G1 X48.187 Y148.384 E4.4497
G1 X47.137 Y148.201 E4.48515
G1 X46.26 Y148.025 E4.5149
G1 X45.902 Y147.945 E4.5271
G1 X44.771 Y147.669 E4.56582
G1 X43.925 Y147.437 E4.595
G1 X42.91 Y147.129 E4.63028
G1 X42.072 Y146.848 E4.65967
G1 X41.281 Y146.563 E4.68764
G1 X40.348 Y146.199 E4.72095
G1 X39.167 Y145.694 E4.76367
G1 X38.539 Y145.404 E4.78668
G1 X37.308 Y144.793 E4.83239
G1 X36.763 Y144.498 E4.853
G1 X35.999 Y144.064 E4.88222
G1 X34.912 Y143.423 E4.92419
G1 X34.307 Y143.039 E4.94803
G1 X33.693 Y142.631 E4.97255
G1 X32.919 Y142.089 E5.00397
G1 X31.826 Y141.269 E5.04942
G1 X31.079 Y140.669 E5.08129
G1 X30.516 Y140.195 E5.10577
G1 X29.758 Y139.523 E5.13946
G1 X29.048 Y138.858 E5.17181
G1 X28.061 Y137.871 E5.21824
G1 X27.638 Y137.424 E5.23871
G1 X26.877 Y136.576 E5.2766
G1 X26.287 Y135.883 E5.30688
G1 X25.476 Y134.864 E5.35019
G1 X24.807 Y133.964 E5.38749
G1 X24.432 Y133.432 E5.40914
G1 X23.711 Y132.347 E5.45247
G1 X23.375 Y131.8 E5.47382
G1 X22.946 Y131.068 E5.50204
G1 X22.295 Y129.917 E5.54602
G1 X21.963 Y129.284 E5.56979
G1 X21.543 Y128.427 E5.60154
G1 X21.076 Y127.4 E5.63906
G1 X20.709 Y126.529 E5.6705
G1 X20.37 Y125.657 E5.70161
G1 X20.111 Y124.94 E5.72697
G1 X19.778 Y123.942 E5.76196
G1 X19.484 Y122.972 E5.79567
G1 X19.172 Y121.804 E5.83588
G1 X18.914 Y120.702 E5.87353
G1 X18.73 Y119.793 E5.90437
G1 X18.548 Y118.75 E5.93959
G1 X18.395 Y117.694 E5.97508
G1 X18.322 Y117.082 E5.99558
G1 X18.196 Y115.7 E6.04173
G1 X18.14 Y114.752 E6.07332
G1 X18.122 Y114.098 E6.09508
G1 X18.116 Y113.059 E6.12964
G1 X18.121 Y112.217 E6.15764
G1 X18.138 Y111.586 E6.17864
G1 X18.196 Y110.577 E6.21225
G1 X18.296 Y109.448 E6.24995
G1 X18.405 Y108.515 E6.28119
G1 X18.597 Y107.233 E6.32431
G1 X18.785 Y106.202 E6.35916
G1 X18.982 Y105.276 E6.39065
G1 X19.257 Y104.148 E6.42927
G1 X19.42 Y103.541 E6.45017
G1 X19.673 Y102.677 E6.48012
G1 X20.018 Y101.617 E6.51719
G1 X20.361 Y100.656 E6.55113
G1 X20.722 Y99.728 E6.58425
G1 X21.104 Y98.822 E6.61695
G1 X21.567 Y97.811 E6.65394
G1 X22.098 Y96.74 E6.6937
G1 X22.433 Y96.12 E6.71713
G1 X22.926 Y95.254 E6.75028
G1 X23.336 Y94.554 E6.77726
G1 X23.76 Y93.868 E6.80408
G1 X24.429 Y92.862 E6.84427
G1 X25.045 Y91.997 E6.87959
G1 X25.466 Y91.436 E6.90291
G1 X26.292 Y90.398 E6.94704
G1 X26.872 Y89.718 E6.97676
G1 X27.488 Y89.029 E7.0075
G1 X28.281 Y88.19 E7.0459
G1 X29.024 Y87.454 E7.08068
G1 X29.573 Y86.935 E7.10581
G1 X30.28 Y86.299 E7.13744
G1 X31.082 Y85.618 E7.17243
G1 X31.799 Y85.04 E7.20307
G1 X32.968 Y84.164 E7.25165
G1 X33.462 Y83.816 E7.27175
G1 X34.349 Y83.221 E7.30727
G1 X34.899 Y82.873 E7.32892
G1 X36.687 Y81.833 E7.39772
G1 X37.039 Y81.638 E7.4111
G1 X37.624 Y81.332 E7.43306
G1 X38.25 Y81.022 E7.45629
G0 F6000 X38.709 Y81.247
G1 F1200 X39.664 Y80.812 E7.4912
G1 X40.207 Y80.58 E7.51084
G1 X41.491 Y80.075 E7.55673
G1 X42.396 Y79.752 E7.58869
G1 X43.065 Y79.531 E7.61212
G1 X44.053 Y79.232 E7.64645
G1 X45.064 Y78.958 E7.68129
G1 X46.185 Y78.691 E7.71962
G1 X46.934 Y78.534 E7.74507
G1 X47.942 Y78.35 E7.77915
G1 X48.971 Y78.193 E7.81378
G1 X49.906 Y78.076 E7.84512
G1 X51.229 Y77.955 E7.8893
G1 X52.192 Y77.898 E7.92139
G1 X52.825 Y77.88 E7.94245
G1 X53.759 Y77.874 E7.97352
G1 X54.736 Y77.88 E8.00601
G1 X55.324 Y77.896 E8.02558
G1 X56.337 Y77.955 E8.05933
G1 X57.74 Y78.084 E8.10619
G1 X58.656 Y78.199 E8.13689
G1 X59.624 Y78.348 E8.16947
G1 X60.338 Y78.476 E8.19359
G1 X61.378 Y78.688 E8.2289
G1 X62.3 Y78.903 E8.26038
G1 X63.528 Y79.234 E8.30269
G1 X64.201 Y79.435 E8.32605
G1 X65.19 Y79.757 E8.36064
G1 X66.053 Y80.064 E8.39111
G1 X67.157 Y80.495 E8.43052
G1 X67.932 Y80.822 E8.4585
G1 X68.86 Y81.246 E8.49244
G1 X69.781 Y81.697 E8.52654
G1 X70.612 Y82.139 E8.55785
G1 X71.286 Y82.522 E8.58363
G1 X72.474 Y83.221 E8.62948
G1 X72.988 Y83.547 E8.64972
G1 X73.68 Y84.007 E8.67736
G1 X74.661 Y84.7 E8.71731
G1 X75.445 Y85.293 E8.75
G1 X76.303 Y85.981 E8.78658
G1 X76.79 Y86.392 E8.80778
G1 X77.552 Y87.069 E8.84168
G1 X78.51 Y87.975 E8.88553
G1 X79.202 Y88.674 E8.91825
G1 X79.619 Y89.114 E8.93841
G1 X80.358 Y89.935 E8.97515
G1 X81.011 Y90.702 E9.00866
G1 X81.787 Y91.678 E9.05013
G1 X82.4 Y92.505 E9.08437
G1 X82.98 Y93.332 E9.11796
G1 X83.352 Y93.891 E9.1403
G1 X83.7 Y94.441 E9.16194
G1 X84.363 Y95.565 E9.20535
G1 X84.782 Y96.3 E9.23349
G1 X85.251 Y97.181 E9.26668
G1 X85.663 Y98.023 E9.29786
G1 X86.009 Y98.776 E9.32542
G1 X86.354 Y99.575 E9.35437
G1 X86.75 Y100.571 E9.39002
G1 X87.175 Y101.745 E9.43154
G1 X87.479 Y102.682 E9.46431
G1 X87.813 Y103.821 E9.50379
G1 X88.006 Y104.558 E9.52913
G1 X88.267 Y105.674 E9.56725
G1 X88.402 Y106.326 E9.58939
G1 X88.564 Y107.208 E9.61922
G1 X88.743 Y108.378 E9.65858
G1 X88.882 Y109.537 E9.69741
G1 X88.973 Y110.568 E9.73183
G1 X89.031 Y111.539 E9.76419
G1 X89.05 Y112.181 E9.78555
G1 X89.057 Y112.923 E9.81023
G1 X89.052 Y113.978 E9.84532
G1 X89.015 Y115.077 E9.88189
G1 X88.953 Y115.982 E9.91206
G1 X88.873 Y116.843 E9.94082
G1 X88.782 Y117.631 E9.96721
G1 X88.618 Y118.756 E10.00502
G1 X88.4 Y119.975 E10.04621
G1 X88.202 Y120.91 E10.078
G1 X87.992 Y121.787 E10.10799
G1 X87.713 Y122.826 E10.14377
G1 X87.491 Y123.573 E10.16969
G1 X87.169 Y124.56 E10.20422
G1 X86.854 Y125.442 E10.23537
G1 X86.46 Y126.454 E10.27149
G1 X86.097 Y127.314 E10.30254
G1 X85.687 Y128.214 E10.33543
G1 X85.226 Y129.152 E10.37019
G1 X84.93 Y129.717 E10.39141
G1 X84.748 Y130.046 E10.40391
G1 X83.91 Y131.497 E10.45965
G1 X83.711 Y131.828 E10.47249
G1 X83.348 Y132.4 E10.49502
G1 X82.793 Y133.228 E10.52818
G1 X82.351 Y133.851 E10.55358
G1 X81.796 Y134.597 E10.58451
G1 X81.2 Y135.355 E10.61658
G1 X80.346 Y136.368 E10.66065
G1 X79.819 Y136.957 E10.68694
G1 X79.233 Y137.583 E10.71546
G1 X78.448 Y138.372 E10.75247
G1 X77.734 Y139.052 E10.78527
G1 X77.007 Y139.706 E10.81779
G1 X76.055 Y140.509 E10.85922
G1 X75.204 Y141.18 E10.89526
G1 X74.4 Y141.777 E10.92857
G1 X73.874 Y142.148 E10.94998
G1 X73.033 Y142.713 E10.98367
G1 X72.485 Y143.061 E11.00527
G1 X72.177 Y143.246 E11.01722
G1 X70.681 Y144.11 E11.07467
G1 X70.345 Y144.296 E11.08745
G1 X69.769 Y144.597 E11.10906
G1 X68.862 Y145.041 E11.14265
G1 X68.128 Y145.378 E11.16951
G1 X67.385 Y145.701 E11.19646
G1 X66.176 Y146.178 E11.23969
G1 X65.058 Y146.577 E11.27917
G1 X64.284 Y146.827 E11.30622
G1 X63.16 Y147.157 E11.34519
G1 X62.35 Y147.37 E11.37304
G1 X61.255 Y147.626 E11.41044
G1 X60.36 Y147.807 E11.44082
G1 X59.342 Y147.985 E11.47519
G1 X58.606 Y148.095 E11.49994
G1 X57.381 Y148.242 E11.54098
G1 X56.648 Y148.31 E11.56546
G1 X55.682 Y148.375 E11.59766
G1 X54.733 Y148.408 E11.62924
G1 X53.749 Y148.414 E11.66197
G1 X52.864 Y148.409 E11.69141
G1 X52.24 Y148.392 E11.71217
G1 X50.911 Y148.308 E11.75646
G1 X49.84 Y148.205 E11.79225
G1 X48.905 Y148.087 E11.82359
G1 X47.967 Y147.943 E11.85516
G1 X47.207 Y147.808 E11.88083
G1 X46.341 Y147.633 E11.91021
G1 X45.149 Y147.352 E11.95095
G1 X44.318 Y147.132 E11.97954
G1 X43.327 Y146.84 E12.0139
G1 X42.476 Y146.564 E12.04366
G1 X41.112 Y146.071 E12.0919
G1 X40.219 Y145.714 E12.12388
G1 X39.605 Y145.451 E12.1461
G1 X38.707 Y145.04 E12.17895
G1 X37.79 Y144.591 E12.21291
G1 X36.96 Y144.15 E12.24417
G1 X36.196 Y143.716 E12.27339
G1 X35.125 Y143.084 E12.31475
G1 X34.528 Y142.706 E12.33825
G1 X33.914 Y142.298 E12.36277
G1 X32.909 Y141.587 E12.40372
G1 X32.075 Y140.956 E12.4385
G1 X31.337 Y140.363 E12.46999
G1 X30.774 Y139.889 E12.49447
G1 X30.025 Y139.225 E12.52776
G1 X29.323 Y138.567 E12.55976
G1 X28.352 Y137.596 E12.60544
G1 X27.711 Y136.911 E12.63664
G1 X26.993 Y136.1 E12.67266
G1 X26.592 Y135.625 E12.69334
G1 X25.796 Y134.625 E12.73585
G1 X25.313 Y133.98 E12.76265
G1 X24.759 Y133.201 E12.79445
G1 X24.05 Y132.135 E12.83703
G1 X23.719 Y131.597 E12.85804
G1 X23.293 Y130.87 E12.88606
G1 X22.795 Y129.996 E12.91952
G1 X22.459 Y129.374 E12.94303
G1 X21.906 Y128.259 E12.98443
G1 X21.444 Y127.244 E13.02152
G1 X21.081 Y126.383 E13.0526
G1 X20.746 Y125.521 E13.08336
G1 X20.487 Y124.804 E13.10871
G1 X20.066 Y123.525 E13.1535
G1 X19.783 Y122.559 E13.18698
G1 X19.561 Y121.711 E13.21613
G1 X19.305 Y120.62 E13.2534
G1 X19.178 Y120.007 E13.27423
G1 X18.994 Y118.996 E13.3084
G1 X18.834 Y117.952 E13.34353
G1 X18.69 Y116.754 E13.38367
G1 X18.595 Y115.675 E13.41969
G1 X18.54 Y114.738 E13.45091
G1 X18.522 Y114.096 E13.47227
G1 X18.516 Y113.061 E13.5067
G1 X18.521 Y112.219 E13.5347
G1 X18.538 Y111.599 E13.55533
G1 X18.596 Y110.602 E13.58855
G1 X18.726 Y109.19 E13.63571
G1 X18.841 Y108.274 E13.66642
G1 X18.991 Y107.304 E13.69906
G1 X19.177 Y106.283 E13.73358
G1 X19.371 Y105.37 E13.76462
G1 X19.644 Y104.252 E13.8029
G1 X19.882 Y103.377 E13.83306
G1 X20.056 Y102.791 E13.85339
G1 X20.398 Y101.743 E13.89006
G1 X20.738 Y100.792 E13.92365
G1 X21.094 Y99.874 E13.9564
G1 X21.472 Y98.979 E13.98871
G1 X22.05 Y97.728 E14.03455
G1 X22.451 Y96.928 E14.06431
G1 X22.781 Y96.318 E14.08738
G1 X23.271 Y95.456 E14.12036
G1 X23.681 Y94.756 E14.14734
G1 X24.099 Y94.08 E14.17377
G1 X24.591 Y93.333 E14.20352
G1 X25.365 Y92.238 E14.24812
G1 X25.968 Y91.441 E14.28136
G1 X26.403 Y90.894 E14.30461
G1 X26.971 Y90.214 E14.33408
G1 X27.786 Y89.296 E14.37491
G1 X28.564 Y88.474 E14.41255
G1 X29.299 Y87.745 E14.44698
G1 X30.077 Y87.016 E14.48244
G1 X30.765 Y86.408 E14.51298
G1 X31.34 Y85.923 E14.538
G1 X32.304 Y85.155 E14.57899
G1 X33.198 Y84.491 E14.61603
G1 X33.92 Y83.987 E14.64532
G1 X34.57 Y83.554 E14.67129
G1 X35.11 Y83.212 E14.69255
G1 X36.887 Y82.18 E14.7609
G1 X37.226 Y81.992 E14.77379
G1 X37.802 Y81.691 E14.79541
G1 X38.709 Y81.247 E14.829
G0 F6000 X38.876 Y81.61
G1 F1200 X39.821 Y81.18 E14.86353
G1 X40.364 Y80.948 E14.88317
G1 X41.36 Y80.552 E14.91882
G1 X42.252 Y80.225 E14.95042
G1 X43.191 Y79.911 E14.98335
G1 X44.167 Y79.615 E15.01727
G1 X45.166 Y79.345 E15.05169
G1 X45.996 Y79.144 E15.08009
G1 X47.016 Y78.926 E15.11478
G1 X48.298 Y78.697 E15.1581
G1 X49.03 Y78.588 E15.18271
G1 X49.954 Y78.473 E15.21368
G1 X51.254 Y78.354 E15.2571
G1 X51.918 Y78.312 E15.27923
G1 X52.55 Y78.286 E15.30027
G1 X53.757 Y78.274 E15.34042
G1 X54.734 Y78.28 E15.37291
G1 X55.311 Y78.296 E15.39211
G1 X56.312 Y78.354 E15.42546
G1 X57.399 Y78.45 E15.46175
G1 X58.318 Y78.557 E15.49253
G1 X59.26 Y78.694 E15.52419
G1 X60.268 Y78.87 E15.55822
G1 X61.596 Y79.146 E15.60333
G1 X62.207 Y79.292 E15.62423
G1 X63.155 Y79.544 E15.65685
G1 X64.364 Y79.906 E15.69883
G1 X65.326 Y80.227 E15.73256
G1 X66.208 Y80.55 E15.7638
G1 X67.01 Y80.867 E15.79248
G1 X67.774 Y81.19 E15.82007
G1 X68.693 Y81.609 E15.85366
G1 X69.604 Y82.056 E15.88742
G1 X70.414 Y82.487 E15.91793
G1 X71.195 Y82.931 E15.94781
G1 X72.262 Y83.56 E15.98901
G1 X72.767 Y83.881 E16.00891
G1 X73.697 Y84.504 E16.04614
G1 X74.421 Y85.02 E16.07571
G1 X75.196 Y85.606 E16.10803
G1 X75.818 Y86.101 E16.13447
G1 X76.532 Y86.698 E16.16542
G1 X77.483 Y87.549 E16.20787
G1 X78.227 Y88.258 E16.24205
G1 X78.735 Y88.768 E16.26599
G1 X79.53 Y89.609 E16.30448
G1 X80.255 Y90.426 E16.34081
G1 X80.705 Y90.96 E16.36404
G1 X81.467 Y91.918 E16.40475
G1 X82.073 Y92.735 E16.43859
G1 X82.647 Y93.554 E16.47185
G1 X83.182 Y94.366 E16.50419
G1 X83.505 Y94.891 E16.5247
G1 X83.953 Y95.655 E16.55415
G1 X84.434 Y96.498 E16.58643
G1 X84.756 Y97.094 E16.60896
G1 X85.17 Y97.92 E16.6397
G1 X85.761 Y99.203 E16.68668
G1 X85.986 Y99.731 E16.70577
G1 X86.378 Y100.718 E16.74109
G1 X86.702 Y101.602 E16.7724
G1 X87 Y102.491 E16.80359
G1 X87.354 Y103.667 E16.84444
G1 X87.547 Y104.373 E16.86878
G1 X87.81 Y105.462 E16.90604
G1 X88.061 Y106.668 E16.94701
G1 X88.221 Y107.584 E16.97794
G1 X88.348 Y108.437 E17.00662
G1 X88.455 Y109.303 E17.03565
G1 X88.552 Y110.326 E17.06982
G1 X88.631 Y111.552 E17.11069
G1 X88.65 Y112.185 E17.13175
G1 X88.657 Y112.927 E17.15643
G1 X88.652 Y113.976 E17.19132
G1 X88.615 Y115.052 E17.22713
G1 X88.554 Y115.945 E17.2569
G1 X88.446 Y117.073 E17.29459
G1 X88.345 Y117.882 E17.3217
G1 X88.175 Y118.988 E17.35892
G1 X88.009 Y119.894 E17.38956
G1 X87.813 Y120.817 E17.42094
G1 X87.603 Y121.694 E17.45093
G1 X87.402 Y122.456 E17.47715
G1 X87.107 Y123.459 E17.51192
G1 X86.699 Y124.695 E17.55521
G1 X86.376 Y125.576 E17.58642
G1 X86.088 Y126.307 E17.61255
G1 X85.611 Y127.424 E17.65295
G1 X85.199 Y128.307 E17.68536
G1 X84.868 Y128.974 E17.71012
G1 X84.577 Y129.53 E17.731
G1 X84.402 Y129.846 E17.74301
G1 X83.564 Y131.297 E17.79874
G1 X83.372 Y131.615 E17.8111
G1 X83.015 Y132.179 E17.8333
G1 X82.467 Y132.996 E17.86602
G1 X81.868 Y133.835 E17.9003
G1 X81.476 Y134.358 E17.92204
G1 X80.887 Y135.106 E17.95371
G1 X80.244 Y135.876 E17.98707
G1 X79.52 Y136.69 E18.02331
G1 X78.942 Y137.308 E18.05145
G1 X78.166 Y138.088 E18.08805
G1 X77.237 Y138.965 E18.13054
G1 X76.54 Y139.582 E18.1615
G1 X76.042 Y140.003 E18.18319
G1 X75.2 Y140.678 E18.21908
G1 X74.403 Y141.28 E18.2523
G1 X73.428 Y141.969 E18.29201
G1 X72.811 Y142.381 E18.31669
G1 X72.273 Y142.722 E18.33787
G1 X71.977 Y142.9 E18.34936
G1 X70.481 Y143.764 E18.40682
G1 X70.158 Y143.943 E18.4191
G1 X69.592 Y144.239 E18.44034
G1 X68.966 Y144.549 E18.46358
G1 X67.961 Y145.015 E18.50042
G1 X66.929 Y145.456 E18.53775
G1 X66.039 Y145.802 E18.56951
G1 X64.934 Y146.197 E18.60854
G1 X64.17 Y146.444 E18.63525
G1 X63.057 Y146.771 E18.67383
G1 X62.258 Y146.981 E18.70131
G1 X61.474 Y147.168 E18.72811
G1 X60.29 Y147.413 E18.76833
G1 X59.283 Y147.589 E18.80233
G1 X58.547 Y147.699 E18.82708
G1 X57.61 Y147.815 E18.85848
G1 X56.309 Y147.935 E18.90194
G1 X55.358 Y147.99 E18.93362
G1 X54.73 Y148.008 E18.95452
G1 X53.751 Y148.014 E18.98708
G1 X52.866 Y148.009 E19.01652
G1 X52.254 Y147.992 E19.03688
G1 X50.948 Y147.91 E19.0804
G1 X49.888 Y147.808 E19.11582
G1 X48.965 Y147.692 E19.14676
G1 X48.037 Y147.549 E19.17799
G1 X47.005 Y147.362 E19.21287
G1 X46.09 Y147.167 E19.24399
G1 X44.979 Y146.896 E19.28203
G1 X44.154 Y146.67 E19.31048
G1 X43.161 Y146.369 E19.34499
G1 X42.343 Y146.095 E19.37368
G1 X41.259 Y145.699 E19.41207
G1 X40.377 Y145.346 E19.44366
G1 X39.763 Y145.083 E19.46588
G1 X38.875 Y144.677 E19.49835
G1 X37.967 Y144.232 E19.53199
G1 X37.158 Y143.802 E19.56246
G1 X36.278 Y143.301 E19.59614
G1 X35.6 Y142.904 E19.62227
G1 X34.978 Y142.52 E19.64658
G1 X33.892 Y141.798 E19.68996
G1 X33.38 Y141.436 E19.71081
G1 X32.561 Y140.826 E19.74478
G1 X31.807 Y140.231 E19.77672
G1 X31.032 Y139.583 E19.81032
G1 X30.291 Y138.926 E19.84326
G1 X29.379 Y138.064 E19.885
G1 X28.642 Y137.321 E19.91981
G1 X28.009 Y136.645 E19.95061
G1 X27.474 Y136.044 E19.97737
G1 X26.898 Y135.367 E20.00694
G1 X26.116 Y134.385 E20.04869
G1 X25.633 Y133.74 E20.07549
G1 X25.086 Y132.971 E20.10688
G1 X24.39 Y131.924 E20.14869
G1 X24.064 Y131.395 E20.16936
G1 X23.708 Y130.789 E20.19274
G1 X23.143 Y129.798 E20.23068
G1 X22.812 Y129.186 E20.25382
G1 X22.4 Y128.365 E20.28437
G1 X21.812 Y127.087 E20.33116
G1 X21.453 Y126.236 E20.36188
G1 X21.226 Y125.66 E20.38247
G1 X20.769 Y124.395 E20.42721
G1 X20.537 Y123.691 E20.45186
G1 X20.17 Y122.456 E20.49471
G1 X19.95 Y121.618 E20.52353
G1 X19.697 Y120.539 E20.56039
G1 X19.517 Y119.652 E20.5905
G1 X19.339 Y118.632 E20.62493
G1 X19.19 Y117.599 E20.65965
G1 X19.088 Y116.717 E20.68918
G1 X19.017 Y115.948 E20.71486
G1 X18.954 Y115.014 E20.746
G1 X18.928 Y114.376 E20.76724
G1 X18.916 Y113.063 E20.81091
G1 X18.921 Y112.221 E20.83891
G1 X18.938 Y111.612 E20.85918
G1 X18.995 Y110.627 E20.89199
G1 X19.123 Y109.239 E20.93835
G1 X19.199 Y108.612 E20.95936
G1 X19.336 Y107.67 E20.99102
G1 X19.52 Y106.617 E21.02658
G1 X19.686 Y105.795 E21.05447
G1 X19.964 Y104.615 E21.09479
G1 X20.193 Y103.749 E21.12458
G1 X20.44 Y102.905 E21.15383
G1 X20.778 Y101.868 E21.19011
G1 X21.114 Y100.928 E21.22331
G1 X21.466 Y100.021 E21.25567
G1 X21.84 Y99.136 E21.28762
G1 X22.408 Y97.905 E21.33272
G1 X22.804 Y97.116 E21.36208
G1 X23.128 Y96.515 E21.38479
G1 X23.549 Y95.774 E21.41313
G1 X24.182 Y94.701 E21.45457
G1 X24.438 Y94.292 E21.47062
G1 X24.924 Y93.555 E21.49998
G1 X25.51 Y92.718 E21.53396
G1 X26.281 Y91.69 E21.5767
G1 X26.716 Y91.143 E21.59995
G1 X27.468 Y90.252 E21.63873
G1 X28.276 Y89.353 E21.67893
G1 X28.64 Y88.968 E21.69655
G1 X29.375 Y88.229 E21.73122
G1 X30.343 Y87.314 E21.77552
G1 X30.812 Y86.896 E21.79642
G1 X31.598 Y86.229 E21.8307
G1 X32.544 Y85.475 E21.87094
G1 X33.429 Y84.818 E21.9076
G1 X34.142 Y84.32 E21.93652
G1 X34.792 Y83.887 E21.9625
G1 X35.321 Y83.552 E21.98333
G1 X37.087 Y82.526 E22.05126
G1 X37.413 Y82.345 E22.06366
G1 X37.979 Y82.049 E22.0849
G1 X38.876 Y81.61 E22.11812
G1 F1500 E15.61812
; MESH:bracelet.3mf(9)
G0 F6000 X42.983 Y90.208
G0 X44.326 Y94.072
; TYPE:WALL-INNER
G1 F1500 E22.11812
G1 F1200 X44.95 Y93.774 E22.14112
G1 X45.538 Y93.517 E22.16246
G1 X46.134 Y93.276 E22.18384
G1 X46.731 Y93.057 E22.20499
G1 X47.351 Y92.848 E22.22676
G1 X47.966 Y92.663 E22.24812
G1 X48.59 Y92.495 E22.26961
G1 X49.212 Y92.349 E22.29086
G1 X49.848 Y92.22 E22.31244
G1 X50.482 Y92.111 E22.33384
G1 X51.154 Y92.017 E22.35641
G1 X51.76 Y91.949 E22.37669
G1 X52.444 Y91.895 E22.39951
G1 X52.345 Y89.098 E22.4926
G1 X51.578 Y89.156 E22.51818
G1 X50.891 Y89.229 E22.54116
G1 X50.215 Y89.321 E22.56385
G1 X49.54 Y89.432 E22.5866
G1 X48.871 Y89.562 E22.60927
G1 X48.238 Y89.704 E22.63085
G1 X47.552 Y89.876 E22.65437
G1 X46.879 Y90.065 E22.67762
G1 X46.232 Y90.269 E22.70018
G1 X45.583 Y90.494 E22.72303
G1 X44.95 Y90.735 E22.74556
G1 X44.316 Y90.996 E22.76836
G1 X43.699 Y91.269 E22.7908
G1 X43.011 Y91.601 E22.81621
G1 X44.326 Y94.072 E22.90931
G0 F6000 X44.158 Y94.607
; TYPE:WALL-OUTER
G1 F1200 X44.539 Y94.412 E22.92355
G1 X45.11 Y94.14 E22.94458
G1 X45.688 Y93.888 E22.96555
G1 X46.272 Y93.652 E22.9865
G1 X46.859 Y93.436 E23.00731
G1 X47.466 Y93.231 E23.02862
G1 X48.07 Y93.049 E23.0496
G1 X48.675 Y92.886 E23.07044
G1 X49.31 Y92.738 E23.09212
G1 X49.916 Y92.614 E23.1127
G1 X50.538 Y92.507 E23.13369
G1 X51.198 Y92.415 E23.15585
G1 X51.792 Y92.348 E23.17573
G1 X52.421 Y92.298 E23.19672
G1 X52.858 Y92.276 E23.21127
G1 X52.73 Y88.679 E23.33099
G1 X52.239 Y88.703 E23.34734
G1 X51.536 Y88.758 E23.37079
G1 X50.838 Y88.833 E23.39414
G1 X50.151 Y88.926 E23.4172
G1 X49.464 Y89.039 E23.44035
G1 X48.784 Y89.172 E23.4634
G1 X48.106 Y89.325 E23.48652
G1 X47.491 Y89.478 E23.5076
G1 X46.759 Y89.683 E23.53288
G1 X46.102 Y89.891 E23.5558
G1 X45.441 Y90.12 E23.57907
G1 X44.798 Y90.365 E23.60195
G1 X44.154 Y90.63 E23.62511
G1 X43.527 Y90.907 E23.64791
G1 X42.907 Y91.204 E23.67078
G1 X42.467 Y91.431 E23.68725
G1 X44.158 Y94.607 E23.80692
G0 F6000 X44.269 Y94.245
G0 X44.593 Y93.833
G0 X44.482 Y93.597
; TYPE:SKIN
G1 F1200 X44.784 Y93.453 E23.81805
G1 X45.361 Y93.2 E23.839
G1 X46.004 Y92.941 E23.86206
G1 X46.596 Y92.721 E23.88306
G1 X47.223 Y92.51 E23.90507
G1 X47.859 Y92.317 E23.92717
G1 X48.514 Y92.142 E23.94972
G1 X49.132 Y91.997 E23.97084
G1 X49.775 Y91.866 E23.99266
G1 X50.409 Y91.757 E24.01406
G1 X51.057 Y91.666 E24.03582
G1 X51.707 Y91.592 E24.05758
G1 X52.072 Y91.563 E24.06976
G1 X51.996 Y89.484 E24.13895
G1 X51.624 Y89.512 E24.15136
G1 X50.956 Y89.584 E24.17371
G1 X50.292 Y89.673 E24.19599
G1 X49.629 Y89.783 E24.21834
G1 X48.967 Y89.911 E24.24077
G1 X48.31 Y90.059 E24.26317
G1 X47.664 Y90.219 E24.2853
G1 X47.006 Y90.402 E24.30802
G1 X46.368 Y90.604 E24.33028
G1 X45.694 Y90.836 E24.35398
G1 X45.255 Y91.003 E24.36961
G1 X44.477 Y91.32 E24.39755
G1 X43.863 Y91.591 E24.41987
G1 X43.505 Y91.762 E24.43307
G1 X44.482 Y93.597 E24.50221
G0 F6000 X44.648 Y93.297
G1 F1200 X44.436 Y93.085 E24.51218
G0 F6000 X45.039 Y93.123
G1 F1200 X43.793 Y91.876 E24.57081
G0 F6000 X44.163 Y91.68
G1 F1200 X45.435 Y92.953 E24.63067
G0 F6000 X45.838 Y92.79
G1 F1200 X44.553 Y91.505 E24.69111
G0 F6000 X44.954 Y91.34
G1 F1200 X46.248 Y92.634 E24.75198
G0 F6000 X46.664 Y92.485
G1 F1200 X45.356 Y91.177 E24.8135
G0 F6000 X45.767 Y91.022
G1 F1200 X47.087 Y92.342 E24.87559
G0 F6000 X47.52 Y92.209
G1 F1200 X46.187 Y90.876 E24.93829
G0 F6000 X46.612 Y90.735
G1 F1200 X47.958 Y92.082 E25.00163
G0 F6000 X48.404 Y91.962
G1 F1200 X47.042 Y90.6 E25.06569
G0 F6000 X47.484 Y90.476
G1 F1200 X48.861 Y91.853 E25.13046
G0 F6000 X49.325 Y91.752
G1 F1200 X47.931 Y90.358 E25.19603
G0 F6000 X48.385 Y90.246
G1 F1200 X49.797 Y91.658 E25.26245
G0 F6000 X50.28 Y91.575
G1 F1200 X48.847 Y90.142 E25.32985
G0 F6000 X49.317 Y90.046
G1 F1200 X50.773 Y91.502 E25.39834
G0 F6000 X51.276 Y91.44
G1 F1200 X49.793 Y89.957 E25.46809
G0 F6000 X50.279 Y89.877
G1 F1200 X51.787 Y91.385 E25.53902
G0 F6000 X51.847 Y90.879
G1 F1200 X50.777 Y89.809 E25.58935
G0 F6000 X51.284 Y89.75
G1 F1200 X51.825 Y90.292 E25.61482
G1 F1500 E19.11482
; MESH:bracelet.3mf
G0 F6000 X52.265 Y89.657
G0 X52.266 Y91.736
G0 X47.873 Y92.61
G0 X44.439 Y94.217
G0 X42.255 Y95.472
G0 X36.055 Y101.357
; TYPE:WALL-INNER
G1 F1500 E25.61482
G1 F1200 X36.448 Y100.787 E25.63785
G1 X36.829 Y100.269 E25.65924
G1 X37.226 Y99.763 E25.68063
G1 X37.638 Y99.267 E25.70207
G1 X38.065 Y98.784 E25.72352
G1 X38.493 Y98.329 E25.74429
G1 X38.962 Y97.86 E25.76635
G1 X39.431 Y97.42 E25.78774
G1 X39.914 Y96.992 E25.80921
G1 X40.408 Y96.581 E25.83058
G1 X40.943 Y96.164 E25.85314
G1 X41.435 Y95.802 E25.87346
G1 X41.998 Y95.415 E25.89618
G1 X40.515 Y93.041 E25.98928
G1 X39.882 Y93.474 E26.01479
G1 X39.322 Y93.881 E26.03781
G1 X38.78 Y94.3 E26.0606
G1 X38.268 Y94.719 E26.0826
G1 X37.738 Y95.181 E26.10599
G1 X37.233 Y95.644 E26.12878
G1 X36.744 Y96.121 E26.1515
G1 X36.27 Y96.608 E26.1741
G1 X35.804 Y97.114 E26.19698
G1 X35.36 Y97.628 E26.21957
G1 X34.928 Y98.157 E26.24229
G1 X34.519 Y98.683 E26.26445
G1 X34.112 Y99.244 E26.2875
G1 X33.682 Y99.875 E26.3129
G1 X36.055 Y101.357 E26.40595
G0 F6000 X36.177 Y101.905
; TYPE:WALL-OUTER
G1 F1200 X36.411 Y101.544 E26.42026
G1 X36.77 Y101.024 E26.44128
G1 X37.144 Y100.516 E26.46226
G1 X37.534 Y100.019 E26.48327
G1 X37.938 Y99.532 E26.50432
G1 X38.357 Y99.058 E26.52536
G1 X38.785 Y98.603 E26.54613
G1 X39.236 Y98.152 E26.56735
G1 X39.697 Y97.719 E26.58838
G1 X40.17 Y97.299 E26.60942
G1 X40.654 Y96.896 E26.63037
G1 X41.18 Y96.486 E26.65255
G1 X41.663 Y96.131 E26.67249
G1 X42.182 Y95.772 E26.69348
G1 X42.547 Y95.537 E26.70792
G1 X40.639 Y92.485 E26.82763
G1 X40.227 Y92.752 E26.84396
G1 X39.646 Y93.15 E26.86738
G1 X39.078 Y93.564 E26.89076
G1 X38.527 Y93.99 E26.91392
G1 X38.01 Y94.413 E26.93614
G1 X37.468 Y94.886 E26.96007
G1 X36.973 Y95.339 E26.98239
G1 X36.474 Y95.824 E27.00553
G1 X35.976 Y96.337 E27.02931
G1 X35.502 Y96.852 E27.05259
G1 X35.05 Y97.374 E27.07556
G1 X34.612 Y97.911 E27.0986
G1 X34.183 Y98.465 E27.12191
G1 X33.782 Y99.017 E27.1446
G1 X33.395 Y99.583 E27.16741
G1 X33.125 Y99.999 E27.1839
G1 X36.177 Y101.905 E27.30358
G0 F6000 X36.096 Y101.535
G0 X35.815 Y101.087
G0 X35.952 Y100.869
; TYPE:SKIN
G1 F1200 X36.143 Y100.592 E27.31477
G1 X36.518 Y100.082 E27.33583
G1 X36.934 Y99.551 E27.35826
G1 X37.352 Y99.046 E27.38007
G1 X37.797 Y98.541 E27.40245
G1 X38.234 Y98.078 E27.42363
G1 X38.699 Y97.614 E27.44548
G1 X39.174 Y97.166 E27.46719
G1 X39.667 Y96.728 E27.48913
G1 X40.167 Y96.31 E27.5108
G1 X40.727 Y95.874 E27.53441
G1 X41.212 Y95.519 E27.5544
G1 X41.511 Y95.312 E27.5665
G1 X40.408 Y93.548 E27.63569
G1 X40.088 Y93.768 E27.64861
G1 X39.557 Y94.156 E27.67048
G1 X39.022 Y94.568 E27.69294
G1 X38.488 Y95.005 E27.71589
G1 X37.998 Y95.434 E27.73755
G1 X37.474 Y95.914 E27.76119
G1 X37.014 Y96.361 E27.78252
G1 X36.545 Y96.84 E27.80482
G1 X36.091 Y97.334 E27.82713
G1 X35.649 Y97.843 E27.84955
G1 X35.211 Y98.379 E27.87258
G1 X34.812 Y98.894 E27.89424
G1 X34.416 Y99.44 E27.91668
G1 X34.189 Y99.767 E27.92992
G1 X35.952 Y100.869 E27.99907
G0 F6000 X35.815 Y101.087
G0 X33.924 Y99.822
G0 X34.168 Y99.341
G0 X34.548 Y99.602
G1 F1200 X34.955 Y100.009 E28.01821
G0 F6000 X34.785 Y99.273
G1 F1200 X35.986 Y100.474 E28.0747
G0 F6000 X36.224 Y100.146
G1 F1200 X35.022 Y98.945 E28.13122
G0 F6000 X35.27 Y98.627
G1 F1200 X36.466 Y99.823 E28.18747
G0 F6000 X36.715 Y99.506
G1 F1200 X35.522 Y98.313 E28.24359
G0 F6000 X35.776 Y98.002
G1 F1200 X36.969 Y99.195 E28.2997
G0 F6000 X37.226 Y98.886
G1 F1200 X36.038 Y97.698 E28.35558
G0 F6000 X36.302 Y97.396
G1 F1200 X37.491 Y98.585 E28.41151
G0 F6000 X37.76 Y98.288
G1 F1200 X36.573 Y97.102 E28.46732
G0 F6000 X36.85 Y96.812
G1 F1200 X38.035 Y97.997 E28.52306
G0 F6000 X38.315 Y97.712
G1 F1200 X37.13 Y96.527 E28.5788
G0 F6000 X37.417 Y96.248
G1 F1200 X38.599 Y97.43 E28.6344
G0 F6000 X38.89 Y97.156
G1 F1200 X37.706 Y95.972 E28.69009
G0 F6000 X38.002 Y95.701
G1 F1200 X39.186 Y96.886 E28.7458
G0 F6000 X39.485 Y96.619
G1 F1200 X38.3 Y95.434 E28.80154
G0 F6000 X38.602 Y95.17
G1 F1200 X39.791 Y96.36 E28.85749
G0 F6000 X40.102 Y96.105
G1 F1200 X38.912 Y94.915 E28.91347
G0 F6000 X39.226 Y94.663
G1 F1200 X40.42 Y95.857 E28.96963
G0 F6000 X40.743 Y95.614
G1 F1200 X39.545 Y94.417 E29.02596
G0 F6000 X39.87 Y94.176
G1 F1200 X41.071 Y95.377 E29.08245
G0 F6000 X40.781 Y94.521
G1 F1200 X40.198 Y93.938 E29.10987
G1 F1500 E22.60987
; MESH:bracelet.3mf(8)
G0 F6000 X39.927 Y93.565
G0 X40.463 Y93.283
G0 X41.767 Y95.365
G0 X37.906 Y98.909
G0 X36.113 Y101.613
G0 X34.854 Y103.808
G0 X32.537 Y111.802
; TYPE:WALL-INNER
G1 F1500 E29.10987
G1 F1200 X32.593 Y111.11 E29.13296
G1 X32.664 Y110.474 E29.15425
G1 X32.753 Y109.834 E29.17574
G1 X32.861 Y109.213 E29.1967
G1 X32.991 Y108.567 E29.21862
G1 X33.14 Y107.941 E29.24002
G1 X33.307 Y107.321 E29.26138
G1 X33.494 Y106.696 E29.28307
G1 X33.699 Y106.086 E29.30448
G1 X33.913 Y105.505 E29.32507
G1 X34.172 Y104.861 E29.34816
G1 X34.419 Y104.299 E29.36858
G1 X34.712 Y103.686 E29.39117
G1 X32.241 Y102.37 E29.48429
G1 X31.908 Y103.061 E29.5098
G1 X31.628 Y103.693 E29.53279
G1 X31.36 Y104.344 E29.55621
G1 X31.134 Y104.947 E29.57763
G1 X30.905 Y105.613 E29.60105
G1 X30.702 Y106.263 E29.6237
G1 X30.52 Y106.906 E29.64593
G1 X30.351 Y107.565 E29.66855
G1 X30.202 Y108.232 E29.69128
G1 X30.072 Y108.903 E29.71402
G1 X29.96 Y109.597 E29.7374
G1 X29.87 Y110.255 E29.75949
G1 X29.797 Y110.943 E29.7825
G1 X29.74 Y111.702 E29.80781
G1 X32.537 Y111.802 E29.9009
G0 F6000 X32.917 Y112.216
; TYPE:WALL-OUTER
G1 F1200 X32.939 Y111.785 E29.91526
G1 X32.991 Y111.154 E29.93631
G1 X33.06 Y110.529 E29.95723
G1 X33.147 Y109.902 E29.97828
G1 X33.253 Y109.292 E29.99887
G1 X33.381 Y108.659 E30.02035
G1 X33.526 Y108.045 E30.04134
G1 X33.691 Y107.435 E30.06236
G1 X33.874 Y106.823 E30.0836
G1 X34.075 Y106.224 E30.10462
G1 X34.285 Y105.653 E30.12485
G1 X34.538 Y105.022 E30.14746
G1 X34.78 Y104.471 E30.16748
G1 X35.051 Y103.902 E30.18844
G1 X35.248 Y103.517 E30.20282
G1 X32.07 Y101.826 E30.32256
G1 X31.847 Y102.262 E30.33884
G1 X31.548 Y102.884 E30.3618
G1 X31.258 Y103.541 E30.38568
G1 X30.986 Y104.203 E30.40949
G1 X30.758 Y104.811 E30.43109
G1 X30.523 Y105.493 E30.45508
G1 X30.317 Y106.154 E30.47811
G1 X30.129 Y106.822 E30.50119
G1 X29.962 Y107.472 E30.52351
G1 X29.81 Y108.15 E30.54662
G1 X29.678 Y108.833 E30.56976
G1 X29.566 Y109.519 E30.59287
G1 X29.471 Y110.229 E30.6167
G1 X29.398 Y110.912 E30.63955
G1 X29.345 Y111.597 E30.6624
G1 X29.322 Y112.088 E30.67875
G1 X32.917 Y112.216 E30.79839
G0 F6000 X32.662 Y111.935
G0 X32.464 Y111.45
G0 X32.205 Y111.429
; TYPE:SKIN
G1 F1200 X32.233 Y111.092 E30.80964
G1 X32.301 Y110.464 E30.83065
G1 X32.394 Y109.789 E30.85331
G1 X32.503 Y109.163 E30.87445
G1 X32.634 Y108.511 E30.89656
G1 X32.789 Y107.855 E30.91898
G1 X32.964 Y107.216 E30.94102
G1 X33.145 Y106.604 E30.96225
G1 X33.355 Y105.981 E30.98411
G1 X33.571 Y105.392 E31.00498
G1 X33.84 Y104.719 E31.02908
G1 X34.084 Y104.165 E31.04922
G1 X34.237 Y103.843 E31.06108
G1 X32.403 Y102.864 E31.13022
G1 X32.244 Y103.198 E31.14253
G1 X31.896 Y103.987 E31.17121
G1 X31.707 Y104.449 E31.18781
G1 X31.478 Y105.056 E31.20939
G1 X31.257 Y105.701 E31.23206
G1 X31.056 Y106.343 E31.25444
G1 X30.871 Y106.997 E31.27704
G1 X30.705 Y107.645 E31.29929
G1 X30.559 Y108.289 E31.32126
G1 X30.431 Y108.948 E31.34358
G1 X30.317 Y109.648 E31.36717
G1 X30.229 Y110.295 E31.38889
G1 X30.158 Y110.962 E31.4112
G1 X30.127 Y111.354 E31.42428
G1 X32.205 Y111.429 E31.49344
G0 F6000 X32.464 Y111.45
G0 X29.925 Y111.535
G0 X29.929 Y110.663
G0 X30.385 Y110.712
G1 F1200 X30.851 Y111.179 E31.51538
G0 F6000 X31.438 Y111.2
G1 F1200 X30.443 Y110.204 E31.56221
G0 F6000 X30.51 Y109.706
G1 F1200 X32.022 Y111.217 E31.6333
G0 F6000 X32.075 Y110.706
G1 F1200 X30.588 Y109.219 E31.70325
G0 F6000 X30.674 Y108.739
G1 F1200 X32.136 Y110.201 E31.77201
G0 F6000 X32.205 Y109.704
G1 F1200 X30.768 Y108.267 E31.83961
G0 F6000 X30.873 Y107.806
G1 F1200 X32.29 Y109.223 E31.90626
G0 F6000 X32.381 Y108.749
G1 F1200 X30.986 Y107.353 E31.9719
G0 F6000 X31.104 Y106.906
G1 F1200 X32.482 Y108.284 E32.03672
G0 F6000 X32.589 Y107.826
G1 F1200 X31.228 Y106.464 E32.10076
G0 F6000 X31.362 Y106.032
G1 F1200 X32.711 Y107.381 E32.16421
G0 F6000 X32.836 Y106.941
G1 F1200 X31.5 Y105.605 E32.22705
G0 F6000 X31.645 Y105.184
G1 F1200 X32.966 Y106.505 E32.28919
G0 F6000 X33.108 Y106.082
G1 F1200 X31.799 Y104.772 E32.35078
G0 F6000 X31.957 Y104.365
G1 F1200 X33.257 Y105.665 E32.41193
G0 F6000 X33.411 Y105.253
G1 F1200 X32.123 Y103.965 E32.47251
G0 F6000 X32.297 Y103.574
G1 F1200 X33.572 Y104.848 E32.53246
G0 F6000 X33.741 Y104.451
G1 F1200 X32.472 Y103.183 E32.59213
G0 F6000 X32.057 Y102.984
G0 X32.318 Y102.606
G0 X33.783 Y103.305
G0 X33.567 Y103.712
G1 F1200 X33.915 Y104.06 E32.6085
G1 F1500 E26.1085
; MESH:bracelet.3mf(3)
G0 F6000 X34.328 Y104.254
G0 X33.147 Y108.613
G0 X32.965 Y109.684
G0 X32.773 Y111.14
G0 X33.852 Y111.233
G0 X33.728 Y113.097
G0 X32.677 Y113.217
G0 X32.243 Y123.919
; TYPE:WALL-INNER
G1 F1500 E32.6085
G1 F1200 X34.713 Y122.603 E32.70158
G1 X34.414 Y121.98 E32.72457
G1 X34.158 Y121.392 E32.7459
G1 X33.918 Y120.797 E32.76723
G1 X33.694 Y120.195 E32.7886
G1 X33.488 Y119.573 E32.81039
G1 X33.305 Y118.964 E32.83154
G1 X33.137 Y118.34 E32.85303
G1 X32.986 Y117.699 E32.87494
G1 X32.862 Y117.083 E32.89584
G1 X32.752 Y116.446 E32.91734
G1 X32.663 Y115.811 E32.93866
G1 X32.591 Y115.171 E32.96009
G1 X32.536 Y114.486 E32.98294
G1 X29.741 Y114.585 E33.07596
G1 X29.798 Y115.351 E33.10151
G1 X29.871 Y116.04 E33.12455
G1 X29.963 Y116.715 E33.14721
G1 X30.073 Y117.389 E33.16993
G1 X30.205 Y118.059 E33.19264
G1 X30.354 Y118.727 E33.2154
G1 X30.518 Y119.375 E33.23763
G1 X30.707 Y120.05 E33.26095
G1 X30.911 Y120.7 E33.28361
G1 X31.127 Y121.327 E33.30566
G1 X31.376 Y121.979 E33.32888
G1 X31.637 Y122.615 E33.35174
G1 X31.91 Y123.232 E33.37418
G1 X32.243 Y123.919 E33.39958
G0 F6000 X32.073 Y124.463
; TYPE:WALL-OUTER
G1 F1200 X35.248 Y122.772 E33.51922
G1 X35.054 Y122.391 E33.53344
G1 X34.781 Y121.82 E33.55449
G1 X34.529 Y121.242 E33.57546
G1 X34.293 Y120.657 E33.59644
G1 X34.074 Y120.072 E33.61722
G1 X33.871 Y119.458 E33.63873
G1 X33.691 Y118.86 E33.6595
G1 X33.527 Y118.248 E33.68057
G1 X33.378 Y117.62 E33.70204
G1 X33.256 Y117.015 E33.72257
G1 X33.148 Y116.39 E33.74366
G1 X33.061 Y115.766 E33.76462
G1 X32.99 Y115.138 E33.78564
G1 X32.939 Y114.508 E33.80666
G1 X32.917 Y114.072 E33.82118
G1 X29.321 Y114.2 E33.94086
G1 X29.345 Y114.69 E33.95718
G1 X29.4 Y115.393 E33.98063
G1 X29.469 Y116.047 E34.0025
G1 X29.564 Y116.755 E34.02626
G1 X29.681 Y117.465 E34.0502
G1 X29.814 Y118.146 E34.07327
G1 X29.966 Y118.825 E34.09642
G1 X30.132 Y119.483 E34.11899
G1 X30.325 Y120.169 E34.14269
G1 X30.516 Y120.782 E34.16405
G1 X30.761 Y121.489 E34.18893
G1 X31.006 Y122.13 E34.21176
G1 X31.271 Y122.777 E34.23501
G1 X31.549 Y123.404 E34.25782
G1 X31.846 Y124.023 E34.28066
G1 X32.073 Y124.463 E34.29713
G0 F6000 X32.186 Y124.096
G0 X32.168 Y123.538
G0 X32.402 Y123.425
; TYPE:SKIN
G1 F1200 X34.24 Y122.446 E34.36639
G1 X34.083 Y122.121 E34.37839
G1 X33.833 Y121.547 E34.39922
G1 X33.581 Y120.924 E34.42157
G1 X33.354 Y120.323 E34.44294
G1 X33.149 Y119.697 E34.46485
G1 X32.963 Y119.078 E34.48634
G1 X32.792 Y118.449 E34.50802
G1 X32.634 Y117.783 E34.53079
G1 X32.51 Y117.166 E34.55172
G1 X32.398 Y116.52 E34.57353
G1 X32.308 Y115.874 E34.59522
G1 X32.234 Y115.223 E34.61701
G1 X32.204 Y114.858 E34.62919
G1 X30.127 Y114.933 E34.69832
G1 X30.156 Y115.312 E34.71096
G1 X30.23 Y116.005 E34.73414
G1 X30.32 Y116.671 E34.75649
G1 X30.424 Y117.304 E34.77783
G1 X30.555 Y117.963 E34.80018
G1 X30.701 Y118.618 E34.8225
G1 X30.862 Y119.266 E34.84471
G1 X31.042 Y119.908 E34.86688
G1 X31.246 Y120.567 E34.88983
G1 X31.464 Y121.199 E34.91206
G1 X31.697 Y121.807 E34.93372
G1 X31.961 Y122.455 E34.95699
G1 X32.231 Y123.069 E34.9793
G1 X32.402 Y123.425 E34.99244
G0 F6000 X32.588 Y123.098
G1 F1200 X32.363 Y122.873 E35.00302
G0 F6000 X32.957 Y122.901
G1 F1200 X31.947 Y121.891 E35.05053
G0 F6000 X31.599 Y120.978
G1 F1200 X33.326 Y122.704 E35.13174
G0 F6000 X33.695 Y122.508
G1 F1200 X31.32 Y120.133 E35.24345
G0 F6000 X31.089 Y119.336
G1 F1200 X33.867 Y122.114 E35.37412
G0 F6000 X34.284 Y121.932
G0 X33.73 Y120.579
G0 X33.449 Y121.13
G1 F1200 X30.896 Y118.577 E35.4942
G0 F6000 X30.736 Y117.852
G1 F1200 X33.113 Y120.228 E35.60599
G0 F6000 X32.852 Y119.402
G1 F1200 X30.602 Y117.152 E35.71182
G0 F6000 X30.496 Y116.48
G1 F1200 X32.628 Y118.612 E35.8121
G0 F6000 X32.45 Y117.869
G1 F1200 X30.411 Y115.83 E35.90801
G0 F6000 X30.349 Y115.202
G1 F1200 X32.307 Y117.159 E36.00009
G0 F6000 X32.191 Y116.478
G1 F1200 X30.819 Y115.107 E36.0646
G0 F6000 X31.366 Y115.087
G1 F1200 X32.101 Y115.822 E36.09917
G0 F6000 X32.033 Y115.189
G1 F1200 X31.912 Y115.068 E36.10486
G1 F1500 E29.60486
; MESH:bracelet.3mf(11)
G0 F6000 X32.479 Y115.024
G0 X33.645 Y119.533
G0 X34.02 Y120.555
G0 X34.583 Y121.915
G0 X35.565 Y121.455
G0 X36.391 Y123.133
G0 X35.541 Y123.762
G0 X40.516 Y133.249
; TYPE:WALL-INNER
G1 F1500 E36.10486
G1 F1200 X41.999 Y130.875 E36.19796
G1 X41.429 Y130.482 E36.22099
G1 X40.91 Y130.099 E36.24244
G1 X40.404 Y129.703 E36.26381
G1 X39.908 Y129.291 E36.28526
G1 X39.439 Y128.878 E36.30604
G1 X38.962 Y128.429 E36.32783
G1 X38.502 Y127.966 E36.34954
G1 X38.073 Y127.51 E36.37036
G1 X37.637 Y127.017 E36.39225
G1 X37.22 Y126.52 E36.41383
G1 X36.826 Y126.014 E36.43516
G1 X36.443 Y125.495 E36.45661
G1 X36.056 Y124.932 E36.47934
G1 X33.684 Y126.414 E36.57236
G1 X33.723 Y126.474 E36.57474
G1 X34.116 Y127.048 E36.59788
G1 X34.523 Y127.608 E36.6209
G1 X34.928 Y128.133 E36.64296
G1 X35.373 Y128.676 E36.66631
G1 X35.823 Y129.194 E36.68913
G1 X36.258 Y129.669 E36.71055
G1 X36.76 Y130.185 E36.7345
G1 X37.25 Y130.66 E36.75719
G1 X37.755 Y131.124 E36.78
G1 X38.256 Y131.559 E36.80207
G1 X38.786 Y131.993 E36.82486
G1 X39.325 Y132.411 E36.84754
G1 X39.886 Y132.817 E36.87057
G1 X40.516 Y133.249 E36.89598
G0 F6000 X40.64 Y133.805
; TYPE:WALL-OUTER
G1 F1200 X42.547 Y130.753 E37.01568
G1 X42.186 Y130.519 E37.02999
G1 X41.666 Y130.16 E37.051
G1 X41.156 Y129.784 E37.07208
G1 X40.66 Y129.395 E37.09304
G1 X40.178 Y128.995 E37.11388
G1 X39.699 Y128.573 E37.13511
G1 X39.239 Y128.139 E37.15614
G1 X38.794 Y127.692 E37.17712
G1 X38.361 Y127.231 E37.19816
G1 X37.943 Y126.76 E37.2191
G1 X37.536 Y126.274 E37.24019
G1 X37.148 Y125.776 E37.26118
G1 X36.772 Y125.267 E37.28223
G1 X36.413 Y124.748 E37.30322
G1 X36.178 Y124.383 E37.31766
G1 X33.127 Y126.29 E37.43733
G1 X33.387 Y126.692 E37.45325
G1 X33.792 Y127.284 E37.47711
G1 X34.206 Y127.852 E37.50049
G1 X34.598 Y128.361 E37.52185
G1 X35.071 Y128.938 E37.54667
G1 X35.528 Y129.464 E37.56984
G1 X35.997 Y129.973 E37.59286
G1 X36.481 Y130.472 E37.61599
G1 X36.961 Y130.938 E37.63824
G1 X37.493 Y131.426 E37.66225
G1 X37.998 Y131.865 E37.6845
G1 X38.553 Y132.318 E37.70833
G1 X39.107 Y132.747 E37.73164
G1 X39.659 Y133.147 E37.75431
G1 X40.223 Y133.535 E37.77708
G1 X40.64 Y133.805 E37.7936
G0 F6000 X40.557 Y133.43
G0 X40.261 Y132.954
G0 X40.409 Y132.741
; TYPE:SKIN
G1 F1200 X41.509 Y130.978 E37.86272
G1 X41.233 Y130.786 E37.8739
G1 X40.706 Y130.398 E37.89566
G1 X40.192 Y129.995 E37.91739
G1 X39.674 Y129.567 E37.93974
G1 X39.195 Y129.145 E37.96097
G1 X38.716 Y128.694 E37.98285
G1 X38.253 Y128.228 E38.0047
G1 X37.799 Y127.746 E38.02672
G1 X37.374 Y127.266 E38.04805
G1 X36.953 Y126.763 E38.06986
G1 X36.514 Y126.199 E38.09364
G1 X36.159 Y125.718 E38.11352
G1 X35.953 Y125.42 E38.12557
G1 X34.192 Y126.523 E38.19468
G1 X34.404 Y126.829 E38.20706
G1 X34.799 Y127.373 E38.22942
G1 X35.21 Y127.907 E38.25183
G1 X35.646 Y128.439 E38.27471
G1 X36.078 Y128.938 E38.29666
G1 X36.554 Y129.457 E38.32009
G1 X36.998 Y129.913 E38.34126
G1 X37.503 Y130.404 E38.36468
G1 X37.976 Y130.837 E38.38601
G1 X38.489 Y131.283 E38.40862
G1 X39.033 Y131.729 E38.43202
G1 X39.536 Y132.117 E38.45315
G1 X40.082 Y132.514 E38.4756
G1 X40.409 Y132.741 E38.48884
G0 F6000 X39.984 Y132.19
G1 F1200 X34.737 Y126.944 E38.73562
G0 F6000 X34.762 Y126.403
G1 F1200 X40.529 Y132.17 E39.00688
G0 F6000 X40.747 Y131.822
G1 F1200 X35.109 Y126.184 E39.27207
G0 F6000 X35.457 Y125.966
G1 F1200 X40.964 Y131.473 E39.53111
G0 F6000 X41.181 Y131.125
G1 F1200 X40.689 Y130.633 E39.55425
G0 F6000 X40.964 Y130.263
G0 X36.673 Y125.975
G0 X36.304 Y126.248
G1 F1200 X35.804 Y125.748 E39.57777
G1 F1500 E33.07777
; MESH:bracelet.3mf(5)
G0 F6000 X35.559 Y125.361
G0 X36.006 Y125.163
G0 X39.543 Y128.752
G0 X41.153 Y130.05
G0 X42.068 Y130.703
G0 X44.245 Y131.967
G0 X52.343 Y137.19
; TYPE:WALL-INNER
G1 F1500 E39.57777
G1 F1200 X52.443 Y134.393 E39.67085
G1 X51.771 Y134.34 E39.69328
G1 X51.114 Y134.266 E39.71527
G1 X50.477 Y134.176 E39.73666
G1 X49.855 Y134.069 E39.75765
G1 X49.209 Y133.939 E39.77957
G1 X48.584 Y133.79 E39.80094
G1 X47.962 Y133.623 E39.82236
G1 X47.337 Y133.435 E39.84407
G1 X46.735 Y133.232 E39.8652
G1 X46.146 Y133.016 E39.88607
G1 X45.504 Y132.759 E39.90907
G1 X44.942 Y132.511 E39.9295
G1 X44.326 Y132.217 E39.9522
G1 X43.013 Y134.688 E40.04527
G1 X43.702 Y135.021 E40.07072
G1 X44.335 Y135.301 E40.09374
G1 X44.987 Y135.57 E40.1172
G1 X45.605 Y135.801 E40.13914
G1 X46.252 Y136.023 E40.16189
G1 X46.906 Y136.228 E40.18469
G1 X47.564 Y136.414 E40.20743
G1 X48.206 Y136.579 E40.22948
G1 X48.874 Y136.728 E40.25224
G1 X49.544 Y136.858 E40.27494
G1 X50.237 Y136.97 E40.29829
G1 X50.896 Y137.06 E40.32041
G1 X51.585 Y137.133 E40.34346
G1 X52.343 Y137.19 E40.36874
G0 F6000 X51.554 Y137.532
; TYPE:WALL-OUTER
G1 F1200 X52.238 Y137.585 E40.39156
G1 X52.729 Y137.608 E40.40791
G1 X52.857 Y134.012 E40.52759
G1 X52.428 Y133.99 E40.54187
G1 X51.796 Y133.939 E40.56296
G1 X51.17 Y133.87 E40.58391
G1 X50.545 Y133.782 E40.6049
G1 X49.934 Y133.677 E40.62552
G1 X49.301 Y133.549 E40.647
G1 X48.688 Y133.404 E40.66795
G1 X48.077 Y133.24 E40.68899
G1 X47.465 Y133.056 E40.71025
G1 X46.873 Y132.856 E40.73103
G1 X46.294 Y132.644 E40.75154
G1 X45.666 Y132.393 E40.77403
G1 X45.114 Y132.149 E40.79411
G1 X44.542 Y131.879 E40.81515
G1 X44.158 Y131.681 E40.82952
G1 X42.467 Y134.86 E40.94928
G1 X42.905 Y135.083 E40.96562
G1 X43.54 Y135.387 E40.98904
G1 X44.182 Y135.671 E41.01239
G1 X44.819 Y135.934 E41.03531
G1 X45.453 Y136.172 E41.05783
G1 X46.132 Y136.405 E41.08171
G1 X46.796 Y136.613 E41.10485
G1 X47.465 Y136.802 E41.12798
G1 X48.113 Y136.968 E41.15022
G1 X48.792 Y137.12 E41.17337
G1 X49.474 Y137.252 E41.19647
G1 X50.16 Y137.364 E41.21959
G1 X50.87 Y137.459 E41.24341
G1 X51.554 Y137.532 E41.26629
G0 F6000 X51.996 Y136.803
; TYPE:SKIN
G1 F1200 X52.071 Y134.726 E41.33542
G1 X51.736 Y134.698 E41.3466
G1 X51.105 Y134.628 E41.36772
G1 X50.44 Y134.536 E41.39005
G1 X49.801 Y134.426 E41.41161
G1 X49.136 Y134.292 E41.43417
G1 X48.51 Y134.143 E41.45558
G1 X47.878 Y133.973 E41.47734
G1 X47.248 Y133.784 E41.49922
G1 X46.604 Y133.568 E41.52181
G1 X46.026 Y133.355 E41.5423
G1 X45.409 Y133.111 E41.56437
G1 X44.806 Y132.845 E41.58629
G1 X44.483 Y132.692 E41.59818
G1 X43.506 Y134.527 E41.66732
G1 X43.841 Y134.688 E41.67968
G1 X44.457 Y134.96 E41.70208
G1 X45.136 Y135.243 E41.72655
G1 X45.721 Y135.46 E41.7473
G1 X46.377 Y135.687 E41.77039
G1 X46.984 Y135.874 E41.79151
G1 X47.642 Y136.062 E41.81427
G1 X48.284 Y136.225 E41.8363
G1 X48.93 Y136.371 E41.85833
G1 X49.602 Y136.5 E41.88109
G1 X50.275 Y136.612 E41.90378
G1 X50.937 Y136.701 E41.926
G1 X51.604 Y136.772 E41.94831
G1 X51.996 Y136.803 E41.96139
G0 F6000 X51.976 Y137.061
G0 X52.32 Y135.032
G0 X51.86 Y135.016
G1 F1200 X51.741 Y134.896 E41.96701
G0 F6000 X51.106 Y134.828
G1 F1200 X51.84 Y135.562 E42.00153
G0 F6000 X51.82 Y136.107
G1 F1200 X50.452 Y134.739 E42.06588
G0 F6000 X49.77 Y134.623
G1 F1200 X51.724 Y136.577 E42.15779
G0 F6000 X51.095 Y136.514
G1 F1200 X49.061 Y134.479 E42.25349
G0 F6000 X48.312 Y134.296
G1 F1200 X50.447 Y136.432 E42.35393
G0 F6000 X49.774 Y136.324
G1 F1200 X47.526 Y134.075 E42.4597
G0 F6000 X46.693 Y133.808
G1 F1200 X49.079 Y136.195 E42.57195
G0 F6000 X48.352 Y136.033
G1 F1200 X45.799 Y133.48 E42.69204
G0 F6000 X45.97 Y133.054
G0 X45 Y132.647
G0 X44.816 Y133.063
G1 F1200 X47.591 Y135.838 E42.82256
G0 F6000 X46.792 Y135.604
G1 F1200 X44.42 Y133.233 E42.93411
G0 F6000 X44.224 Y133.602
G1 F1200 X45.947 Y135.326 E43.01518
G0 F6000 X45.043 Y134.987
G1 F1200 X44.028 Y133.971 E43.06295
G0 F6000 X43.831 Y134.341
G1 F1200 X44.044 Y134.553 E43.07294
G1 F1500 E36.57294
; MESH:bracelet.3mf(6)
G0 F6000 X43.855 Y134.978
G0 X46.949 Y136.074
G0 X49.573 Y136.7
G0 X51.6 Y136.972
G0 X51.926 Y136.99
G0 X52.535 Y136.962
G0 X55.015 Y136.876
G0 X55.226 Y137.189
; TYPE:WALL-INNER
G1 F1500 E43.07294
G1 F1200 X55.993 Y137.132 E43.09852
G1 X56.681 Y137.059 E43.12153
G1 X57.356 Y136.967 E43.14419
G1 X58.031 Y136.856 E43.16694
G1 X58.701 Y136.726 E43.18964
G1 X59.369 Y136.577 E43.21241
G1 X60.017 Y136.412 E43.23465
G1 X60.693 Y136.223 E43.25799
G1 X61.341 Y136.019 E43.28059
G1 X61.99 Y135.794 E43.30343
G1 X62.622 Y135.553 E43.32593
G1 X63.255 Y135.293 E43.34869
G1 X63.873 Y135.02 E43.37116
G1 X64.56 Y134.687 E43.39656
G1 X63.245 Y132.216 E43.48965
G1 X62.622 Y132.514 E43.51262
G1 X62.032 Y132.773 E43.53406
G1 X61.439 Y133.011 E43.55531
G1 X60.838 Y133.235 E43.57664
G1 X60.229 Y133.439 E43.598
G1 X59.61 Y133.624 E43.61949
G1 X58.992 Y133.791 E43.64078
G1 X58.341 Y133.944 E43.66302
G1 X57.723 Y134.068 E43.68399
G1 X57.102 Y134.175 E43.70495
G1 X56.466 Y134.266 E43.72632
G1 X55.811 Y134.339 E43.74824
G1 X55.128 Y134.393 E43.77102
G1 X55.226 Y137.189 E43.86408
G0 F6000 X54.841 Y137.609
; TYPE:WALL-OUTER
G1 F1200 X55.332 Y137.585 E43.88043
G1 X56.035 Y137.53 E43.90388
G1 X56.688 Y137.461 E43.92572
G1 X57.42 Y137.362 E43.95029
G1 X58.107 Y137.249 E43.97344
G1 X58.788 Y137.116 E43.99652
G1 X59.467 Y136.965 E44.01966
G1 X60.125 Y136.798 E44.04224
G1 X60.813 Y136.605 E44.066
G1 X61.471 Y136.397 E44.08896
G1 X62.132 Y136.168 E44.11222
G1 X62.774 Y135.923 E44.13508
G1 X63.417 Y135.659 E44.1582
G1 X64.045 Y135.381 E44.18104
G1 X64.664 Y135.084 E44.20387
G1 X65.104 Y134.857 E44.22034
G1 X63.413 Y131.681 E44.34002
G1 X63.032 Y131.876 E44.35425
G1 X62.462 Y132.148 E44.37526
G1 X61.883 Y132.401 E44.39627
G1 X61.299 Y132.636 E44.41721
G1 X60.711 Y132.855 E44.43808
G1 X60.106 Y133.057 E44.45929
G1 X59.501 Y133.238 E44.4803
G1 X58.894 Y133.403 E44.50122
G1 X58.262 Y133.552 E44.52282
G1 X57.655 Y133.674 E44.54341
G1 X57.033 Y133.78 E44.56439
G1 X56.408 Y133.869 E44.58539
G1 X55.779 Y133.94 E44.60645
G1 X55.15 Y133.99 E44.62743
G1 X54.714 Y134.012 E44.64195
G1 X54.841 Y137.609 E44.76166
G0 F6000 X55.1 Y137.326
G0 X55.592 Y137.063
G0 X55.574 Y136.803
; TYPE:SKIN
G1 F1200 X55.947 Y136.774 E44.77411
G1 X56.618 Y136.703 E44.79655
G1 X57.279 Y136.615 E44.81873
G1 X57.943 Y136.505 E44.84111
G1 X58.604 Y136.377 E44.86351
G1 X59.285 Y136.227 E44.8867
G1 X59.906 Y136.07 E44.908
G1 X60.585 Y135.88 E44.93146
G1 X61.238 Y135.674 E44.95423
G1 X61.842 Y135.465 E44.97549
G1 X62.467 Y135.227 E44.99773
G1 X63.13 Y134.957 E45.02154
G1 X63.708 Y134.698 E45.04261
G1 X64.067 Y134.526 E45.05585
G1 X63.089 Y132.691 E45.12501
G1 X62.79 Y132.833 E45.13602
G1 X62.175 Y133.105 E45.15838
G1 X61.572 Y133.347 E45.17999
G1 X60.941 Y133.584 E45.20241
G1 X60.341 Y133.783 E45.22344
G1 X59.71 Y133.971 E45.24534
G1 X59.085 Y134.14 E45.26687
G1 X58.427 Y134.296 E45.28936
G1 X57.806 Y134.42 E45.31042
G1 X57.16 Y134.53 E45.33222
G1 X56.509 Y134.623 E45.35409
G1 X55.865 Y134.696 E45.37565
G1 X55.5 Y134.726 E45.38783
G1 X55.513 Y135.09 E45.39994
G1 X55.574 Y136.803 E45.45695
G0 F6000 X56.214 Y136.542
G1 F1200 X55.748 Y136.075 E45.4789
G0 F6000 X55.727 Y135.489
G1 F1200 X56.724 Y136.486 E45.52579
G0 F6000 X57.224 Y136.419
G1 F1200 X55.712 Y134.908 E45.59689
G0 F6000 X56.224 Y134.854
G1 F1200 X57.709 Y136.34 E45.66676
G0 F6000 X58.187 Y136.252
G1 F1200 X56.729 Y134.793 E45.73537
G0 F6000 X57.224 Y134.722
G1 F1200 X58.659 Y136.158 E45.80289
G0 F6000 X59.124 Y136.057
G1 F1200 X57.706 Y134.64 E45.86956
G0 F6000 X58.181 Y134.548
G1 F1200 X59.577 Y135.945 E45.93525
G0 F6000 X60.025 Y135.827
G1 F1200 X58.647 Y134.449 E46.00007
G0 F6000 X59.104 Y134.341
G1 F1200 X60.467 Y135.703 E46.06415
G0 F6000 X60.898 Y135.569
G1 F1200 X59.55 Y134.22 E46.12758
G0 F6000 X59.99 Y134.095
G1 F1200 X61.325 Y135.43 E46.19038
G0 F6000 X61.747 Y135.286
G1 F1200 X60.425 Y133.964 E46.25256
G0 F6000 X60.85 Y133.824
G1 F1200 X62.157 Y135.13 E46.31401
G0 F6000 X62.563 Y134.971
G1 F1200 X61.267 Y133.675 E46.37497
G0 F6000 X61.677 Y133.519
G1 F1200 X62.965 Y134.807 E46.43556
G0 F6000 X63.356 Y134.633
G1 F1200 X62.081 Y133.358 E46.49553
G0 F6000 X62.477 Y133.188
G1 F1200 X63.745 Y134.456 E46.55517
G0 F6000 X63.945 Y134.874
G0 X64.325 Y134.611
G0 X63.631 Y133.154
G0 X63.225 Y133.37
G1 F1200 X62.868 Y133.013 E46.57196
G1 F1500 E40.07196
; MESH:bracelet.3mf(1)
G0 F6000 X63.404 Y132.729
G0 X64.611 Y134.398
G0 X66.733 Y133.074
G0 X67.055 Y133.247
; TYPE:WALL-INNER
G1 F1500 E46.57196
G1 F1200 X67.689 Y132.814 E46.5975
G1 X68.248 Y132.407 E46.6205
G1 X68.777 Y132 E46.6427
G1 X69.303 Y131.569 E46.66532
G1 X69.82 Y131.12 E46.68809
G1 X70.338 Y130.645 E46.71147
G1 X70.828 Y130.168 E46.73421
G1 X71.301 Y129.681 E46.75679
G1 X71.766 Y129.175 E46.77965
G1 X72.213 Y128.658 E46.80238
G1 X72.643 Y128.131 E46.825
G1 X73.064 Y127.588 E46.84785
G1 X73.46 Y127.044 E46.87023
G1 X73.889 Y126.414 E46.89559
G1 X71.516 Y124.931 E46.98866
G1 X71.123 Y125.501 E47.01168
G1 X70.742 Y126.019 E47.03307
G1 X70.345 Y126.524 E47.05444
G1 X69.933 Y127.021 E47.07591
G1 X69.506 Y127.504 E47.09735
G1 X69.078 Y127.959 E47.11813
G1 X68.616 Y128.422 E47.13988
G1 X68.148 Y128.863 E47.16127
G1 X67.658 Y129.296 E47.18302
G1 X67.164 Y129.708 E47.20441
G1 X66.628 Y130.124 E47.22698
G1 X66.137 Y130.486 E47.24727
G1 X65.574 Y130.874 E47.27001
G1 X67.055 Y133.247 E47.36305
G0 F6000 X66.931 Y133.804
; TYPE:WALL-OUTER
G1 F1200 X67.343 Y133.537 E47.37938
G1 X67.925 Y133.138 E47.40285
G1 X68.492 Y132.724 E47.4262
G1 X69.047 Y132.296 E47.44951
G1 X69.561 Y131.875 E47.47161
G1 X70.103 Y131.402 E47.49553
G1 X70.616 Y130.932 E47.51867
G1 X71.115 Y130.447 E47.54182
G1 X71.595 Y129.952 E47.56475
G1 X72.068 Y129.437 E47.58801
G1 X72.523 Y128.911 E47.61114
G1 X72.959 Y128.377 E47.63407
G1 X73.387 Y127.824 E47.65733
G1 X73.79 Y127.271 E47.68009
G1 X74.177 Y126.706 E47.70286
G1 X74.446 Y126.29 E47.71934
G1 X71.394 Y124.383 E47.83904
G1 X71.16 Y124.744 E47.85334
G1 X70.801 Y125.264 E47.87436
G1 X70.427 Y125.772 E47.89534
G1 X70.037 Y126.269 E47.91636
G1 X69.637 Y126.751 E47.93719
G1 X69.214 Y127.23 E47.95844
G1 X68.786 Y127.685 E47.97922
G1 X68.334 Y128.136 E48.00046
G1 X67.874 Y128.569 E48.02147
G1 X67.402 Y128.989 E48.04248
G1 X66.918 Y129.392 E48.06343
G1 X66.39 Y129.802 E48.08566
G1 X65.909 Y130.157 E48.10555
G1 X65.389 Y130.517 E48.12658
G1 X65.025 Y130.751 E48.14098
G1 X66.931 Y133.804 E48.26068
G0 F6000 X67.014 Y133.43
G0 X66.941 Y132.874
G0 X67.162 Y132.738
; TYPE:SKIN
G1 F1200 X67.467 Y132.529 E48.27298
G1 X68.015 Y132.13 E48.29553
G1 X68.55 Y131.718 E48.31798
G1 X69.081 Y131.283 E48.34082
G1 X69.578 Y130.853 E48.36267
G1 X70.075 Y130.399 E48.38506
G1 X70.559 Y129.929 E48.4075
G1 X71.024 Y129.45 E48.42971
G1 X71.481 Y128.954 E48.45214
G1 X71.923 Y128.445 E48.47456
G1 X72.349 Y127.923 E48.49697
G1 X72.76 Y127.392 E48.5193
G1 X73.16 Y126.844 E48.54187
G1 X73.382 Y126.522 E48.55488
G1 X71.619 Y125.421 E48.62401
G1 X71.427 Y125.698 E48.63522
G1 X71.052 Y126.208 E48.65627
G1 X70.63 Y126.749 E48.67909
G1 X70.218 Y127.243 E48.70049
G1 X69.775 Y127.745 E48.72276
G1 X69.339 Y128.208 E48.74391
G1 X68.872 Y128.675 E48.76588
G1 X68.388 Y129.132 E48.78802
G1 X67.911 Y129.555 E48.80922
G1 X67.405 Y129.978 E48.83116
G1 X66.884 Y130.382 E48.85308
G1 X66.362 Y130.769 E48.8747
G1 X66.062 Y130.977 E48.88684
G1 X67.162 Y132.738 E48.9559
G0 F6000 X67.325 Y132.378
G1 F1200 X66.922 Y131.976 E48.97483
G0 F6000 X67.653 Y132.141
G1 F1200 X66.455 Y130.943 E49.03118
G0 F6000 X66.781 Y130.704
G1 F1200 X67.979 Y131.902 E49.08753
G0 F6000 X68.299 Y131.656
G1 F1200 X67.105 Y130.462 E49.14369
G0 F6000 X67.424 Y130.215
G1 F1200 X68.614 Y131.405 E49.19967
G0 F6000 X68.925 Y131.151
G1 F1200 X67.735 Y129.961 E49.25564
G0 F6000 X68.044 Y129.703
G1 F1200 X69.229 Y130.889 E49.3114
G0 F6000 X69.529 Y130.623
G1 F1200 X68.344 Y129.438 E49.36714
G0 F6000 X68.641 Y129.17
G1 F1200 X69.826 Y130.354 E49.42286
G0 F6000 X70.116 Y130.078
G1 F1200 X68.931 Y128.894 E49.47857
G0 F6000 X69.216 Y128.613
G1 F1200 X70.403 Y129.8 E49.5344
G0 F6000 X70.683 Y129.514
G1 F1200 X69.498 Y128.329 E49.59014
G0 F6000 X69.772 Y128.037
G1 F1200 X70.959 Y129.225 E49.646
G0 F6000 X71.23 Y128.93
G1 F1200 X70.043 Y127.743 E49.70183
G0 F6000 X70.307 Y127.441
G1 F1200 X71.496 Y128.63 E49.75776
G0 F6000 X71.759 Y128.327
G1 F1200 X70.567 Y127.135 E49.81383
G0 F6000 X70.823 Y126.825
G1 F1200 X72.013 Y128.016 E49.86983
G0 F6000 X72.266 Y127.703
G1 F1200 X71.07 Y126.507 E49.92608
G0 F6000 X71.314 Y126.186
G1 F1200 X72.513 Y127.384 E49.98246
G0 F6000 X72.753 Y127.059
G1 F1200 X71.552 Y125.858 E50.03895
G0 F6000 X72.411 Y126.151
G1 F1200 X72.99 Y126.73 E50.06618
G1 F1500 E43.56618
; MESH:bracelet.3mf(10)
G0 F6000 X73.363 Y127.005
G0 X73.658 Y126.056
G0 X74.828 Y123.857
G0 X75.33 Y123.917
; TYPE:WALL-INNER
G1 F1500 E50.06618
G1 F1200 X75.663 Y123.228 E50.09163
G1 X75.942 Y122.596 E50.11461
G1 X76.204 Y121.965 E50.13734
G1 X76.442 Y121.326 E50.16001
G1 X76.661 Y120.694 E50.18226
G1 X76.87 Y120.023 E50.20564
G1 X77.051 Y119.383 E50.22776
G1 X77.22 Y118.723 E50.25042
G1 X77.369 Y118.056 E50.27315
G1 X77.499 Y117.386 E50.29585
G1 X77.61 Y116.711 E50.3186
G1 X77.701 Y116.034 E50.34132
G1 X77.774 Y115.345 E50.36437
G1 X77.83 Y114.586 E50.38968
G1 X75.035 Y114.487 E50.4827
G1 X74.979 Y115.177 E50.50572
G1 X74.908 Y115.815 E50.52707
G1 X74.818 Y116.454 E50.54854
G1 X74.71 Y117.075 E50.5695
G1 X74.58 Y117.721 E50.59142
G1 X74.434 Y118.34 E50.61257
G1 X74.265 Y118.968 E50.6342
G1 X74.077 Y119.593 E50.65591
G1 X73.872 Y120.202 E50.67728
G1 X73.658 Y120.784 E50.69791
G1 X73.399 Y121.427 E50.72096
G1 X73.152 Y121.989 E50.74138
G1 X72.859 Y122.603 E50.76401
G1 X72.894 Y122.622 E50.76533
G1 X75.33 Y123.917 E50.85709
G0 F6000 X75.502 Y124.462
; TYPE:WALL-OUTER
G1 F1200 X75.725 Y124.025 E50.87341
G1 X76.029 Y123.39 E50.89683
G1 X76.312 Y122.749 E50.92013
G1 X76.576 Y122.111 E50.9431
G1 X76.82 Y121.457 E50.96631
G1 X77.041 Y120.82 E50.98874
G1 X77.249 Y120.156 E51.01188
G1 X77.442 Y119.467 E51.03568
G1 X77.609 Y118.816 E51.05803
G1 X77.761 Y118.138 E51.08114
G1 X77.893 Y117.456 E51.10425
G1 X78.006 Y116.77 E51.12737
G1 X78.1 Y116.061 E51.15116
G1 X78.173 Y115.376 E51.17407
G1 X78.226 Y114.692 E51.19689
G1 X78.25 Y114.2 E51.21327
G1 X74.654 Y114.073 E51.33295
G1 X74.632 Y114.502 E51.34724
G1 X74.581 Y115.133 E51.36829
G1 X74.512 Y115.759 E51.38924
G1 X74.424 Y116.386 E51.4103
G1 X74.318 Y116.996 E51.43089
G1 X74.19 Y117.629 E51.45237
G1 X74.045 Y118.242 E51.47332
G1 X73.881 Y118.853 E51.49436
G1 X73.699 Y119.462 E51.5155
G1 X73.496 Y120.064 E51.53663
G1 X73.286 Y120.635 E51.55687
G1 X73.033 Y121.266 E51.57948
G1 X72.791 Y121.817 E51.5995
G1 X72.52 Y122.386 E51.62046
G1 X72.323 Y122.772 E51.63487
G1 X72.706 Y122.975 E51.64929
G1 X75.502 Y124.462 E51.75462
G0 F6000 X75.386 Y124.096
G0 X75.048 Y123.652
G0 X75.169 Y123.423
; TYPE:SKIN
G1 F1200 X75.328 Y123.092 E51.76683
G1 X75.602 Y122.472 E51.78938
G1 X75.883 Y121.795 E51.81376
G1 X76.105 Y121.196 E51.835
G1 X76.325 Y120.567 E51.85717
G1 X76.516 Y119.947 E51.87875
G1 X76.705 Y119.277 E51.9019
G1 X76.863 Y118.658 E51.92315
G1 X77.016 Y117.982 E51.9462
G1 X77.14 Y117.34 E51.96795
G1 X77.254 Y116.656 E51.99101
G1 X77.342 Y115.994 E52.01322
G1 X77.415 Y115.315 E52.03594
G1 X77.444 Y114.934 E52.04865
G1 X75.368 Y114.86 E52.11774
G1 X75.34 Y115.192 E52.12882
G1 X75.271 Y115.821 E52.14987
G1 X75.177 Y116.492 E52.1724
G1 X75.067 Y117.127 E52.19384
G1 X74.933 Y117.796 E52.21653
G1 X74.785 Y118.427 E52.23809
G1 X74.616 Y119.06 E52.25988
G1 X74.418 Y119.707 E52.28238
G1 X74.217 Y120.306 E52.3034
G1 X74 Y120.898 E52.32437
G1 X73.75 Y121.52 E52.34666
G1 X73.487 Y122.123 E52.36854
G1 X73.333 Y122.447 E52.38047
G1 X75.169 Y123.423 E52.44963
G0 F6000 X75.048 Y123.652
G0 X73.085 Y122.53
G0 X73.22 Y122.082
G0 X73.631 Y122.279
G1 F1200 X73.839 Y122.488 E52.45944
G0 F6000 X73.805 Y121.888
G1 F1200 X75.045 Y123.129 E52.51779
G0 F6000 X75.25 Y122.767
G1 F1200 X73.976 Y121.494 E52.57769
G0 F6000 X74.138 Y121.089
G1 F1200 X75.424 Y122.376 E52.6382
G0 F6000 X75.591 Y121.977
G1 F1200 X74.292 Y120.678 E52.6993
G0 F6000 X74.442 Y120.262
G1 F1200 X75.752 Y121.572 E52.76092
G0 F6000 X75.905 Y121.16
G1 F1200 X74.584 Y119.839 E52.82306
G0 F6000 X74.719 Y119.408
G1 F1200 X76.052 Y120.741 E52.88576
G0 F6000 X76.192 Y120.316
G1 F1200 X74.847 Y118.97 E52.94905
G0 F6000 X74.965 Y118.523
G1 F1200 X76.325 Y119.883 E53.01302
G0 F6000 X76.451 Y119.443
G1 F1200 X75.074 Y118.066 E53.07779
G0 F6000 X75.175 Y117.601
G1 F1200 X76.57 Y118.996 E53.1434
G0 F6000 X76.683 Y118.544
G1 F1200 X75.269 Y117.13 E53.20991
G0 F6000 X75.352 Y116.647
G1 F1200 X76.788 Y118.083 E53.27746
G0 F6000 X76.883 Y117.613
G1 F1200 X75.425 Y116.155 E53.34604
G0 F6000 X75.489 Y115.652
G1 F1200 X76.971 Y117.135 E53.41577
G0 F6000 X77.052 Y116.649
G1 F1200 X75.543 Y115.141 E53.48673
G0 F6000 X76.052 Y115.084
G1 F1200 X77.119 Y116.152 E53.53694
G0 F6000 X77.176 Y115.643
G1 F1200 X76.639 Y115.105 E53.56222
G1 F1500 E47.06222
; MESH:bracelet.3mf(4)
G0 F6000 X76.655 Y114.645
G0 X75.017 Y114.305
G0 X74.937 Y112.004
G0 X75.035 Y111.802
; TYPE:WALL-INNER
G1 F1500 E53.56222
G1 F1200 X77.83 Y111.702 E53.65524
G1 X77.773 Y110.937 E53.68076
G1 X77.702 Y110.267 E53.70317
G1 X77.609 Y109.567 E53.72665
G1 X77.497 Y108.902 E53.74908
G1 X77.367 Y108.229 E53.77188
G1 X77.217 Y107.561 E53.79465
G1 X77.053 Y106.914 E53.81685
G1 X76.865 Y106.236 E53.84025
G1 X76.661 Y105.59 E53.86278
G1 X76.436 Y104.942 E53.8856
G1 X76.194 Y104.305 E53.90826
G1 X75.935 Y103.675 E53.93092
G1 X75.661 Y103.056 E53.95343
G1 X75.329 Y102.37 E53.97878
G1 X72.859 Y103.685 E54.07185
G1 X73.157 Y104.308 E54.09482
G1 X73.413 Y104.896 E54.11615
G1 X73.653 Y105.49 E54.13746
G1 X73.869 Y106.072 E54.15811
G1 X74.083 Y106.714 E54.18061
G1 X74.267 Y107.324 E54.20181
G1 X74.434 Y107.947 E54.22326
G1 X74.585 Y108.589 E54.24519
G1 X74.709 Y109.204 E54.26606
G1 X74.817 Y109.824 E54.28699
G1 X74.908 Y110.466 E54.30856
G1 X74.981 Y111.118 E54.33038
G1 X75.035 Y111.802 E54.3532
G0 F6000 X74.654 Y112.216
; TYPE:WALL-OUTER
G1 F1200 X78.25 Y112.088 E54.47288
G1 X78.226 Y111.598 E54.4892
G1 X78.171 Y110.895 E54.51265
G1 X78.096 Y110.199 E54.53593
G1 X78.008 Y109.53 E54.55838
G1 X77.895 Y108.849 E54.58134
G1 X77.757 Y108.142 E54.6053
G1 X77.605 Y107.463 E54.62844
G1 X77.439 Y106.807 E54.65094
G1 X77.247 Y106.116 E54.6748
G1 X77.039 Y105.46 E54.69769
G1 X76.81 Y104.8 E54.72092
G1 X76.564 Y104.153 E54.74394
G1 X76.301 Y103.513 E54.76696
G1 X76.022 Y102.884 E54.78984
G1 X75.726 Y102.266 E54.81264
G1 X75.499 Y101.826 E54.8291
G1 X72.323 Y103.517 E54.94878
G1 X72.517 Y103.896 E54.96294
G1 X72.79 Y104.468 E54.98402
G1 X73.042 Y105.046 E55.00499
G1 X73.278 Y105.63 E55.02594
G1 X73.497 Y106.216 E55.04675
G1 X73.7 Y106.827 E55.06816
G1 X73.881 Y107.428 E55.08904
G1 X74.044 Y108.039 E55.11007
G1 X74.193 Y108.668 E55.13157
G1 X74.315 Y109.273 E55.1521
G1 X74.422 Y109.894 E55.17306
G1 X74.515 Y110.557 E55.19532
G1 X74.582 Y111.15 E55.21517
G1 X74.632 Y111.78 E55.23619
G1 X74.654 Y112.216 E55.25071
G0 F6000 X74.91 Y111.935
G0 X75.108 Y111.451
G0 X75.367 Y111.43
; TYPE:SKIN
G1 F1200 X77.444 Y111.353 E55.31984
G1 X77.415 Y110.976 E55.33242
G1 X77.345 Y110.314 E55.35456
G1 X77.256 Y109.645 E55.377
G1 X77.146 Y108.988 E55.39916
G1 X77.017 Y108.325 E55.42163
G1 X76.87 Y107.666 E55.44408
G1 X76.71 Y107.02 E55.46622
G1 X76.519 Y106.343 E55.48961
G1 X76.335 Y105.751 E55.51023
G1 X76.106 Y105.089 E55.53353
G1 X75.861 Y104.443 E55.55651
G1 X75.599 Y103.8 E55.5796
G1 X75.339 Y103.221 E55.60071
G1 X75.168 Y102.864 E55.61388
G1 X73.333 Y103.841 E55.68302
G1 X73.476 Y104.14 E55.69405
G1 X73.746 Y104.755 E55.71639
G1 X73.99 Y105.365 E55.73824
G1 X74.21 Y105.952 E55.75909
G1 X74.426 Y106.6 E55.78181
G1 X74.608 Y107.202 E55.80272
G1 X74.78 Y107.842 E55.82477
G1 X74.936 Y108.503 E55.84736
G1 X75.067 Y109.139 E55.86895
G1 X75.171 Y109.765 E55.89006
G1 X75.264 Y110.416 E55.91193
G1 X75.34 Y111.088 E55.93442
G1 X75.367 Y111.43 E55.94584
G0 F6000 X76.127 Y111.2
G1 F1200 X75.479 Y110.551 E55.97634
G0 F6000 X75.392 Y109.899
G1 F1200 X76.673 Y111.18 E56.03659
G0 F6000 X77.218 Y111.16
G1 F1200 X75.282 Y109.223 E56.12768
G0 F6000 X75.142 Y108.518
G1 F1200 X77.167 Y110.543 E56.22293
G0 F6000 X77.088 Y109.898
G1 F1200 X74.971 Y107.781 E56.32251
G0 F6000 X74.757 Y107.001
G1 F1200 X76.984 Y109.228 E56.42726
G0 F6000 X76.855 Y108.533
G1 F1200 X74.495 Y106.173 E56.53827
G0 F6000 X74.174 Y105.286
G1 F1200 X76.698 Y107.811 E56.65701
G0 F6000 X76.513 Y107.06
G1 F1200 X73.77 Y104.317 E56.78603
G0 F6000 X73.824 Y103.806
G1 F1200 X76.285 Y106.266 E56.90177
G0 F6000 X76.011 Y105.427
G1 F1200 X74.193 Y103.609 E56.98728
G0 F6000 X74.562 Y103.412
G1 F1200 X75.683 Y104.533 E57.04001
G0 F6000 X76.114 Y104.378
G0 X75.687 Y103.363
G0 X75.265 Y103.549
G1 F1200 X74.932 Y103.216 E57.05567
G1 F1500 E50.55567
; MESH:bracelet.3mf(7)
G0 F6000 X74.719 Y102.808
G0 X72.902 Y103.433
G0 X71.686 Y101.487
G0 X71.515 Y101.356
; TYPE:WALL-INNER
G1 F1500 E57.05567
G1 F1200 X73.888 Y99.874 E57.14873
G1 X73.456 Y99.239 E57.17427
G1 X73.048 Y98.682 E57.19723
G1 X72.629 Y98.139 E57.22005
G1 X72.197 Y97.611 E57.24274
G1 X71.75 Y97.095 E57.26544
G1 X71.286 Y96.594 E57.28815
G1 X70.808 Y96.102 E57.31097
G1 X70.335 Y95.64 E57.33296
G1 X69.816 Y95.164 E57.35638
G1 X69.315 Y94.729 E57.37845
G1 X68.771 Y94.285 E57.40181
G1 X68.246 Y93.877 E57.42392
G1 X67.685 Y93.47 E57.44697
G1 X67.056 Y93.04 E57.47232
G1 X65.573 Y95.414 E57.56542
G1 X66.144 Y95.806 E57.58845
G1 X66.66 Y96.187 E57.60979
G1 X67.168 Y96.585 E57.63125
G1 X67.663 Y96.996 E57.65265
G1 X68.141 Y97.417 E57.67383
G1 X68.615 Y97.865 E57.69553
G1 X69.057 Y98.311 E57.71641
G1 X69.502 Y98.781 E57.73794
G1 X69.934 Y99.271 E57.75967
G1 X70.35 Y99.766 E57.78117
G1 X70.738 Y100.263 E57.80214
G1 X71.128 Y100.793 E57.82403
G1 X71.515 Y101.356 E57.84675
G0 F6000 X71.393 Y101.905
; TYPE:WALL-OUTER
G1 F1200 X74.445 Y99.998 E57.96645
G1 X74.179 Y99.587 E57.98273
G1 X73.78 Y99.003 E58.00626
G1 X73.365 Y98.438 E58.02957
G1 X72.939 Y97.886 E58.05276
G1 X72.516 Y97.368 E58.07501
G1 X72.044 Y96.825 E58.09894
G1 X71.574 Y96.316 E58.12198
G1 X71.106 Y95.833 E58.14435
G1 X70.61 Y95.35 E58.16737
G1 X70.078 Y94.862 E58.19139
G1 X69.573 Y94.423 E58.21364
G1 X69.017 Y93.969 E58.23752
G1 X68.465 Y93.542 E58.26073
G1 X67.913 Y93.141 E58.28342
G1 X67.347 Y92.752 E58.30626
G1 X66.931 Y92.484 E58.32272
G1 X65.025 Y95.536 E58.4424
G1 X65.385 Y95.77 E58.45668
G1 X65.906 Y96.128 E58.47771
G1 X66.414 Y96.503 E58.49871
G1 X66.912 Y96.893 E58.51975
G1 X67.393 Y97.292 E58.54053
G1 X67.872 Y97.715 E58.56179
G1 X68.331 Y98.147 E58.58275
G1 X68.777 Y98.597 E58.60382
G1 X69.209 Y99.056 E58.62479
G1 X69.628 Y99.528 E58.64578
G1 X70.034 Y100.012 E58.66679
G1 X70.444 Y100.54 E58.68903
G1 X70.799 Y101.021 E58.70891
G1 X71.158 Y101.54 E58.7299
G1 X71.393 Y101.905 E58.74434
G0 F6000 X71.475 Y101.535
G0 X71.757 Y101.088
G0 X71.619 Y100.869
; TYPE:SKIN
G1 F1200 X73.381 Y99.766 E58.81348
G1 X73.17 Y99.459 E58.82587
G1 X72.772 Y98.917 E58.84823
G1 X72.344 Y98.362 E58.87154
G1 X71.936 Y97.861 E58.89303
G1 X71.506 Y97.364 E58.91489
G1 X71.056 Y96.877 E58.93695
G1 X70.568 Y96.372 E58.9603
G1 X70.1 Y95.914 E58.98208
G1 X69.595 Y95.449 E59.00491
G1 X69.082 Y95.004 E59.0275
G1 X68.564 Y94.58 E59.04977
G1 X68.034 Y94.169 E59.07207
G1 X67.485 Y93.77 E59.09465
G1 X67.164 Y93.547 E59.10765
G1 X66.061 Y95.31 E59.17681
G1 X66.339 Y95.501 E59.18803
G1 X66.845 Y95.874 E59.20894
G1 X67.383 Y96.294 E59.23164
G1 X67.895 Y96.718 E59.25375
G1 X68.384 Y97.151 E59.27548
G1 X68.862 Y97.598 E59.29724
G1 X69.317 Y98.059 E59.31879
G1 X69.77 Y98.54 E59.34076
G1 X70.198 Y99.022 E59.3622
G1 X70.619 Y99.523 E59.38397
G1 X71.058 Y100.091 E59.40784
G1 X71.408 Y100.563 E59.42739
G1 X71.619 Y100.869 E59.43975
G0 F6000 X71.757 Y101.088
G0 X73.646 Y99.821
G0 X73.424 Y99.369
G0 X73.042 Y99.629
G1 F1200 X67.295 Y93.882 E59.71007
G0 F6000 X67.012 Y94.165
G1 F1200 X72.762 Y99.915 E59.98053
G0 F6000 X72.414 Y100.133
G1 F1200 X66.794 Y94.513 E60.24488
G0 F6000 X66.576 Y94.861
G1 F1200 X72.066 Y100.351 E60.50311
G0 F6000 X71.719 Y100.568
G1 F1200 X71.5 Y100.35 E60.51339
G0 F6000 X71.128 Y100.623
G0 X66.317 Y95.809
G0 X66.591 Y95.441
G1 F1200 X66.359 Y95.209 E60.5243
G1 F1500 E54.0243
; MESH:bracelet.3mf(2)
G0 F6000 X65.97 Y94.966
G0 X65.503 Y95.184
G0 X63.46 Y94.097
G0 X63.245 Y94.07
; TYPE:WALL-INNER
G1 F1500 E60.5243
G1 F1200 X64.559 Y91.599 E60.61739
G1 X63.869 Y91.267 E60.64286
G1 X63.237 Y90.987 E60.66585
G1 X62.606 Y90.726 E60.68856
G1 X61.968 Y90.488 E60.71121
G1 X61.317 Y90.264 E60.73411
G1 X60.666 Y90.06 E60.7568
G1 X60.025 Y89.878 E60.77896
G1 X59.365 Y89.71 E60.80161
G1 X58.677 Y89.556 E60.82506
G1 X58.027 Y89.43 E60.84708
G1 X57.334 Y89.318 E60.87043
G1 X56.675 Y89.228 E60.89255
G1 X55.986 Y89.155 E60.9156
G1 X55.227 Y89.098 E60.94091
G1 X55.128 Y91.896 E61.03403
G1 X55.82 Y91.951 E61.05712
G1 X56.457 Y92.022 E61.07844
G1 X57.095 Y92.112 E61.09987
G1 X57.712 Y92.217 E61.12068
G1 X58.357 Y92.348 E61.14257
G1 X58.981 Y92.495 E61.1639
G1 X59.609 Y92.665 E61.18554
G1 X60.224 Y92.848 E61.20688
G1 X60.836 Y93.056 E61.22838
G1 X61.413 Y93.266 E61.2488
G1 X62.029 Y93.513 E61.27087
G1 X62.63 Y93.777 E61.29271
G1 X63.245 Y94.07 E61.31536
G0 F6000 X63.413 Y94.606
; TYPE:WALL-OUTER
G1 F1200 X65.104 Y91.428 E61.4351
G1 X64.666 Y91.205 E61.45144
G1 X64.031 Y90.901 E61.47486
G1 X63.409 Y90.625 E61.49749
G1 X62.724 Y90.343 E61.52213
G1 X62.099 Y90.11 E61.54432
G1 X61.437 Y89.882 E61.5676
G1 X60.798 Y89.681 E61.58988
G1 X60.106 Y89.486 E61.6138
G1 X59.458 Y89.321 E61.63604
G1 X58.78 Y89.168 E61.65915
G1 X58.097 Y89.036 E61.68229
G1 X57.411 Y88.924 E61.70541
G1 X56.701 Y88.829 E61.72923
G1 X56.017 Y88.756 E61.75211
G1 X55.333 Y88.703 E61.77493
G1 X54.841 Y88.68 E61.79131
G1 X54.714 Y92.276 E61.91099
G1 X55.144 Y92.298 E61.92531
G1 X55.776 Y92.349 E61.9464
G1 X56.401 Y92.418 E61.96731
G1 X57.027 Y92.506 E61.98834
G1 X57.637 Y92.611 E62.00893
G1 X58.264 Y92.739 E62.03021
G1 X58.885 Y92.884 E62.05142
G1 X59.495 Y93.049 E62.07244
G1 X60.108 Y93.232 E62.09372
G1 X60.698 Y93.432 E62.11444
G1 X61.277 Y93.644 E62.13494
G1 X61.908 Y93.897 E62.15756
G1 X62.458 Y94.139 E62.17754
G1 X63.029 Y94.409 E62.19855
G1 X63.413 Y94.606 E62.2129
G0 F6000 X63.302 Y94.245
G0 X62.975 Y93.83
G0 X63.089 Y93.595
; TYPE:SKIN
G1 F1200 X64.064 Y91.761 E62.28199
G1 X63.733 Y91.603 E62.29419
G1 X63.084 Y91.313 E62.31783
G1 X62.465 Y91.059 E62.34008
G1 X61.863 Y90.834 E62.36146
G1 X61.214 Y90.609 E62.3843
G1 X60.587 Y90.414 E62.40614
G1 X59.934 Y90.229 E62.42872
G1 X59.297 Y90.066 E62.45059
G1 X58.642 Y89.917 E62.47293
G1 X57.969 Y89.788 E62.49572
G1 X57.3 Y89.677 E62.51828
G1 X56.634 Y89.587 E62.54063
G1 X55.967 Y89.516 E62.56294
G1 X55.574 Y89.484 E62.57605
G1 X55.5 Y91.563 E62.64524
G1 X55.836 Y91.591 E62.65646
G1 X56.464 Y91.66 E62.67747
G1 X57.15 Y91.754 E62.7005
G1 X57.794 Y91.866 E62.72224
G1 X58.443 Y91.998 E62.74427
G1 X59.06 Y92.142 E62.76534
G1 X59.696 Y92.313 E62.78725
G1 X60.344 Y92.508 E62.80976
G1 X60.943 Y92.712 E62.8308
G1 X61.541 Y92.931 E62.85198
G1 X62.176 Y93.186 E62.87474
G1 X62.789 Y93.452 E62.89697
G1 X63.089 Y93.595 E62.90802
G0 F6000 X62.975 Y93.83
G0 X64.121 Y92.209
G0 X63.711 Y91.996
G1 F1200 X63.383 Y91.667 E62.92347
G0 F6000 X63.515 Y92.365
G1 F1200 X62.396 Y91.246 E62.97611
G0 F6000 X61.506 Y90.922
G1 F1200 X63.319 Y92.734 E63.06136
G0 F6000 X63.122 Y93.104
G1 F1200 X60.666 Y90.647 E63.17691
G0 F6000 X59.874 Y90.421
G1 F1200 X62.611 Y93.158 E63.30565
G0 F6000 X62.426 Y93.578
G0 X61.465 Y93.178
G0 X61.641 Y92.754
G1 F1200 X59.117 Y90.23 E63.42437
G0 F6000 X58.394 Y90.072
G1 F1200 X60.758 Y92.437 E63.53559
G0 F6000 X59.928 Y92.172
G1 F1200 X57.702 Y89.946 E63.64029
G0 F6000 X57.033 Y89.842
G1 F1200 X59.146 Y91.956 E63.7397
G0 F6000 X58.409 Y91.784
G1 F1200 X56.388 Y89.763 E63.83477
G0 F6000 X55.765 Y89.707
G1 F1200 X57.705 Y91.646 E63.92599
G0 F6000 X57.026 Y91.533
G1 F1200 X55.746 Y90.253 E63.9862
G0 F6000 X55.727 Y90.799
M104 S200
G1 F1200 X56.376 Y91.449 E64.01675
G1 F1500 E57.51675
; MESH:NONMESH
; ::: End layer 0 postamble :::
; ====== End layer 0 ====
; ==== Start layer 1 ====
; ::: Layer 1 postamble :::
G0 F300 X56.376 Y91.449 Z0.4
G0 F6000 X56.323 Y91.906
G0 X54.936 Y92.075
G0 X52.636 Y92.074
G0 X44.326 Y94.071
; TIME_ELAPSED:132.873644
; LAYER:1
M106 S85
; TYPE:WALL-INNER
; MESH:bracelet.3mf(9)
G1 F1500 E64.01675
G1 F1350 X44.937 Y93.78 E64.03926
G1 X45.526 Y93.522 E64.06065
G1 X46.123 Y93.281 E64.08206
G1 X46.719 Y93.062 E64.10318
G1 X47.338 Y92.852 E64.12492
G1 X47.955 Y92.666 E64.14636
G1 X48.577 Y92.499 E64.16778
G1 X49.2 Y92.352 E64.18907
G1 X49.835 Y92.223 E64.21062
G1 X50.469 Y92.114 E64.23201
G1 X51.107 Y92.022 E64.25345
G1 X51.747 Y91.952 E64.27487
G1 X52.444 Y91.897 E64.29812
G1 X52.344 Y89.099 E64.39124
G1 X51.571 Y89.156 E64.41702
G1 X50.905 Y89.227 E64.4393
G1 X50.23 Y89.319 E64.46196
G1 X49.553 Y89.43 E64.48477
G1 X48.882 Y89.56 E64.50751
G1 X48.217 Y89.709 E64.53017
G1 X47.564 Y89.873 E64.55257
G1 X46.874 Y90.067 E64.57641
G1 X46.246 Y90.265 E64.59831
G1 X45.597 Y90.489 E64.62114
G1 X44.962 Y90.73 E64.64373
G1 X44.364 Y90.974 E64.66521
G1 X43.712 Y91.263 E64.68893
G1 X43.011 Y91.601 E64.71482
G1 X44.326 Y94.071 E64.80789
G0 F7500 X44.158 Y94.607
; TYPE:WALL-OUTER
G1 F1350 X44.528 Y94.417 E64.82172
G1 X45.098 Y94.146 E64.84271
G1 X45.676 Y93.893 E64.8637
G1 X46.261 Y93.657 E64.88468
G1 X46.848 Y93.441 E64.90548
G1 X47.454 Y93.235 E64.92677
G1 X48.059 Y93.052 E64.9478
G1 X48.669 Y92.889 E64.9688
G1 X49.298 Y92.741 E64.99029
G1 X49.903 Y92.617 E65.01083
G1 X50.52 Y92.51 E65.03166
G1 X51.151 Y92.42 E65.05286
G1 X51.78 Y92.35 E65.07391
G1 X52.409 Y92.299 E65.09489
G1 X52.858 Y92.277 E65.10985
G1 X52.73 Y88.679 E65.22959
G1 X52.253 Y88.702 E65.24548
G1 X51.529 Y88.758 E65.26963
G1 X50.852 Y88.831 E65.29228
G1 X50.166 Y88.924 E65.3153
G1 X49.477 Y89.037 E65.33852
G1 X48.82 Y89.164 E65.36078
G1 X48.121 Y89.321 E65.38461
G1 X47.456 Y89.487 E65.4074
G1 X46.754 Y89.685 E65.43166
G1 X46.116 Y89.887 E65.45392
G1 X45.455 Y90.115 E65.47718
G1 X44.811 Y90.36 E65.5001
G1 X44.165 Y90.624 E65.52331
G1 X43.54 Y90.902 E65.54606
G1 X42.92 Y91.198 E65.56891
G1 X42.467 Y91.431 E65.58585
G1 X44.158 Y94.607 E65.70553
G0 F7500 X44.269 Y94.245
G0 X44.592 Y93.832
G0 X44.482 Y93.597
; TYPE:SKIN
G1 F1350 X44.771 Y93.459 E65.71618
G1 X45.366 Y93.199 E65.73777
G1 X45.975 Y92.953 E65.75962
G1 X46.583 Y92.728 E65.78118
G1 X47.223 Y92.509 E65.80368
G1 X47.838 Y92.323 E65.82505
G1 X48.471 Y92.153 E65.84685
G1 X49.143 Y91.993 E65.86983
G1 X49.773 Y91.865 E65.89121
G1 X50.398 Y91.759 E65.91229
G1 X51.044 Y91.668 E65.93399
G1 X51.695 Y91.594 E65.95578
G1 X52.072 Y91.564 E65.96836
G1 X51.996 Y89.485 E66.03755
G1 X51.616 Y89.513 E66.05023
G1 X50.968 Y89.582 E66.0719
G1 X50.307 Y89.671 E66.09409
G1 X49.653 Y89.778 E66.11613
G1 X48.991 Y89.905 E66.13855
G1 X48.317 Y90.056 E66.16152
G1 X47.679 Y90.215 E66.18339
G1 X46.409 Y90.591 E66.22744
G1 X45.743 Y90.82 E66.25087
G1 X45.116 Y91.057 E66.27316
G1 X44.525 Y91.299 E66.2944
G1 X43.874 Y91.585 E66.31805
G1 X43.505 Y91.762 E66.33166
G1 X44.482 Y93.597 E66.40081
G0 F7500 X44.592 Y93.832
G0 X43.417 Y92.152
G0 X43.827 Y91.937
G1 F1350 X44.031 Y91.732 E66.41042
G0 F7500 X44.023 Y92.307
G1 F1350 X45.019 Y91.31 E66.4573
G0 F7500 X45.931 Y90.964
G1 F1350 X44.219 Y92.676 E66.53782
G0 F7500 X44.416 Y93.045
G1 F1350 X46.772 Y90.688 E66.64867
G0 F7500 X47.575 Y90.451
G1 F1350 X44.793 Y93.234 E66.77955
G0 F7500 X44.826 Y93.721
G0 X46.16 Y93.16
G0 X45.775 Y92.816
G1 F1350 X48.336 Y90.256 E66.89999
G0 F7500 X49.065 Y90.093
G1 F1350 X46.673 Y92.484 E67.01247
G0 F7500 X47.512 Y92.211
G1 F1350 X49.761 Y89.962 E67.11826
G0 F7500 X50.435 Y89.854
G1 F1350 X48.298 Y91.991 E67.21878
G0 F7500 X49.045 Y91.81
G1 F1350 X51.084 Y89.77 E67.31471
G0 F7500 X51.713 Y89.707
G1 F1350 X49.756 Y91.664 E67.40676
G0 F7500 X50.435 Y91.551
G1 F1350 X51.82 Y90.166 E67.47191
G0 F7500 X51.84 Y90.712
G1 F1350 X51.092 Y91.46 E67.50709
G0 F7500 X51.724 Y91.394
G1 F1350 X51.859 Y91.258 E67.51346
G1 F1500 E61.01346
; MESH:bracelet.3mf
G0 F7500 X52.322 Y91.243
G0 X52.266 Y91.737
G0 X51.747 Y91.79
G0 X47.384 Y93.028
G0 X47.723 Y94.059
G0 X40.289 Y98.349
G0 X36.055 Y101.357
; TYPE:WALL-INNER
G1 F1500 E67.51346
G1 F1350 X36.441 Y100.798 E67.53606
G1 X36.821 Y100.279 E67.55745
G1 X37.23 Y99.758 E67.57948
G1 X37.63 Y99.277 E67.60029
G1 X38.056 Y98.795 E67.62169
G1 X38.498 Y98.325 E67.64314
G1 X38.953 Y97.871 E67.66452
G1 X39.436 Y97.414 E67.68664
G1 X39.905 Y96.999 E67.70747
G1 X40.398 Y96.589 E67.72879
G1 X40.906 Y96.191 E67.75026
G1 X41.425 Y95.81 E67.77167
G1 X41.999 Y95.415 E67.79485
G1 X40.516 Y93.041 E67.88795
G1 X39.892 Y93.466 E67.91306
G1 X39.336 Y93.872 E67.93596
G1 X38.789 Y94.293 E67.95891
G1 X38.265 Y94.722 E67.98144
G1 X37.748 Y95.172 E68.00424
G1 X37.242 Y95.634 E68.02702
G1 X36.755 Y96.11 E68.04967
G1 X36.278 Y96.599 E68.0724
G1 X35.815 Y97.103 E68.09516
G1 X35.38 Y97.603 E68.1172
G1 X34.937 Y98.146 E68.14051
G1 X34.515 Y98.688 E68.16336
G1 X34.12 Y99.231 E68.18569
G1 X33.683 Y99.875 E68.21157
G1 X36.055 Y101.357 E68.3046
G0 F7500 X36.177 Y101.905
; TYPE:WALL-OUTER
G1 F1350 X36.404 Y101.555 E68.31848
G1 X36.763 Y101.034 E68.33952
G1 X37.136 Y100.526 E68.36048
G1 X37.538 Y100.014 E68.38213
G1 X37.93 Y99.542 E68.40254
G1 X38.348 Y99.069 E68.42353
G1 X38.78 Y98.608 E68.44455
G1 X39.228 Y98.161 E68.4656
G1 X39.701 Y97.714 E68.48724
G1 X40.161 Y97.307 E68.50767
G1 X40.645 Y96.904 E68.52862
G1 X41.143 Y96.513 E68.54968
G1 X41.653 Y96.139 E68.57071
G1 X42.172 Y95.779 E68.59172
G1 X42.547 Y95.537 E68.60656
G1 X40.64 Y92.484 E68.72629
G1 X40.239 Y92.744 E68.74218
G1 X39.656 Y93.142 E68.76566
G1 X39.092 Y93.555 E68.78891
G1 X38.535 Y93.983 E68.81228
G1 X38.003 Y94.42 E68.83517
G1 X37.478 Y94.876 E68.8583
G1 X36.963 Y95.348 E68.88154
G1 X36.469 Y95.83 E68.90449
G1 X35.984 Y96.328 E68.92761
G1 X35.513 Y96.841 E68.95078
G1 X35.057 Y97.366 E68.97391
G1 X34.621 Y97.9 E68.99684
G1 X34.179 Y98.47 E69.02083
G1 X33.79 Y99.005 E69.04283
G1 X33.403 Y99.571 E69.06563
G1 X33.125 Y99.999 E69.08261
G1 X36.177 Y101.905 E69.20228
G0 F7500 X36.096 Y101.535
G0 X36.167 Y101.016
G0 X35.953 Y100.868
; TYPE:SKIN
G1 F1350 X36.137 Y100.602 E69.21304
G1 X36.521 Y100.078 E69.23465
G1 X36.951 Y99.531 E69.25779
G1 X37.342 Y99.057 E69.27823
G1 X37.775 Y98.566 E69.3
G1 X38.22 Y98.09 E69.32167
G1 X38.69 Y97.622 E69.34374
G1 X39.178 Y97.162 E69.36604
G1 X39.663 Y96.732 E69.3876
G1 X40.159 Y96.318 E69.40909
G1 X40.673 Y95.915 E69.43081
G1 X41.203 Y95.526 E69.45268
G1 X41.511 Y95.312 E69.46515
G1 X40.408 Y93.548 E69.53435
G1 X40.113 Y93.751 E69.54626
G1 X39.569 Y94.15 E69.5687
G1 X39.035 Y94.56 E69.59109
G1 X38.499 Y94.996 E69.61407
G1 X38.006 Y95.424 E69.63578
G1 X37.511 Y95.879 E69.65815
G1 X37.026 Y96.351 E69.68066
G1 X36.543 Y96.843 E69.70359
G1 X36.098 Y97.328 E69.72548
G1 X35.65 Y97.844 E69.74821
G1 X35.332 Y98.228 E69.76479
G1 X34.794 Y98.917 E69.79387
G1 X34.423 Y99.428 E69.81487
G1 X34.189 Y99.766 E69.82854
G1 X35.953 Y100.868 E69.89772
G0 F7500 X36.167 Y101.016
G0 X41.334 Y95.677
G0 X41.767 Y95.365
G0 X40.464 Y93.283
G0 X39.671 Y93.751
G0 X39.943 Y94.123
G1 F1350 X34.757 Y99.309 E70.14165
G0 F7500 X34.752 Y99.88
G1 F1350 X40.523 Y94.109 E70.4131
G0 F7500 X40.741 Y94.457
G1 F1350 X35.1 Y100.098 E70.67844
G0 F7500 X35.448 Y100.315
G1 F1350 X40.958 Y94.806 E70.93759
G0 F7500 X41.176 Y95.153
G1 F1350 X40.632 Y95.697 E70.96318
G0 F7500 X40.753 Y96.182
G0 X36.699 Y100.275
G0 X36.328 Y100.001
G1 F1350 X35.796 Y100.533 E70.9882
G1 F1500 E64.4882
; MESH:bracelet.3mf(8)
G0 F7500 X35.551 Y100.923
G0 X36.113 Y101.613
G0 X34.848 Y103.82
G0 X32.537 Y111.801
; TYPE:WALL-INNER
G1 F1500 E70.9882
G1 F1350 X32.592 Y111.123 E71.01083
G1 X32.662 Y110.486 E71.03214
G1 X32.754 Y109.828 E71.05424
G1 X32.859 Y109.226 E71.07456
G1 X32.988 Y108.579 E71.09651
G1 X33.137 Y107.954 E71.11788
G1 X33.304 Y107.332 E71.1393
G1 X33.491 Y106.708 E71.16096
G1 X33.699 Y106.086 E71.18278
G1 X33.909 Y105.516 E71.20298
G1 X34.171 Y104.862 E71.22641
G1 X34.413 Y104.312 E71.2464
G1 X34.713 Y103.686 E71.26949
G1 X32.241 Y102.371 E71.36261
G1 X31.917 Y103.039 E71.38731
G1 X31.632 Y103.681 E71.41067
G1 X31.367 Y104.329 E71.43396
G1 X31.133 Y104.951 E71.45606
G1 X30.915 Y105.58 E71.4782
G1 X30.706 Y106.25 E71.50154
G1 X30.523 Y106.891 E71.52372
G1 X30.355 Y107.552 E71.5464
G1 X30.201 Y108.24 E71.56985
G1 X30.072 Y108.909 E71.59251
G1 X29.962 Y109.584 E71.61526
G1 X29.872 Y110.241 E71.63731
G1 X29.799 Y110.93 E71.66036
G1 X29.741 Y111.702 E71.68611
G1 X32.537 Y111.801 E71.77916
G0 F7500 X32.917 Y112.215
; TYPE:WALL-OUTER
G1 F1350 X32.938 Y111.798 E71.79305
G1 X32.99 Y111.167 E71.81411
G1 X33.058 Y110.541 E71.83505
G1 X33.148 Y109.896 E71.85671
G1 X33.251 Y109.304 E71.87669
G1 X33.378 Y108.671 E71.89817
G1 X33.523 Y108.058 E71.91912
G1 X33.687 Y107.447 E71.94016
G1 X33.871 Y106.835 E71.96142
G1 X34.075 Y106.224 E71.98284
G1 X34.281 Y105.664 E72.00269
G1 X34.537 Y105.023 E72.02564
G1 X34.775 Y104.484 E72.04524
G1 X35.045 Y103.914 E72.06622
G1 X35.248 Y103.517 E72.08105
G1 X32.07 Y101.826 E72.20078
G1 X31.853 Y102.25 E72.21662
G1 X31.548 Y102.885 E72.24005
G1 X31.262 Y103.529 E72.26349
G1 X30.993 Y104.188 E72.28716
G1 X30.755 Y104.82 E72.30963
G1 X30.535 Y105.454 E72.33195
G1 X30.321 Y106.14 E72.35585
G1 X30.137 Y106.787 E72.37822
G1 X29.966 Y107.459 E72.40128
G1 X29.813 Y108.137 E72.4244
G1 X29.681 Y108.82 E72.44754
G1 X29.568 Y109.506 E72.47066
G1 X29.475 Y110.193 E72.49372
G1 X29.4 Y110.898 E72.5173
G1 X29.346 Y111.583 E72.54015
G1 X29.322 Y112.088 E72.55697
G1 X32.917 Y112.215 E72.67661
G0 F7500 X32.661 Y111.935
G0 X32.196 Y111.689
G0 X32.205 Y111.429
; TYPE:SKIN
G1 F1350 X32.232 Y111.105 E72.68743
G1 X32.301 Y110.464 E72.70887
G1 X32.396 Y109.778 E72.7319
G1 X32.501 Y109.176 E72.75223
G1 X32.632 Y108.524 E72.77435
G1 X32.784 Y107.882 E72.79629
G1 X32.954 Y107.248 E72.81812
G1 X33.143 Y106.619 E72.83997
G1 X33.351 Y105.99 E72.862
G1 X33.566 Y105.404 E72.88276
G1 X33.823 Y104.755 E72.90598
G1 X34.078 Y104.177 E72.92699
G1 X34.238 Y103.841 E72.93937
G1 X32.402 Y102.863 E73.00856
G1 X32.246 Y103.187 E73.02052
G1 X31.984 Y103.778 E73.04202
G1 X31.712 Y104.438 E73.06576
G1 X31.472 Y105.072 E73.08831
G1 X31.261 Y105.687 E73.10994
G1 X31.061 Y106.328 E73.13227
G1 X30.86 Y107.019 E73.15621
G1 X30.705 Y107.641 E73.17753
G1 X30.562 Y108.274 E73.19911
G1 X30.425 Y108.998 E73.22362
G1 X30.411 Y109.007 E73.22417
G1 X30.229 Y110.299 E73.26757
G1 X30.16 Y110.949 E73.28931
G1 X30.127 Y111.353 E73.30279
G1 X32.205 Y111.429 E73.37195
G0 F7500 X31.901 Y111.217
G1 F1350 X32.035 Y111.082 E73.37828
G0 F7500 X32.101 Y110.45
G1 F1350 X31.355 Y111.197 E73.41339
G0 F7500 X30.81 Y111.176
G1 F1350 X32.191 Y109.796 E73.47833
G0 F7500 X32.309 Y109.111
G1 F1350 X30.352 Y111.068 E73.57038
G0 F7500 X30.416 Y110.438
G1 F1350 X32.454 Y108.4 E73.66624
G0 F7500 X32.638 Y107.651
G1 F1350 X30.503 Y109.786 E73.76666
G0 F7500 X30.596 Y109.127
G1 F1350 X32.859 Y106.865 E73.87308
G0 F7500 X33.125 Y106.033
G1 F1350 X30.737 Y108.42 E73.98538
G0 F7500 X30.899 Y107.693
G1 F1350 X33.456 Y105.136 E74.10566
G0 F7500 X33.884 Y105.305
G0 X34.292 Y104.338
G0 X33.873 Y104.153
G1 F1350 X31.092 Y106.934 E74.23647
G0 F7500 X31.332 Y106.128
G1 F1350 X33.687 Y103.774 E74.34721
G0 F7500 X33.318 Y103.577
G1 F1350 X31.61 Y105.285 E74.42755
G0 F7500 X31.952 Y104.377
G1 F1350 X32.949 Y103.38 E74.47445
G0 F7500 X32.58 Y103.183
G1 F1350 X32.379 Y103.384 E74.4839
G1 F1500 E67.9839
; MESH:bracelet.3mf(3)
G0 F7500 X31.957 Y103.197
G0 X32.317 Y102.607
G0 X34.486 Y103.759
G0 X32.872 Y109.065
G0 X32.619 Y111.986
G0 X32.699 Y114.282
G0 X32.243 Y123.919
; TYPE:WALL-INNER
G1 F1500 E74.4839
G1 F1350 X34.713 Y122.603 E74.57699
G1 X34.421 Y121.993 E74.59948
G1 X34.163 Y121.404 E74.62087
G1 X33.924 Y120.809 E74.6422
G1 X33.698 Y120.207 E74.66358
G1 X33.488 Y119.573 E74.6858
G1 X33.308 Y118.975 E74.70657
G1 X33.142 Y118.354 E74.72795
G1 X32.989 Y117.711 E74.74993
G1 X32.865 Y117.096 E74.7708
G1 X32.754 Y116.46 E74.79227
G1 X32.664 Y115.822 E74.8137
G1 X32.593 Y115.183 E74.83509
G1 X32.537 Y114.487 E74.85831
G1 X29.741 Y114.586 E74.95136
G1 X29.743 Y114.646 E74.95336
G1 X29.798 Y115.358 E74.97711
G1 X29.869 Y116.025 E74.99942
G1 X29.961 Y116.7 E75.02208
G1 X30.072 Y117.377 E75.0449
G1 X30.201 Y118.046 E75.06756
G1 X30.345 Y118.695 E75.08967
G1 X30.515 Y119.363 E75.11259
G1 X30.708 Y120.055 E75.13649
G1 X30.907 Y120.686 E75.1585
G1 X31.13 Y121.334 E75.18129
G1 X31.371 Y121.966 E75.20379
G1 X31.594 Y122.515 E75.22349
G1 X31.904 Y123.218 E75.24905
G1 X32.243 Y123.919 E75.27495
G0 F7500 X32.073 Y124.463
; TYPE:WALL-OUTER
G1 F1350 X35.248 Y122.772 E75.39459
G1 X35.059 Y122.401 E75.40844
G1 X34.787 Y121.832 E75.42942
G1 X34.534 Y121.254 E75.4504
G1 X34.298 Y120.669 E75.47138
G1 X34.078 Y120.081 E75.49226
G1 X33.871 Y119.458 E75.5141
G1 X33.694 Y118.871 E75.53449
G1 X33.531 Y118.262 E75.55546
G1 X33.381 Y117.632 E75.577
G1 X33.259 Y117.027 E75.59753
G1 X33.15 Y116.404 E75.61856
G1 X33.062 Y115.778 E75.63959
G1 X32.992 Y115.15 E75.6606
G1 X32.94 Y114.52 E75.68163
G1 X32.918 Y114.073 E75.69651
G1 X29.321 Y114.2 E75.81623
G1 X29.343 Y114.666 E75.83174
G1 X29.4 Y115.4 E75.85623
G1 X29.473 Y116.078 E75.87891
G1 X29.566 Y116.764 E75.90193
G1 X29.679 Y117.453 E75.92516
G1 X29.811 Y118.132 E75.94816
G1 X29.967 Y118.833 E75.97205
G1 X30.129 Y119.471 E75.99394
G1 X30.326 Y120.175 E76.01826
G1 X30.512 Y120.768 E76.03893
G1 X30.756 Y121.476 E76.06383
G1 X31.001 Y122.116 E76.08663
G1 X31.266 Y122.766 E76.10997
G1 X31.543 Y123.39 E76.13268
G1 X31.84 Y124.01 E76.15555
G1 X32.073 Y124.463 E76.17249
G0 F7500 X32.187 Y124.096
G0 X32.525 Y123.655
G0 X32.404 Y123.425
; TYPE:SKIN
G1 F1350 X34.238 Y122.447 E76.24162
G1 X34.101 Y122.161 E76.25217
G1 X33.828 Y121.537 E76.27482
G1 X33.593 Y120.953 E76.29576
G1 X33.365 Y120.349 E76.31723
G1 X33.141 Y119.658 E76.34139
G1 X33.145 Y119.648 E76.34175
G1 X32.964 Y119.091 E76.36123
G1 X32.796 Y118.46 E76.38295
G1 X32.631 Y117.77 E76.40654
G1 X32.513 Y117.178 E76.42662
G1 X32.397 Y116.514 E76.44904
G1 X32.309 Y115.887 E76.4701
G1 X32.236 Y115.234 E76.49195
G1 X32.205 Y114.858 E76.5045
G1 X30.126 Y114.934 E76.5737
G1 X30.155 Y115.309 E76.58621
G1 X30.225 Y115.962 E76.60805
G1 X30.318 Y116.658 E76.6314
G1 X30.423 Y117.289 E76.65268
G1 X30.551 Y117.953 E76.67517
G1 X30.7 Y118.629 E76.69819
G1 X30.857 Y119.249 E76.71947
G1 X31.046 Y119.93 E76.74297
G1 X31.238 Y120.543 E76.76434
G1 X31.474 Y121.231 E76.78853
G1 X31.699 Y121.812 E76.80925
G1 X31.955 Y122.442 E76.83187
G1 X32.226 Y123.054 E76.85413
G1 X32.404 Y123.425 E76.86782
G0 F7500 X32.525 Y123.655
G0 X34.488 Y122.529
G0 X34.328 Y122.032
G0 X33.911 Y122.217
G1 F1350 X33.535 Y122.593 E76.8855
G0 F7500 X33.737 Y121.826
G1 F1350 X32.463 Y123.099 E76.94541
G0 F7500 X32.291 Y122.706
G1 F1350 X33.568 Y121.429 E77.00547
G0 F7500 X33.406 Y121.025
G1 F1350 X32.118 Y122.313 E77.06605
G0 F7500 X31.955 Y121.91
G1 F1350 X33.251 Y120.614 E77.12701
G0 F7500 X33.106 Y120.194
G1 F1350 X31.795 Y121.505 E77.18868
G0 F7500 X31.639 Y121.095
G1 F1350 X32.968 Y119.766 E77.25119
G0 F7500 X32.833 Y119.336
G1 F1350 X31.495 Y120.674 E77.31413
G0 F7500 X31.356 Y120.247
G1 F1350 X32.705 Y118.897 E77.3776
G0 F7500 X32.587 Y118.45
G1 F1350 X31.222 Y119.815 E77.44181
G0 F7500 X31.099 Y119.373
G1 F1350 X32.478 Y117.994 E77.50667
G0 F7500 X32.378 Y117.528
G1 F1350 X30.981 Y118.924 E77.57236
G0 F7500 X30.87 Y118.47
G1 F1350 X32.287 Y117.053 E77.63901
G0 F7500 X32.203 Y116.571
G1 F1350 X30.767 Y118.007 E77.70656
G0 F7500 X30.674 Y117.535
G1 F1350 X32.133 Y116.076 E77.77518
G0 F7500 X32.074 Y115.569
G1 F1350 X30.587 Y117.056 E77.84513
G0 F7500 X30.508 Y116.569
G1 F1350 X32.014 Y115.063 E77.91597
G0 F7500 X31.427 Y115.085
G1 F1350 X30.441 Y116.07 E77.96232
G0 F7500 X30.385 Y115.561
G1 F1350 X30.839 Y115.107 E77.98367
G1 F1500 E71.48367
; MESH:bracelet.3mf(11)
G0 F7500 X30.824 Y114.646
G0 X32.378 Y114.664
G0 X33.43 Y120.017
G0 X34.778 Y122.798
G0 X35.989 Y124.736
G0 X40.516 Y133.248
; TYPE:WALL-INNER
G1 F1500 E77.98367
G1 F1350 X41.998 Y130.875 E78.07673
G1 X41.44 Y130.488 E78.09931
G1 X40.92 Y130.106 E78.12078
G1 X40.401 Y129.699 E78.14271
G1 X39.918 Y129.3 E78.16355
G1 X39.436 Y128.874 E78.18494
G1 X38.964 Y128.431 E78.20647
G1 X38.512 Y127.976 E78.22781
G1 X38.057 Y127.493 E78.24988
G1 X37.642 Y127.026 E78.27066
G1 X37.229 Y126.53 E78.29212
G1 X36.832 Y126.023 E78.31354
G1 X36.451 Y125.505 E78.33493
G1 X36.056 Y124.931 E78.3581
G1 X33.683 Y126.414 E78.45117
G1 X34.108 Y127.038 E78.47628
G1 X34.569 Y127.666 E78.5022
G1 X34.934 Y128.14 E78.52209
G1 X35.352 Y128.651 E78.54405
G1 X35.827 Y129.2 E78.5682
G1 X36.275 Y129.687 E78.59021
G1 X36.75 Y130.174 E78.61283
G1 X37.241 Y130.653 E78.63565
G1 X37.744 Y131.113 E78.65832
G1 X38.26 Y131.56 E78.68102
G1 X38.789 Y131.994 E78.70378
G1 X39.348 Y132.427 E78.7273
G1 X39.873 Y132.809 E78.7489
G1 X40.516 Y133.248 E78.77479
G0 F7500 X40.64 Y133.805
; TYPE:WALL-OUTER
G1 F1350 X42.547 Y130.751 E78.89454
G1 X42.195 Y130.525 E78.90846
G1 X41.676 Y130.165 E78.92946
G1 X41.166 Y129.791 E78.9505
G1 X40.656 Y129.391 E78.97206
G1 X40.183 Y129 E78.99247
G1 X39.71 Y128.582 E79.01346
G1 X39.248 Y128.149 E79.03452
G1 X38.803 Y127.702 E79.0555
G1 X38.356 Y127.227 E79.0772
G1 X37.949 Y126.77 E79.09755
G1 X37.544 Y126.284 E79.11859
G1 X37.154 Y125.786 E79.13963
G1 X36.78 Y125.277 E79.16064
G1 X36.42 Y124.758 E79.18165
G1 X36.178 Y124.383 E79.19649
G1 X33.127 Y126.29 E79.31616
G1 X33.386 Y126.69 E79.33201
G1 X33.784 Y127.274 E79.35551
G1 X34.197 Y127.838 E79.37876
G1 X34.624 Y128.393 E79.40205
G1 X35.046 Y128.909 E79.42423
G1 X35.533 Y129.47 E79.44893
G1 X35.988 Y129.965 E79.4713
G1 X36.47 Y130.46 E79.49428
G1 X36.951 Y130.929 E79.51662
G1 X37.481 Y131.415 E79.54054
G1 X38.006 Y131.87 E79.56364
G1 X38.543 Y132.31 E79.58673
G1 X39.112 Y132.751 E79.61068
G1 X39.647 Y133.139 E79.63266
G1 X40.212 Y133.527 E79.65546
G1 X40.64 Y133.805 E79.67243
G0 F7500 X40.557 Y133.43
G0 X40.122 Y132.858
G0 X40.409 Y132.741
; TYPE:SKIN
G1 F1350 X41.51 Y130.977 E79.74159
G1 X40.723 Y130.41 E79.77385
G1 X40.191 Y129.993 E79.79634
G1 X39.698 Y129.584 E79.81764
G1 X39.204 Y129.152 E79.83947
G1 X38.726 Y128.704 E79.86126
G1 X38.264 Y128.24 E79.88304
G1 X37.801 Y127.749 E79.90548
G1 X37.376 Y127.272 E79.92673
G1 X36.954 Y126.767 E79.94862
G1 X36.549 Y126.248 E79.97052
G1 X36.167 Y125.728 E79.99198
G1 X35.954 Y125.421 E80.0044
G1 X34.189 Y126.521 E80.07358
G1 X34.389 Y126.81 E80.08526
G1 X34.792 Y127.361 E80.10797
G1 X35.213 Y127.913 E80.13106
G1 X35.626 Y128.417 E80.15273
G1 X36.081 Y128.942 E80.17584
G1 X36.52 Y129.42 E80.19742
G1 X36.992 Y129.907 E80.21998
G1 X37.458 Y130.362 E80.24164
G1 X37.967 Y130.829 E80.26462
G1 X38.376 Y131.184 E80.28263
G1 X39.001 Y131.701 E80.30961
G1 X39.533 Y132.115 E80.33203
G1 X40.068 Y132.504 E80.35403
G1 X40.409 Y132.741 E80.36784
G0 F7500 X40.191 Y132.342
G1 F1350 X40.802 Y131.731 E80.39658
G0 F7500 X41.064 Y130.903
G1 F1350 X39.864 Y132.103 E80.45303
G0 F7500 X39.537 Y131.864
G1 F1350 X40.737 Y130.665 E80.50945
G0 F7500 X40.415 Y130.421
G1 F1350 X39.219 Y131.617 E80.5657
G0 F7500 X38.907 Y131.363
G1 F1350 X40.097 Y130.174 E80.62165
G0 F7500 X39.788 Y129.917
G1 F1350 X38.598 Y131.107 E80.67763
G0 F7500 X38.292 Y130.847
G1 F1350 X39.481 Y129.658 E80.73356
G0 F7500 X39.179 Y129.394
G1 F1350 X37.992 Y130.581 E80.78939
G0 F7500 X37.697 Y130.31
G1 F1350 X38.883 Y129.124 E80.84517
G0 F7500 X38.591 Y128.851
G1 F1350 X37.408 Y130.034 E80.90082
G0 F7500 X37.123 Y129.754
G1 F1350 X38.308 Y128.568 E80.95658
G0 F7500 X38.029 Y128.281
G1 F1350 X36.845 Y129.466 E81.0123
G0 F7500 X36.569 Y129.176
G1 F1350 X37.754 Y127.991 E81.06804
G0 F7500 X37.485 Y127.694
G1 F1350 X36.298 Y128.881 E81.12387
G0 F7500 X36.034 Y128.58
G1 F1350 X37.218 Y127.395 E81.17958
G0 F7500 X36.961 Y127.087
G1 F1350 X35.772 Y128.276 E81.23551
G0 F7500 X35.517 Y127.965
G1 F1350 X36.707 Y126.775 E81.29148
G0 F7500 X36.459 Y126.458
G1 F1350 X35.266 Y127.651 E81.3476
G0 F7500 X35.02 Y127.33
G1 F1350 X36.218 Y126.133 E81.40393
G0 F7500 X35.98 Y125.805
G1 F1350 X34.781 Y127.004 E81.46032
G0 F7500 X34.542 Y126.677
G1 F1350 X34.921 Y126.298 E81.47815
G1 F1500 E74.97815
; MESH:bracelet.3mf(5)
G0 F7500 X34.68 Y125.91
G0 X36.007 Y125.165
G0 X38.633 Y128.309
G0 X42.255 Y130.817
G0 X44.245 Y131.967
G0 X52.344 Y137.189
; TYPE:WALL-INNER
G1 F1500 E81.47815
G1 F1350 X52.443 Y134.392 E81.57124
G1 X51.765 Y134.338 E81.59386
G1 X51.125 Y134.268 E81.61527
G1 X50.471 Y134.175 E81.63724
G1 X49.868 Y134.071 E81.6576
G1 X49.221 Y133.942 E81.67954
G1 X48.596 Y133.793 E81.70091
G1 X47.974 Y133.626 E81.72233
G1 X47.35 Y133.439 E81.74399
G1 X46.747 Y133.236 E81.76516
G1 X46.158 Y133.02 E81.78602
G1 X45.541 Y132.775 E81.8081
G1 X44.955 Y132.516 E81.82941
G1 X44.326 Y132.217 E81.85258
G1 X43.012 Y134.688 E81.94566
G1 X43.064 Y134.715 E81.94761
G1 X43.689 Y135.015 E81.97067
G1 X44.324 Y135.296 E81.99376
G1 X44.952 Y135.556 E82.01637
G1 X45.576 Y135.791 E82.03855
G1 X46.222 Y136.014 E82.06128
G1 X46.893 Y136.225 E82.08467
G1 X47.532 Y136.407 E82.10677
G1 X48.174 Y136.57 E82.1288
G1 X48.882 Y136.729 E82.15294
G1 X49.531 Y136.855 E82.17492
G1 X50.225 Y136.968 E82.19831
G1 X50.882 Y137.058 E82.22037
G1 X51.571 Y137.131 E82.24341
G1 X52.344 Y137.189 E82.26919
G0 F7500 X51.539 Y137.53
; TYPE:WALL-OUTER
G1 F1350 X52.225 Y137.584 E82.29208
G1 X52.73 Y137.608 E82.3089
G1 X52.857 Y134.012 E82.42857
G1 X52.439 Y133.991 E82.44249
G1 X51.809 Y133.94 E82.46352
G1 X51.181 Y133.872 E82.48453
G1 X50.539 Y133.781 E82.50609
G1 X49.946 Y133.679 E82.52611
G1 X49.313 Y133.552 E82.54758
G1 X48.7 Y133.407 E82.56853
G1 X48.089 Y133.243 E82.58957
G1 X47.483 Y133.061 E82.61062
G1 X46.885 Y132.86 E82.6316
G1 X46.306 Y132.648 E82.65211
G1 X45.703 Y132.409 E82.67368
G1 X45.126 Y132.154 E82.69466
G1 X44.554 Y131.885 E82.71569
G1 X44.158 Y131.681 E82.7305
G1 X42.467 Y134.86 E82.85026
G1 X42.881 Y135.071 E82.86572
G1 X43.513 Y135.375 E82.88904
G1 X44.171 Y135.666 E82.91297
G1 X44.806 Y135.928 E82.93582
G1 X45.44 Y136.167 E82.95836
G1 X46.096 Y136.394 E82.98145
G1 X46.76 Y136.603 E83.0046
G1 X47.428 Y136.793 E83.0277
G1 X48.1 Y136.964 E83.05076
G1 X48.779 Y137.117 E83.07391
G1 X49.461 Y137.249 E83.09701
G1 X50.147 Y137.362 E83.12014
G1 X50.857 Y137.457 E83.14396
G1 X51.539 Y137.53 E83.16678
G0 F7500 X51.485 Y137.02
G0 X50.914 Y136.959
G0 X50.928 Y136.7
; TYPE:SKIN
G1 F1350 X51.591 Y136.77 E83.18895
G1 X51.996 Y136.803 E83.20247
G1 X52.07 Y134.726 E83.27159
G1 X51.75 Y134.699 E83.28227
G1 X51.107 Y134.629 E83.30378
G1 X50.432 Y134.535 E83.32645
G1 X49.832 Y134.431 E83.34671
G1 X49.166 Y134.299 E83.36929
G1 X48.524 Y134.148 E83.39122
G1 X47.89 Y133.977 E83.41306
G1 X47.255 Y133.788 E83.4351
G1 X46.657 Y133.586 E83.45609
G1 X46.045 Y133.363 E83.47776
G1 X45.421 Y133.116 E83.50008
G1 X44.818 Y132.851 E83.52199
G1 X44.484 Y132.693 E83.53427
G1 X43.506 Y134.526 E83.60338
G1 X43.835 Y134.684 E83.61551
G1 X44.444 Y134.954 E83.63767
G1 X45.067 Y135.215 E83.66014
G1 X45.71 Y135.455 E83.68297
G1 X46.365 Y135.683 E83.70603
G1 X46.995 Y135.88 E83.72799
G1 X47.643 Y136.062 E83.75037
G1 X48.278 Y136.224 E83.77217
G1 X48.917 Y136.368 E83.79396
G1 X49.577 Y136.496 E83.81632
G1 X50.928 Y136.7 E83.86176
G0 F7500 X51.275 Y136.532
G1 F1350 X51.823 Y135.983 E83.88756
G0 F7500 X51.845 Y135.396
G1 F1350 X50.767 Y136.474 E83.93827
G0 F7500 X50.273 Y136.403
G1 F1350 X51.776 Y134.899 E84.00899
G0 F7500 X51.265 Y134.845
G1 F1350 X49.783 Y136.326 E84.07867
G0 F7500 X49.305 Y136.238
G1 F1350 X50.763 Y134.781 E84.14723
G0 F7500 X50.27 Y134.708
G1 F1350 X48.835 Y136.143 E84.21473
G0 F7500 X48.373 Y136.039
G1 F1350 X49.788 Y134.625 E84.28126
G0 F7500 X49.316 Y134.531
G1 F1350 X47.922 Y135.925 E84.34683
G0 F7500 X47.475 Y135.806
G1 F1350 X48.852 Y134.429 E84.4116
G0 F7500 X48.397 Y134.319
G1 F1350 X47.033 Y135.682 E84.47573
G0 F7500 X46.603 Y135.547
G1 F1350 X47.951 Y134.199 E84.53914
G0 F7500 X47.512 Y134.072
G1 F1350 X46.178 Y135.406 E84.60189
G0 F7500 X45.758 Y135.261
G1 F1350 X47.08 Y133.938 E84.66409
G0 F7500 X46.657 Y133.795
G1 F1350 X45.347 Y135.106 E84.72574
G0 F7500 X44.942 Y134.945
G1 F1350 X46.241 Y133.646 E84.78684
G0 F7500 X45.83 Y133.491
G1 F1350 X44.543 Y134.778 E84.84737
G0 F7500 X44.153 Y134.603
G1 F1350 X45.425 Y133.331 E84.9072
G0 F7500 X45.031 Y133.159
G1 F1350 X43.81 Y134.379 E84.96461
G0 F7500 X43.406 Y134.161
G0 X44.05 Y132.949
G0 X44.456 Y133.168
G1 F1350 X44.641 Y132.984 E84.97329
G1 F1500 E78.47329
; MESH:bracelet.3mf(6)
G0 F7500 X44.835 Y132.571
G0 X51.771 Y134.501
G0 X52.265 Y134.552
G0 X52.535 Y136.962
G0 X55.015 Y136.876
G0 X55.227 Y137.189
; TYPE:WALL-INNER
G1 F1500 E84.97329
G1 F1350 X56 Y137.132 E84.99907
G1 X56.666 Y137.061 E85.02135
G1 X57.341 Y136.969 E85.04401
G1 X58.017 Y136.858 E85.06679
G1 X58.69 Y136.728 E85.08959
G1 X59.377 Y136.575 E85.113
G1 X60.005 Y136.415 E85.13455
G1 X60.699 Y136.221 E85.15852
G1 X61.325 Y136.023 E85.18036
G1 X61.977 Y135.799 E85.20329
G1 X62.608 Y135.558 E85.22575
G1 X63.159 Y135.334 E85.24554
G1 X63.859 Y135.024 E85.271
G1 X64.56 Y134.687 E85.29687
G1 X63.245 Y132.216 E85.38997
G1 X62.635 Y132.508 E85.41246
G1 X62.044 Y132.767 E85.43392
G1 X61.455 Y133.005 E85.45505
G1 X60.849 Y133.231 E85.47656
G1 X60.234 Y133.436 E85.49812
G1 X59.623 Y133.621 E85.51936
G1 X58.996 Y133.788 E85.54094
G1 X58.353 Y133.94 E85.56291
G1 X57.736 Y134.064 E85.58385
G1 X57.115 Y134.174 E85.60482
G1 X56.464 Y134.266 E85.62669
G1 X55.825 Y134.337 E85.64807
G1 X55.129 Y134.392 E85.6713
G1 X55.227 Y137.189 E85.76438
G0 F7500 X54.841 Y137.609
; TYPE:WALL-OUTER
G1 F1350 X55.319 Y137.586 E85.7803
G1 X56.042 Y137.53 E85.80442
G1 X56.719 Y137.457 E85.82706
G1 X57.405 Y137.364 E85.85009
G1 X58.093 Y137.251 E85.87328
G1 X58.752 Y137.124 E85.8956
G1 X59.475 Y136.963 E85.92024
G1 X60.113 Y136.801 E85.94213
G1 X60.819 Y136.603 E85.96652
G1 X61.413 Y136.416 E85.98723
G1 X62.119 Y136.173 E86.01206
G1 X62.76 Y135.928 E86.03489
G1 X63.405 Y135.664 E86.05807
G1 X64.031 Y135.386 E86.08085
G1 X64.651 Y135.09 E86.1037
G1 X65.104 Y134.857 E86.12064
G1 X63.413 Y131.681 E86.24032
G1 X63.043 Y131.871 E86.25415
G1 X62.474 Y132.142 E86.27511
G1 X61.895 Y132.396 E86.29614
G1 X61.311 Y132.631 E86.31708
G1 X60.722 Y132.851 E86.33799
G1 X60.118 Y133.053 E86.35918
G1 X59.512 Y133.236 E86.38023
G1 X58.904 Y133.399 E86.40117
G1 X58.274 Y133.548 E86.4227
G1 X57.668 Y133.67 E86.44326
G1 X57.046 Y133.779 E86.46426
G1 X56.42 Y133.868 E86.48529
G1 X55.792 Y133.938 E86.50631
G1 X55.162 Y133.989 E86.52733
G1 X54.715 Y134.012 E86.54222
G1 X54.841 Y137.609 E86.66193
G0 F7500 X55.1 Y137.326
G0 X55.594 Y137.063
G0 X55.575 Y136.803
; TYPE:SKIN
G1 F1350 X55.954 Y136.774 E86.67457
G1 X56.601 Y136.706 E86.69621
G1 X57.299 Y136.612 E86.71963
G1 X57.931 Y136.507 E86.74094
G1 X58.595 Y136.378 E86.76344
G1 X59.307 Y136.221 E86.78769
G1 X59.891 Y136.073 E86.80773
G1 X60.57 Y135.884 E86.83117
G1 X61.194 Y135.687 E86.85293
G1 X61.848 Y135.462 E86.87594
G1 X62.474 Y135.224 E86.89821
G1 X63.081 Y134.975 E86.92003
G1 X63.695 Y134.703 E86.94237
G1 X64.066 Y134.526 E86.95604
G1 X63.088 Y132.689 E87.02526
G1 X62.799 Y132.828 E87.03593
G1 X62.211 Y133.088 E87.05731
G1 X61.587 Y133.34 E87.07969
G1 X60.968 Y133.572 E87.10168
G1 X60.351 Y133.777 E87.1233
G1 X59.714 Y133.971 E87.14545
G1 X59.081 Y134.139 E87.16723
G1 X58.447 Y134.29 E87.18891
G1 X57.814 Y134.417 E87.21038
G1 X57.172 Y134.529 E87.23206
G1 X56.525 Y134.623 E87.2538
G1 X55.876 Y134.694 E87.27552
G1 X55.5 Y134.725 E87.28807
G1 X55.575 Y136.803 E87.35723
G0 F7500 X55.594 Y137.063
G0 X55.266 Y135.49
G0 X55.727 Y135.474
G1 F1350 X56.361 Y134.84 E87.38705
G0 F7500 X57.014 Y134.752
G1 F1350 X55.746 Y136.02 E87.44669
G0 F7500 X55.765 Y136.567
G1 F1350 X57.693 Y134.639 E87.53738
G0 F7500 X58.395 Y134.503
G1 F1350 X56.37 Y136.528 E87.63263
G0 F7500 X57.015 Y136.448
G1 F1350 X59.131 Y134.332 E87.73216
G0 F7500 X59.911 Y134.118
G1 F1350 X57.685 Y136.345 E87.83689
G0 F7500 X58.379 Y136.216
G1 F1350 X60.737 Y133.858 E87.9478
G0 F7500 X61.62 Y133.54
G1 F1350 X59.098 Y136.062 E88.06643
G0 F7500 X59.852 Y135.874
G1 F1350 X62.59 Y133.136 E88.19521
G0 F7500 X63.119 Y133.172
G1 F1350 X60.642 Y135.649 E88.31172
G0 F7500 X61.481 Y135.377
G1 F1350 X63.315 Y133.542 E88.39801
G0 F7500 X63.512 Y133.911
G1 F1350 X62.375 Y135.048 E88.45149
G0 F7500 X62.569 Y135.465
G0 X63.548 Y135.053
G0 X63.361 Y134.628
G1 F1350 X63.708 Y134.28 E88.46784
G1 F1500 E81.96784
; MESH:bracelet.3mf(1)
G0 F7500 X64.115 Y134.066
G0 X64.629 Y134.39
G0 X66.735 Y133.077
G0 X67.055 Y133.247
; TYPE:WALL-INNER
G1 F1500 E88.46784
G1 F1350 X67.679 Y132.822 E88.49295
G1 X68.235 Y132.416 E88.51585
G1 X68.784 Y131.994 E88.53888
G1 X69.292 Y131.578 E88.56072
G1 X69.823 Y131.116 E88.58413
G1 X70.329 Y130.654 E88.60692
G1 X70.817 Y130.178 E88.62959
G1 X71.28 Y129.704 E88.65163
G1 X71.755 Y129.186 E88.675
G1 X72.191 Y128.685 E88.69709
G1 X72.634 Y128.142 E88.7204
G1 X73.068 Y127.583 E88.74394
G1 X73.452 Y127.056 E88.76563
G1 X73.889 Y126.413 E88.79149
G1 X71.517 Y124.933 E88.88448
G1 X71.131 Y125.491 E88.90704
G1 X70.75 Y126.009 E88.92843
G1 X70.342 Y126.53 E88.95044
G1 X69.94 Y127.013 E88.97134
G1 X69.515 Y127.493 E88.99266
G1 X69.088 Y127.949 E89.01344
G1 X68.618 Y128.418 E89.03553
G1 X68.143 Y128.867 E89.05727
G1 X67.677 Y129.282 E89.07802
G1 X67.174 Y129.699 E89.09975
G1 X66.665 Y130.097 E89.12124
G1 X66.147 Y130.478 E89.14263
G1 X65.574 Y130.874 E89.1658
G1 X67.055 Y133.247 E89.25883
G0 F7500 X66.931 Y133.804
; TYPE:WALL-OUTER
G1 F1350 X67.332 Y133.544 E89.27473
G1 X67.915 Y133.146 E89.29821
G1 X68.478 Y132.734 E89.32141
G1 X69.038 Y132.304 E89.34489
G1 X69.55 Y131.884 E89.36692
G1 X70.093 Y131.412 E89.39085
G1 X70.607 Y130.941 E89.41404
G1 X71.103 Y130.458 E89.43706
G1 X71.57 Y129.979 E89.45931
G1 X72.057 Y129.448 E89.48328
G1 X72.497 Y128.943 E89.50555
G1 X72.95 Y128.388 E89.52938
G1 X73.376 Y127.84 E89.55247
G1 X73.782 Y127.282 E89.57542
G1 X74.169 Y126.717 E89.5982
G1 X74.446 Y126.289 E89.61515
G1 X71.394 Y124.383 E89.73483
G1 X71.167 Y124.733 E89.74871
G1 X70.808 Y125.254 E89.76975
G1 X70.435 Y125.762 E89.79071
G1 X70.034 Y126.274 E89.81234
G1 X69.641 Y126.747 E89.8328
G1 X69.223 Y127.219 E89.85377
G1 X68.796 Y127.675 E89.87455
G1 X68.344 Y128.127 E89.89581
G1 X67.87 Y128.573 E89.91745
G1 X67.415 Y128.979 E89.93774
G1 X66.927 Y129.384 E89.95883
G1 X66.428 Y129.775 E89.97991
G1 X65.919 Y130.149 E90.00092
G1 X65.399 Y130.51 E90.02198
G1 X65.025 Y130.751 E90.03677
G1 X66.931 Y133.804 E90.15648
G0 F7500 X67.014 Y133.43
G0 X67.308 Y132.955
G0 X67.162 Y132.74
; TYPE:SKIN
G1 F1350 X67.458 Y132.537 E90.16842
G1 X68.086 Y132.075 E90.19435
G1 X68.551 Y131.719 E90.21383
G1 X69.058 Y131.303 E90.23564
G1 X69.563 Y130.865 E90.25787
