;FLAVOR:Marlin
;TIME:375
;Filament used: 0.170047m
;Layer height: 0.2
;MINX:1.069
;MINY:131.88
;MINZ:0.2
;MAXX:179.719
;MAXY:180
;MAXZ:4
;Generated with Cura_SteamEngine 5.4.0
M82 ;absolute extrusion mode
M201 X1250 Y1250 Z400 E5000 ; sets maximum accelerations
M203 X180 Y180 Z12 E80 ; sets maximum feedrates
M205 X8.00 Y8.00 Z2.00 E10.00 ; sets the jerk limits
M221 S100 ; reset flow
G90 ; use absolute positioning
M82 ; absolute extrusion mode
M104 S170 ; set extruder temp for bed leveling
M140 S60 ; set bed temp
M109 R170 ; wait for extruder temp
M190 S60 ; wait for bed temp
G28 ; home all
G29 ; mesh bed leveling
M104 S200 ; set extruder temp
G92 E0.0
G1 Y-2 X179 F2400
G1 Z3 F720
M109 S200 ; wait for extruder temp
G92 E0.0
G1 X170 F1000
G1 Z0.2 F720
G1 X110 E8 F900
G1 X40 E18 F900
G92 E0.0
M900 K0.2 ; LA
G92 E0
G92 E0
G1 F4200 E-3.5
;LAYER_COUNT:20
;LAYER:0
M107
G0 F3600 X7.066 Y150.517 Z0.2
;TYPE:SKIRT
G1 F4200 E0
G1 F1800 X7.57 Y150.557 E0.01682
G1 X8.061 Y150.675 E0.03361
G1 X8.601 Y150.899 E0.05306
G1 X9.57 Y151.516 E0.09126
G1 X11.889 Y152.945 E0.18186
G1 X14.274 Y154.323 E0.27348
G1 X16.692 Y155.633 E0.36494
G1 X17.304 Y155.943 E0.38776
G1 X17.735 Y156.206 E0.40455
G1 X18.12 Y156.534 E0.42138
G1 X18.448 Y156.919 E0.4382
G1 X18.711 Y157.35 E0.45499
G1 X18.904 Y157.818 E0.47183
G1 X19.02 Y158.31 E0.48864
G1 X19.057 Y158.814 E0.50545
G1 X19.014 Y159.318 E0.52227
G1 X18.893 Y159.809 E0.53909
G1 X18.696 Y160.274 E0.55589
G1 X18.428 Y160.703 E0.57271
G1 X18.095 Y161.084 E0.58954
G1 X17.707 Y161.408 E0.60636
G1 X17.273 Y161.667 E0.62317
G1 X16.803 Y161.854 E0.63999
G1 X16.31 Y161.965 E0.6568
G1 X15.677 Y161.992 E0.67787
G1 X14.324 Y161.916 E0.72294
G1 X11.586 Y161.839 E0.81405
G1 X7.575 Y161.868 E0.94746
G1 X6.511 Y161.897 E0.98286
G1 X6.006 Y161.871 E0.99968
G1 X5.512 Y161.765 E1.01648
G1 X5.04 Y161.584 E1.03329
G1 X4.603 Y161.33 E1.05011
G1 X4.196 Y161.009 E1.06735
G1 X2.514 Y159.393 E1.14493
G1 X2.02 Y158.905 E1.16802
G1 X1.69 Y158.522 E1.18484
G1 X1.424 Y158.092 E1.20165
G1 X1.228 Y157.626 E1.21847
G1 X1.109 Y157.134 E1.2353
G1 X1.069 Y156.63 E1.25212
G1 X1.109 Y156.126 E1.26894
G1 X1.227 Y155.635 E1.28573
G1 X1.421 Y155.168 E1.30255
G1 X1.687 Y154.738 E1.31937
G1 X1.969 Y154.392 E1.33421
G1 X4.301 Y151.965 E1.44616
G1 X4.792 Y151.468 E1.4694
G1 X5.174 Y151.138 E1.48619
G1 X5.604 Y150.871 E1.50302
G1 X6.07 Y150.676 E1.51982
G1 X6.562 Y150.557 E1.53666
G1 X7.066 Y150.517 E1.55347
G1 F4200 E-1.94653
G0 F3600 X117.477 Y169.871
G0 X157.364 Y180
G1 F4200 E1.55347
G1 F1800 X157.075 Y179.928 E1.56338
G1 X154.372 Y179.336 E1.65541
G1 X151.719 Y178.833 E1.74522
G1 X149 Y178.397 E1.83681
G1 X146.264 Y178.037 E1.9286
G1 X143.566 Y177.76 E2.01881
G1 X140.851 Y177.558 E2.10936
G1 X138.101 Y177.431 E2.20092
G1 X135.35 Y177.384 E2.29243
G1 X132.631 Y177.412 E2.38287
G1 X129.881 Y177.519 E2.47441
G1 X127.133 Y177.705 E2.56601
G1 X124.462 Y177.961 E2.65526
G1 X121.722 Y178.301 E2.74709
G1 X117.57 Y178.967 E2.88695
G1 X117.066 Y179.007 E2.90377
G1 X116.381 Y178.933 E2.92668
G1 X115.623 Y178.768 E2.95248
G1 X112.919 Y178.215 E3.04428
G1 X110.2 Y177.739 E3.13609
G1 X107.507 Y177.345 E3.22661
G1 X104.772 Y177.024 E3.3182
G1 X102.065 Y176.784 E3.40859
G1 X99.314 Y176.617 E3.50026
G1 X96.6 Y176.531 E3.59057
G1 X93.847 Y176.52 E3.68214
G1 X91.128 Y176.587 E3.7726
G1 X88.348 Y176.734 E3.86519
G1 X85.667 Y176.953 E3.95466
G1 X82.932 Y177.253 E4.04617
G1 X81.019 Y177.509 E4.11037
G1 X80.335 Y177.526 E4.13312
G1 X79.702 Y177.475 E4.15425
G1 X76.93 Y177.288 E4.24665
G1 X74.181 Y177.181 E4.33815
G1 X71.461 Y177.153 E4.42863
G1 X68.69 Y177.201 E4.5208
G1 X66.286 Y177.304 E4.60083
G1 X65.168 Y177.253 E4.63806
G1 X64.623 Y177.215 E4.65623
G1 X63.627 Y177.115 E4.68952
G1 X62.889 Y177.019 E4.71428
G1 X62.395 Y176.915 E4.73107
G1 X61.832 Y176.698 E4.75113
G1 X60.984 Y176.178 E4.78422
G1 X58.608 Y174.765 E4.87616
G1 X56.197 Y173.42 E4.96799
G1 X54.476 Y172.523 E5.03254
G1 X54.047 Y172.254 E5.04938
G1 X53.667 Y171.922 E5.06616
G1 X53.343 Y171.533 E5.083
G1 X53.084 Y171.099 E5.09981
G1 X52.897 Y170.629 E5.11663
G1 X52.787 Y170.136 E5.13343
G1 X52.755 Y169.631 E5.15026
G1 X52.804 Y169.128 E5.16707
G1 X52.931 Y168.639 E5.18388
G1 X53.133 Y168.175 E5.20071
G1 X53.406 Y167.75 E5.21751
G1 X53.743 Y167.373 E5.23433
G1 X54.135 Y167.053 E5.25116
G1 X54.572 Y166.799 E5.26797
G1 X55.044 Y166.617 E5.2848
G1 X55.538 Y166.512 E5.30159
G1 X56.093 Y166.488 E5.32007
G1 X58.689 Y166.6 E5.40649
G1 X61.444 Y166.642 E5.49814
G1 X62.759 Y166.625 E5.54188
G1 X63.727 Y166.625 E5.57407
G1 X65.012 Y166.66 E5.61683
G1 X65.162 Y166.651 E5.62183
G1 X66.585 Y166.699 E5.66918
G1 X67.833 Y166.72 E5.7107
G1 X70.384 Y166.863 E5.79568
G1 X73.144 Y166.942 E5.88751
G1 X75.862 Y166.942 E5.97791
G1 X78.614 Y166.865 E6.06948
G1 X81.355 Y166.711 E6.16079
G1 X82.545 Y166.621 E6.20048
G1 X83.179 Y166.636 E6.22158
G1 X85.829 Y166.964 E6.31039
G1 X88.503 Y167.219 E6.39973
G1 X91.256 Y167.405 E6.4915
G1 X94.005 Y167.512 E6.583
G1 X96.758 Y167.541 E6.67457
G1 X99.442 Y167.493 E6.76386
G1 X102.223 Y167.366 E6.85645
G1 X104.936 Y167.164 E6.94694
G1 X107.641 Y166.886 E7.03738
G1 X110.376 Y166.526 E7.12913
G1 X113.093 Y166.09 E7.22065
G1 X115.77 Y165.582 E7.31128
G1 X118.425 Y165.001 E7.40168
G1 X121.103 Y164.336 E7.49345
G1 X123.739 Y163.6 E7.58448
G1 X126.329 Y162.796 E7.67468
G1 X128.965 Y161.897 E7.76731
G1 X131.505 Y160.95 E7.85747
G1 X134.056 Y159.914 E7.94905
G1 X136.542 Y158.823 E8.03934
G1 X139.035 Y157.644 E8.13107
G1 X141.465 Y156.408 E8.22174
G1 X143.857 Y155.107 E8.31231
G1 X146.265 Y153.705 E8.40498
G1 X148.561 Y152.283 E8.49481
G1 X150.825 Y150.79 E8.58501
G1 X153.098 Y149.195 E8.67737
G1 X155.306 Y147.551 E8.76892
G1 X157.419 Y145.883 E8.85846
G1 X159.549 Y144.101 E8.95083
G1 X161.569 Y142.313 E9.04055
G1 X163.618 Y140.392 E9.13397
G1 X165.506 Y138.519 E9.22242
G1 X167.437 Y136.492 E9.31554
G1 X169.25 Y134.478 E9.40567
G1 X170.525 Y132.99 E9.47084
G1 X170.883 Y132.633 E9.48766
G1 X171.293 Y132.337 E9.50448
G1 X171.744 Y132.11 E9.52127
G1 X172.226 Y131.956 E9.5381
G1 X172.726 Y131.88 E9.55492
G1 X173.231 Y131.884 E9.57172
G1 X173.73 Y131.967 E9.58854
G1 X174.45 Y132.232 E9.61406
G1 X177.449 Y133.831 E9.7271
G1 X178.061 Y134.167 E9.75032
G1 X178.484 Y134.445 E9.76716
G1 X178.857 Y134.785 E9.78394
G1 X179.172 Y135.18 E9.80075
G1 X179.422 Y135.62 E9.81758
G1 X179.598 Y136.094 E9.83439
G1 X179.698 Y136.59 E9.85122
G1 X179.719 Y137.095 E9.86803
G1 X179.659 Y137.597 E9.88485
G1 X179.522 Y138.083 E9.90164
G1 X179.332 Y138.524 E9.91762
G1 X178.254 Y140.543 E9.99374
G1 X177.89 Y141.203 E10.01881
G1 X176.431 Y143.757 E10.11664
G1 X175.165 Y146.13 E10.20609
G1 X173.93 Y148.614 E10.29836
G1 X172.785 Y151.089 E10.38906
G1 X171.712 Y153.593 E10.47967
G1 X170.687 Y156.185 E10.57238
G1 X169.767 Y158.718 E10.66201
G1 X168.89 Y161.366 E10.75479
G1 X168.128 Y163.9 E10.8428
G1 X167.401 Y166.594 E10.9356
G1 X166.766 Y169.245 E11.02627
G1 X166.196 Y171.96 E11.11854
G1 X165.706 Y174.669 E11.2101
G1 X165.544 Y175.65 E11.24317
G1 X165.422 Y176.141 E11.26
G1 X165.225 Y176.606 E11.2768
G1 X164.919 Y177.101 E11.29615
G1 X163.504 Y178.943 E11.37341
G1 X163.074 Y179.486 E11.39645
G1 X162.729 Y179.856 E11.41327
G1 X162.545 Y180 E11.42104
G1 F4200 E7.92104
;MESH:Basic test - Fusion copy-grab.3mf(4)
G0 F3600 X117.477 Y169.871
G0 X9.424 Y156.539
G0 X8.646 Y155.793
G0 X6.395 Y157.478
G0 X6.402 Y157.86
;TYPE:WALL-INNER
G1 F4200 E11.42104
G1 F1800 X8.382 Y155.799 E11.5161
G1 X7.084 Y154.552 E11.57597
G1 X5.104 Y156.612 E11.671
G1 X6.402 Y157.86 E11.73089
G0 F3600 X6.414 Y158.426
;TYPE:WALL-OUTER
G1 F1800 X8.948 Y155.787 E11.85258
G1 X7.072 Y153.986 E11.93907
G1 X4.538 Y156.624 E12.06073
G1 X6.414 Y158.426 E12.14725
G0 F3600 X6.552 Y158.282
G0 X6.392 Y157.323
;TYPE:SKIN
G1 F1800 X5.641 Y156.602 E12.18188
G1 X7.093 Y155.09 E12.2516
G1 X7.843 Y155.81 E12.28618
G1 X6.392 Y157.323 E12.3559
G0 F3600 X6.021 Y156.493
G1 F1800 X6.474 Y156.947 E12.37724
G0 F3600 X6.752 Y156.658
G1 F1800 X6.298 Y156.204 E12.39859
G0 F3600 X6.575 Y155.916
G1 F1800 X7.028 Y156.369 E12.4199
G0 F3600 X7.305 Y156.081
G1 F1800 X6.852 Y155.627 E12.44123
G0 F3600 X6.868 Y155.643
G1 F4200 E8.94123
;MESH:Basic test - Fusion copy-grab.3mf(6)
G0 F3600 X8.646 Y155.793
G0 X9.424 Y156.539
G0 X62.946 Y170.171
G0 X64.021 Y170.262
G0 X64.433 Y173.052
G0 X64.408 Y173.351
;TYPE:WALL-INNER
G1 F4200 E12.44123
G1 F1800 X65.055 Y173.456 E12.46303
G1 X65.815 Y173.458 E12.48831
G1 X66.063 Y170.549 E12.58541
G1 X65.298 Y170.484 E12.61095
G1 X64.782 Y170.463 E12.62813
G1 X64.191 Y170.472 E12.64778
G1 X63.95 Y173.31 E12.74252
G1 X64.408 Y173.351 E12.75781
G0 F3600 X64.433 Y173.052
G0 X65.349 Y173.218
G0 X65.666 Y173.857
;TYPE:WALL-OUTER
G1 F1800 X66.178 Y173.899 E12.7749
G1 X66.496 Y170.184 E12.89891
G1 X65.339 Y170.085 E12.93753
G1 X64.806 Y170.063 E12.95528
G1 X64.293 Y170.072 E12.97234
G1 X63.827 Y170.032 E12.9879
G1 X63.517 Y173.674 E13.10947
G1 X64.344 Y173.746 E13.13708
G1 X65.023 Y173.856 E13.15996
G1 X65.666 Y173.857 E13.18134
G0 F3600 X65.865 Y173.873
G0 X65.465 Y173.075
;TYPE:SKIN
G1 F1800 X65.08 Y173.075 E13.19415
G1 X64.363 Y172.962 E13.21829
G1 X64.544 Y170.83 E13.28946
G1 X65.651 Y170.896 E13.32634
G1 X65.465 Y173.075 E13.39908
G0 F3600 X64.59 Y172.636
G1 F1800 X64.777 Y172.823 E13.40787
G0 F3600 X65.289 Y172.77
G1 F1800 X64.634 Y172.114 E13.43871
G0 F3600 X64.679 Y171.593
G1 F1800 X65.334 Y172.249 E13.46954
G0 F3600 X65.379 Y171.727
G1 F1800 X64.722 Y171.071 E13.50042
G0 F3600 X65.281 Y171.064
G1 F1800 X65.423 Y171.206 E13.5071
;MESH:Basic test - Fusion copy-grab.3mf(2)
G0 F3600 X65.28 Y171.206
G0 X65.354 Y172.726
G0 X66.24 Y173.062
G0 X66.24 Y173.367
;TYPE:WALL-INNER
G1 F1800 X67.055 Y173.362 E13.5342
G1 X67.055 Y170.506 E13.6292
G1 X65.181 Y170.506 E13.69153
G1 X65.18 Y173.434 E13.78891
G1 X66.087 Y173.437 E13.81908
G1 X66.24 Y173.367 E13.82467
G0 F3600 X66.203 Y173.837
;TYPE:WALL-OUTER
G1 F1800 X66.26 Y173.763 E13.82778
G1 X67.455 Y173.762 E13.86753
G1 X67.455 Y170.106 E13.98913
G1 X64.781 Y170.105 E14.07806
G1 X64.78 Y173.802 E14.20103
G1 X65.192 Y173.837 E14.21478
G1 X66.203 Y173.837 E14.2484
G0 F3600 X66.26 Y173.763
G0 X66.367 Y173.763
G0 X66.19 Y172.989
;TYPE:SKIN
G1 F1800 X65.996 Y173.056 E14.25523
G1 X65.561 Y173.056 E14.2697
G1 X65.561 Y170.886 E14.34187
G1 X66.675 Y170.886 E14.37893
G1 X66.675 Y172.983 E14.44867
G1 X66.19 Y172.989 E14.4648
G0 F3600 X65.94 Y172.855
G1 F1800 X65.76 Y172.675 E14.47327
G0 F3600 X65.76 Y172.109
G1 F1800 X66.436 Y172.785 E14.50507
G0 F3600 X66.475 Y172.258
G1 F1800 X65.76 Y171.544 E14.53868
G0 F3600 X65.868 Y171.085
G1 F1800 X66.475 Y171.692 E14.56723
G1 X66.545 Y171.762
G0 F3600 X66.455 Y171.762
G1 F4200 E11.06723
;MESH:Basic test - Fusion copy-grab.3mf(3)
G0 F3600 X67.235 Y173.33
G0 X68.32 Y173.33
G0 X79.293 Y171.043
G0 X80.34 Y170.844
G0 X81.29 Y173.33
G0 X81.075 Y173.646
;TYPE:WALL-INNER
G1 F4200 E14.56723
G1 F1800 X82.844 Y173.31 E14.62712
G1 X82.31 Y170.503 E14.72215
G1 X80.541 Y170.84 E14.78205
G1 X81.075 Y173.646 E14.87705
G0 F3600 X80.757 Y174.114
;TYPE:WALL-OUTER
G1 F1800 X83.312 Y173.628 E14.96355
G1 X82.628 Y170.035 E15.0852
G1 X80.073 Y170.522 E15.17171
G1 X80.757 Y174.114 E15.29333
G0 F3600 X80.953 Y174.077
G0 X81.377 Y173.203
;TYPE:SKIN
G1 F1800 X80.986 Y171.143 E15.36307
G1 X82.007 Y170.948 E15.39764
G1 X82.4 Y173.008 E15.46739
G1 X81.377 Y173.203 E15.50203
G0 F3600 X81.835 Y172.91
G1 F1800 X81.453 Y172.528 E15.52
G0 F3600 X82.125 Y172.635
G1 F1800 X81.32 Y171.829 E15.55789
G0 F3600 X81.335 Y171.279
G1 F1800 X81.992 Y171.936 E15.58879
G1 X82.062 Y172.006
G0 F3600 X81.988 Y172.018
G1 F4200 E12.08879
;MESH:Basic test - Fusion copy-grab.3mf
G0 F3600 X83.061 Y173.458
G0 X84.12 Y173.257
G0 X114.483 Y173.159
G0 X115.378 Y172.559
G0 X117.301 Y174.61
G0 X117.227 Y174.986
;TYPE:WALL-INNER
G1 F4200 E15.58879
G1 F1800 X118.723 Y173.984 E15.64868
G1 X117.133 Y171.609 E15.74374
G1 X115.637 Y172.611 E15.80363
G1 X117.227 Y174.986 E15.89869
G0 F3600 X117.117 Y175.541
;TYPE:WALL-OUTER
G1 F1800 X119.278 Y174.094 E15.98519
G1 X117.243 Y171.054 E16.10686
G1 X115.082 Y172.501 E16.19336
G1 X117.117 Y175.541 E16.31503
G0 F3600 X117.283 Y175.43
G0 X117.331 Y174.459
;TYPE:SKIN
G1 F1800 X116.163 Y172.715 E16.38485
G1 X117.029 Y172.135 E16.41951
G1 X118.196 Y173.88 E16.48934
G1 X117.331 Y174.459 E16.52396
G0 F3600 X117.521 Y174.089
G1 F1800 X116.927 Y173.496 E16.55187
G1 X116.857 Y173.426
G0 F3600 X116.636 Y172.639
G1 F1800 X117.859 Y173.862 E16.6094
G1 X117.929 Y173.932
G0 F3600 X117.867 Y173.835
G1 F4200 E13.1094
;MESH:Basic test - Fusion copy-grab.3mf(5)
G0 F3600 X118.982 Y174.036
G0 X119.877 Y173.436
G0 X157.076 Y174.306
G0 X157.931 Y174.962
G0 X160.41 Y176.29
G0 X160.459 Y176.668
;TYPE:WALL-INNER
G1 F4200 E16.6094
G1 F1800 X161.555 Y175.241 E16.66924
G1 X159.289 Y173.501 E16.76427
G1 X158.193 Y174.927 E16.82409
G1 X160.459 Y176.668 E16.91913
G0 F3600 X160.533 Y177.229
;TYPE:WALL-OUTER
G1 F1800 X162.116 Y175.167 E17.00559
G1 X159.215 Y172.94 E17.12723
G1 X157.632 Y175.001 E17.21367
G1 X160.533 Y177.229 E17.33533
G0 F3600 X160.654 Y177.071
G0 X160.39 Y176.134
;TYPE:SKIN
G1 F1800 X158.727 Y174.857 E17.40507
G1 X159.359 Y174.035 E17.43955
G1 X161.022 Y175.31 E17.50925
G1 X160.39 Y176.134 E17.54379
G0 F3600 X160.697 Y175.404
G1 F1800 X160.305 Y175.013 E17.5622
G0 F3600 X160.451 Y175.724
G1 F1800 X159.241 Y174.515 E17.6191
G1 X159.171 Y174.445
G0 F3600 X159.264 Y174.517
G1 F4200 E14.1191
;MESH:Basic test - Fusion copy-grab.3mf(1)
G0 F3600 X159.254 Y173.239
G0 X159.91 Y172.384
G0 X174.445 Y140.009
G0 X174.952 Y139.056
G0 X174.874 Y138.804
;TYPE:WALL-INNER
G1 F4200 E17.6191
G1 F1800 X175.722 Y137.217 E17.67894
G1 X173.201 Y135.872 E17.77398
G1 X172.354 Y137.458 E17.83378
G1 X174.874 Y138.804 E17.9288
G0 F3600 X175.038 Y139.345
;TYPE:WALL-OUTER
G1 F1800 X176.263 Y137.053 E18.01524
G1 X173.037 Y135.33 E18.13688
G1 X171.812 Y137.622 E18.22332
G1 X175.038 Y139.345 E18.34496
G0 F3600 X175.132 Y139.169
G0 X174.717 Y138.288
;TYPE:SKIN
G1 F1800 X172.869 Y137.3 E18.41466
G1 X173.359 Y136.386 E18.44915
G1 X175.206 Y137.375 E18.51884
G1 X174.717 Y138.288 E18.55328
G0 F3600 X174.885 Y137.549
G1 F1800 X174.629 Y137.293 E18.56532
G0 F3600 X174.687 Y137.918
G1 F1800 X173.435 Y136.666 E18.62421
G0 F3600 X173.237 Y137.033
G1 F1800 X173.746 Y137.542 E18.64816
G0 F3600 X173.755 Y137.528
M104 S200
G1 F4200 E15.14816
;MESH:NONMESH
G0 F600 X173.755 Y137.528 Z0.4
G0 F3600 X172.101 Y137.536
G0 X171.148 Y137.029
G0 X7.066 Y150.517
;TIME_ELAPSED:40.667785
;LAYER:1
M106 S255
;TYPE:SKIRT
G1 F4200 E18.64816
G1 F1800 X7.57 Y150.557 E18.66497
G1 X8.061 Y150.675 E18.68177
G1 X8.601 Y150.899 E18.70121
G1 X9.57 Y151.516 E18.73942
G1 X11.889 Y152.945 E18.83002
G1 X14.274 Y154.323 E18.92163
G1 X16.692 Y155.633 E19.0131
G1 X17.304 Y155.943 E19.03592
G1 X17.735 Y156.206 E19.05271
G1 X18.12 Y156.534 E19.06953
G1 X18.448 Y156.919 E19.08636
G1 X18.711 Y157.35 E19.10315
G1 X18.904 Y157.818 E19.11999
G1 X19.02 Y158.31 E19.1368
G1 X19.057 Y158.814 E19.15361
G1 X19.014 Y159.318 E19.17043
G1 X18.893 Y159.809 E19.18725
G1 X18.696 Y160.274 E19.20405
G1 X18.428 Y160.703 E19.22087
G1 X18.095 Y161.084 E19.2377
G1 X17.707 Y161.408 E19.25451
G1 X17.273 Y161.667 E19.27132
G1 X16.803 Y161.854 E19.28815
G1 X16.31 Y161.965 E19.30496
G1 X15.677 Y161.992 E19.32603
G1 X14.324 Y161.916 E19.3711
G1 X11.586 Y161.839 E19.4622
G1 X7.575 Y161.868 E19.59561
G1 X6.511 Y161.897 E19.63101
G1 X6.006 Y161.871 E19.64783
G1 X5.512 Y161.765 E19.66464
G1 X5.04 Y161.584 E19.68145
G1 X4.603 Y161.33 E19.69826
G1 X4.196 Y161.009 E19.7155
G1 X2.514 Y159.393 E19.79308
G1 X2.02 Y158.905 E19.81618
G1 X1.69 Y158.522 E19.83299
G1 X1.424 Y158.092 E19.84981
G1 X1.228 Y157.626 E19.86662
G1 X1.109 Y157.134 E19.88346
G1 X1.069 Y156.63 E19.90028
G1 X1.109 Y156.126 E19.91709
G1 X1.227 Y155.635 E19.93389
G1 X1.421 Y155.168 E19.95071
G1 X1.687 Y154.738 E19.96752
G1 X1.969 Y154.392 E19.98237
G1 X4.301 Y151.965 E20.09432
G1 X4.792 Y151.468 E20.11755
G1 X5.174 Y151.138 E20.13434
G1 X5.604 Y150.871 E20.15118
G1 X6.07 Y150.676 E20.16798
G1 X6.562 Y150.557 E20.18482
G1 X7.066 Y150.517 E20.20163
