; FLAVOR:Marlin
; TIME:290
; Filament used: 0.178586m
; Layer height: 0.2
; MINX:29
; MINY:59
; MINZ:0.2
; MAXX:81
; MAXY:121
; MAXZ:1.2
; Generated with Cura_SteamEngine 5.4.0
M82 ; absolute extrusion mode
; Ender 3 Custom Start G-code
G92 E0 ; Reset Extruder
G28 X Y Z ; Home only X, Y, and Z axes, but avoid trying to home A
M104 S175 ; Start heating up the nozzle most of the way
M190 S60 ; Start heating the bed, wait until target temperature reached
M109 S200 ; Finish heating the nozzle
G92 A90 ; Assume the ring has been manually homed, set its position to 90°
M92 A52.3977 ; Set fractional steps/unit for ring moves
G0 F5000 X55.0 ; Move head out of the way of the carrier
G0 F5000 A42.142 ; Move ring to initial thread position (🧵H({-21.50,   0.00,   0.00}, ↗ 90.00° (  0.00,   1.00,   0.00)),  ⃘132.142°)
; --- Printer state ---
; Ring(132.142°, ⌀186 → {-21.50,  59.76,   0.00}, ⊙{ 40.90,  -9.20,   0.00})
; Bed(0, 0, ⚓︎{-21.50,   0.00,   0.00})
; Carrier: {-21.50,  59.76,   0.00}
; Print head: {  0.00,   0.00,   0.00}
G1 Z2.0 F3000 ; Move Z Axis up little to prevent scratching of Heat Bed
G1 X0.1 Y20 Z0.3 F5000.0
G1 X0.1 Y200.0 Z0.3 F1500.0 E0
G1 X0.4 Y200.0 Z0.3 F5000.0
G1 X0.4 Y20 Z0.3 F1500.0 E0
G92 E0 ; Reset Extruder
G1 Z2.0 F3000 ; Move Z Axis up little to prevent scratching of Heat Bed
G1 X5 Y20 Z0.3 F5000.0
G92 E0
G92 E0
G1 F1500 E0
; LAYER_COUNT:6
; LAYER:0
M107
; ==== Start layer 0 ====
; ::: Layer 0 postamble :::
G0 F6000 X34.821 Y60.311 Z0.2
; TYPE:SKIRT
G1 F1500 E0
G1 F1200 X35.699 Y59.89 E0
G1 X36.612 Y59.548 E0
G1 X37.549 Y59.289 E0
G1 X38.516 Y59.111 E0
G1 X39.655 Y59.015 E0
G1 X40.312 Y59 E0
G1 X69.304 Y59 E0
G1 X70.184 Y59.013 E0
G1 X71.156 Y59.072 E0
G1 X72.119 Y59.218 E0
G1 X73.066 Y59.449 E0
G1 X73.954 Y59.749 E0
G1 X74.846 Y60.139 E0
G1 X75.729 Y60.626 E0
G1 X76.48 Y61.128 E0
G1 X77.295 Y61.786 E0
G1 X77.993 Y62.464 E0
G1 X78.629 Y63.201 E0
G1 X79.199 Y63.991 E0
G1 X79.661 Y64.767 E0
G1 X80.115 Y65.709 E0
G1 X80.444 Y66.587 E0
G1 X80.713 Y67.559 E0
G1 X80.89 Y68.525 E0
G1 X80.985 Y69.655 E0
G1 X81 Y70.33 E0
G1 X80.999 Y79.429 E0
G1 X80.981 Y80.46 E0
G1 X80.952 Y81.143 E0
G1 X80.878 Y83.759 E0
G1 X80.878 Y86.271 E0
G1 X81 Y90.33 E0
G1 X80.999 Y109.4 E0
G1 X80.988 Y110.163 E0
G1 X80.931 Y111.136 E0
G1 X80.786 Y112.099 E0
G1 X80.557 Y113.045 E0
G1 X80.246 Y113.969 E0
G1 X79.854 Y114.86 E0
G1 X79.386 Y115.712 E0
G1 X78.864 Y116.493 E0
G1 X78.231 Y117.278 E0
G1 X77.606 Y117.929 E0
G1 X76.817 Y118.617 E0
G1 X76.057 Y119.167 E0
G1 X75.19 Y119.684 E0
G1 X74.312 Y120.106 E0
G1 X73.401 Y120.448 E0
G1 X72.462 Y120.709 E0
G1 X71.496 Y120.887 E0
G1 X70.345 Y120.985 E0
G1 X69.67 Y121 E0
G1 X60.549 Y120.999 E0
G1 X59.831 Y120.988 E0
G1 X58.843 Y120.928 E0
G1 X57.879 Y120.782 E0
G1 X56.932 Y120.551 E0
G1 X56.076 Y120.263 E0
G1 X55.12 Y119.844 E0
G1 X54.267 Y119.373 E0
G1 X53.46 Y118.828 E0
G1 X52.705 Y118.215 E0
G1 X52.004 Y117.537 E0
G1 X51.368 Y116.799 E0
G1 X50.801 Y116.009 E0
G1 X50.307 Y115.178 E0
G1 X49.989 Y114.531 E0
G1 X49.519 Y113.496 E0
G1 X49.218 Y112.805 E0
G1 X48.151 Y110.536 E0
G1 X47.027 Y108.31 E0
G1 X45.806 Y106.055 E0
G1 X44.566 Y103.914 E0
G1 X43.252 Y101.779 E0
G1 X41.863 Y99.663 E0
G1 X40.431 Y97.613 E0
G1 X38.921 Y95.573 E0
G1 X37.365 Y93.593 E0
G1 X35.749 Y91.65 E0
G1 X34.094 Y89.771 E0
G1 X31.955 Y87.486 E0
G1 X31.346 Y86.772 E0
G1 X30.761 Y85.949 E0
G1 X30.271 Y85.108 E0
G1 X29.856 Y84.226 E0
G1 X29.533 Y83.346 E0
G1 X29.27 Y82.371 E0
G1 X29.101 Y81.406 E0
G1 X29.015 Y80.327 E0
G1 X29 Y79.67 E0
G1 X29.001 Y70.525 E0
G1 X29.012 Y69.825 E0
G1 X29.07 Y68.852 E0
G1 X29.216 Y67.889 E0
G1 X29.446 Y66.943 E0
G1 X29.759 Y66.02 E0
G1 X30.151 Y65.13 E0
G1 X30.621 Y64.277 E0
G1 X31.164 Y63.469 E0
G1 X31.731 Y62.765 E0
G1 X32.456 Y62.013 E0
G1 X33.192 Y61.376 E0
G1 X33.924 Y60.846 E0
G1 X34.821 Y60.311 E0
G0 F6000 X34.995 Y60.671
G1 F1200 X35.84 Y60.264 E0
G1 X36.719 Y59.933 E0
G1 X37.622 Y59.682 E0
G1 X38.55 Y59.51 E0
G1 X39.689 Y59.414 E0
G1 X40.321 Y59.4 E0
G1 X69.298 Y59.4 E0
G1 X70.16 Y59.412 E0
G1 X71.097 Y59.468 E0
G1 X72.025 Y59.607 E0
G1 X72.938 Y59.828 E0
G1 X73.794 Y60.116 E0
G1 X74.686 Y60.506 E0
G1 X75.507 Y60.959 E0
G1 X76.258 Y61.461 E0
G1 X77.017 Y62.073 E0
G1 X77.691 Y62.726 E0
G1 X78.305 Y63.435 E0
G1 X78.855 Y64.196 E0
G1 X79.317 Y64.972 E0
G1 X79.74 Y65.849 E0
G1 X80.069 Y66.727 E0
G1 X80.32 Y67.632 E0
G1 X80.491 Y68.559 E0
G1 X80.586 Y69.689 E0
G1 X80.6 Y70.33 E0
G1 X80.599 Y79.422 E0
G1 X80.581 Y80.443 E0
G1 X80.552 Y81.126 E0
G1 X80.478 Y83.748 E0
G1 X80.478 Y86.271 E0
G1 X80.6 Y90.33 E0
G1 X80.599 Y109.395 E0
G1 X80.589 Y110.14 E0
G1 X80.535 Y111.077 E0
G1 X80.397 Y112.006 E0
G1 X80.178 Y112.918 E0
G1 X79.88 Y113.808 E0
G1 X79.503 Y114.668 E0
G1 X79.053 Y115.49 E0
G1 X78.531 Y116.271 E0
G1 X77.942 Y117.001 E0
G1 X77.317 Y117.652 E0
G1 X76.582 Y118.293 E0
G1 X75.822 Y118.843 E0
G1 X75.016 Y119.324 E0
G1 X74.171 Y119.732 E0
G1 X73.293 Y120.063 E0
G1 X72.389 Y120.316 E0
G1 X71.462 Y120.488 E0
G1 X70.311 Y120.586 E0
G1 X69.67 Y120.6 E0
G1 X60.555 Y120.599 E0
G1 X59.855 Y120.589 E0
G1 X58.902 Y120.532 E0
G1 X57.973 Y120.393 E0
G1 X57.06 Y120.172 E0
G1 X56.204 Y119.884 E0
G1 X55.313 Y119.494 E0
G1 X54.49 Y119.041 E0
G1 X53.712 Y118.517 E0
G1 X52.983 Y117.927 E0
G1 X52.307 Y117.275 E0
G1 X51.693 Y116.565 E0
G1 X51.145 Y115.804 E0
G1 X50.666 Y115.001 E0
G1 X50.353 Y114.366 E0
G1 X49.886 Y113.336 E0
G1 X49.585 Y112.645 E0
G1 X48.513 Y110.366 E0
G1 X47.384 Y108.13 E0
G1 X46.158 Y105.865 E0
G1 X44.907 Y103.704 E0
G1 X43.592 Y101.569 E0
G1 X42.191 Y99.434 E0
G1 X40.753 Y97.375 E0
G1 X39.243 Y95.335 E0
G1 X37.68 Y93.346 E0
G1 X36.056 Y91.394 E0
G1 X34.394 Y89.507 E0
G1 X32.259 Y87.226 E0
G1 X31.672 Y86.54 E0
G1 X31.106 Y85.747 E0
G1 X30.633 Y84.937 E0
G1 X30.232 Y84.088 E0
G1 X29.909 Y83.208 E0
G1 X29.664 Y82.301 E0
G1 X29.5 Y81.374 E0
G1 X29.415 Y80.318 E0
G1 X29.4 Y79.67 E0
G1 X29.401 Y70.531 E0
G1 X29.411 Y69.848 E0
G1 X29.466 Y68.911 E0
G1 X29.605 Y67.983 E0
G1 X29.825 Y67.071 E0
G1 X30.125 Y66.181 E0
G1 X30.502 Y65.322 E0
G1 X30.953 Y64.5 E0
G1 X31.476 Y63.72 E0
G1 X32.043 Y63.016 E0
G1 X32.718 Y62.315 E0
G1 X33.427 Y61.7 E0
G1 X34.159 Y61.17 E0
G1 X34.995 Y60.671 E0
G0 F6000 X35.169 Y61.031
G1 F1200 X35.982 Y60.638 E0
G1 X36.827 Y60.318 E0
G1 X37.696 Y60.075 E0
G1 X38.584 Y59.909 E0
G1 X39.723 Y59.813 E0
G1 X40.33 Y59.8 E0
G1 X69.293 Y59.8 E0
G1 X70.137 Y59.811 E0
G1 X71.039 Y59.864 E0
G1 X71.932 Y59.996 E0
G1 X72.81 Y60.207 E0
G1 X73.666 Y60.495 E0
G1 X74.493 Y60.857 E0
G1 X75.285 Y61.292 E0
G1 X76.036 Y61.794 E0
G1 X76.739 Y62.361 E0
G1 X77.389 Y62.988 E0
G1 X77.981 Y63.67 E0
G1 X78.511 Y64.401 E0
G1 X78.973 Y65.177 E0
G1 X79.366 Y65.99 E0
G1 X79.684 Y66.835 E0
G1 X79.927 Y67.705 E0
G1 X80.092 Y68.593 E0
G1 X80.187 Y69.723 E0
G1 X80.2 Y70.33 E0
G1 X80.199 Y79.415 E0
G1 X80.181 Y80.426 E0
G1 X80.152 Y81.109 E0
G1 X80.078 Y83.737 E0
G1 X80.078 Y86.271 E0
G1 X80.2 Y90.33 E0
G1 X80.199 Y109.39 E0
G1 X80.19 Y110.117 E0
G1 X80.139 Y111.019 E0
G1 X80.008 Y111.913 E0
G1 X79.799 Y112.791 E0
G1 X79.513 Y113.648 E0
G1 X79.152 Y114.476 E0
G1 X78.72 Y115.268 E0
G1 X78.219 Y116.02 E0
G1 X77.653 Y116.724 E0
G1 X77.028 Y117.375 E0
G1 X76.347 Y117.969 E0
G1 X75.616 Y118.5 E0
G1 X74.842 Y118.964 E0
G1 X74.029 Y119.358 E0
G1 X73.185 Y119.678 E0
G1 X72.315 Y119.923 E0
G1 X71.428 Y120.089 E0
G1 X70.277 Y120.187 E0
G1 X69.67 Y120.2 E0
G1 X60.561 Y120.199 E0
G1 X59.861 Y120.189 E0
G1 X58.96 Y120.136 E0
G1 X58.066 Y120.004 E0
G1 X57.188 Y119.793 E0
G1 X56.332 Y119.505 E0
G1 X55.505 Y119.143 E0
G1 X54.713 Y118.709 E0
G1 X53.963 Y118.206 E0
G1 X53.26 Y117.639 E0
G1 X52.609 Y117.013 E0
G1 X52.017 Y116.331 E0
G1 X51.488 Y115.599 E0
G1 X51.025 Y114.824 E0
G1 X50.717 Y114.201 E0
G1 X50.253 Y113.176 E0
G1 X49.952 Y112.485 E0
G1 X48.875 Y110.196 E0
G1 X47.741 Y107.95 E0
G1 X46.51 Y105.675 E0
G1 X45.248 Y103.494 E0
G1 X43.932 Y101.359 E0
G1 X42.519 Y99.205 E0
G1 X41.075 Y97.137 E0
G1 X39.565 Y95.097 E0
G1 X37.995 Y93.099 E0
G1 X36.363 Y91.138 E0
G1 X34.694 Y89.243 E0
G1 X32.563 Y86.966 E0
G1 X31.976 Y86.28 E0
G1 X31.451 Y85.545 E0
G1 X30.994 Y84.766 E0
G1 X30.607 Y83.95 E0
G1 X30.295 Y83.103 E0
G1 X30.058 Y82.231 E0
G1 X29.899 Y81.342 E0
G1 X29.815 Y80.309 E0
G1 X29.8 Y79.67 E0
G1 X29.801 Y70.536 E0
G1 X29.81 Y69.871 E0
G1 X29.862 Y68.969 E0
G1 X29.994 Y68.076 E0
G1 X30.204 Y67.198 E0
G1 X30.491 Y66.341 E0
G1 X30.853 Y65.514 E0
G1 X31.286 Y64.722 E0
G1 X31.788 Y63.971 E0
G1 X32.355 Y63.267 E0
G1 X32.981 Y62.617 E0
G1 X33.662 Y62.024 E0
G1 X34.394 Y61.494 E0
G1 X35.169 Y61.031 E0
G1 F1500 E0
; MESH:basic test.3mf
G0 F6000 X40.414 Y69.335
G0 X69.4 Y79.4
; TYPE:WALL-INNER
G1 F1500 E0
G1 F1200 X69.4 Y70.6 E0
G1 X40.6 Y70.6 E0
G1 X40.6 Y79.4 E0
G1 X69.4 Y79.4 E0
G0 F6000 X69.8 Y79.8
; TYPE:WALL-OUTER
G1 F1200 X69.8 Y70.2 E0
G1 X40.2 Y70.2 E0
G1 X40.2 Y79.8 E0
G1 X69.8 Y79.8 E0
G0 F6000 X69.53 Y79.53
G0 X69.3 Y79.04
G0 X69.04 Y79.04
; TYPE:SKIN
G1 F1200 X40.96 Y79.04 E0
G1 X40.96 Y70.96 E0
G1 X69.04 Y70.96 E0
G1 X69.04 Y79.04 E0
G0 F6000 X69.3 Y79.04
G0 X69.3 Y71.668
G0 X68.839 Y71.668
G1 F1200 X68.331 Y71.159 E0
G0 F6000 X67.765 Y71.159
G1 F1200 X68.839 Y72.233 E0
G0 F6000 X68.839 Y72.799
G1 F1200 X67.199 Y71.159 E0
G0 F6000 X66.634 Y71.159
G1 F1200 X68.839 Y73.365 E0
G0 F6000 X68.839 Y73.93
G1 F1200 X66.068 Y71.159 E0
G0 F6000 X65.502 Y71.159
G1 F1200 X68.839 Y74.496 E0
G0 F6000 X68.839 Y75.062
G1 F1200 X64.937 Y71.159 E0
G0 F6000 X64.371 Y71.159
G1 F1200 X68.839 Y75.627 E0
G0 F6000 X68.839 Y76.193
G1 F1200 X63.805 Y71.159 E0
G0 F6000 X63.24 Y71.159
G1 F1200 X68.839 Y76.759 E0
G0 F6000 X68.839 Y77.324
G1 F1200 X62.674 Y71.159 E0
G0 F6000 X62.108 Y71.159
G1 F1200 X68.839 Y77.89 E0
G0 F6000 X68.839 Y78.456
G1 F1200 X61.543 Y71.159 E0
G0 F6000 X60.977 Y71.159
G1 F1200 X68.656 Y78.838 E0
G0 F6000 X68.09 Y78.838
G1 F1200 X60.411 Y71.159 E0
G0 F6000 X59.845 Y71.159
G1 F1200 X67.525 Y78.838 E0
G0 F6000 X66.959 Y78.838
G1 F1200 X59.28 Y71.159 E0
G0 F6000 X58.714 Y71.159
G1 F1200 X66.393 Y78.838 E0
G0 F6000 X65.828 Y78.838
G1 F1200 X58.148 Y71.159 E0
G0 F6000 X57.583 Y71.159
G1 F1200 X65.262 Y78.838 E0
G0 F6000 X64.696 Y78.838
G1 F1200 X57.017 Y71.159 E0
G0 F6000 X56.451 Y71.159
G1 F1200 X64.131 Y78.838 E0
G0 F6000 X63.565 Y78.838
G1 F1200 X55.886 Y71.159 E0
G0 F6000 X55.32 Y71.159
G1 F1200 X62.999 Y78.838 E0
G0 F6000 X62.433 Y78.838
G1 F1200 X54.754 Y71.159 E0
G0 F6000 X54.189 Y71.159
G1 F1200 X61.868 Y78.838 E0
G0 F6000 X61.302 Y78.838
G1 F1200 X53.623 Y71.159 E0
G0 F6000 X53.057 Y71.159
G1 F1200 X60.736 Y78.838 E0
G0 F6000 X60.171 Y78.838
G1 F1200 X52.492 Y71.159 E0
G0 F6000 X51.926 Y71.159
G1 F1200 X59.605 Y78.838 E0
G0 F6000 X59.039 Y78.838
G1 F1200 X51.36 Y71.159 E0
G0 F6000 X50.795 Y71.159
G1 F1200 X58.474 Y78.838 E0
G0 F6000 X57.908 Y78.838
G1 F1200 X50.229 Y71.159 E0
G0 F6000 X49.663 Y71.159
G1 F1200 X57.342 Y78.838 E0
G0 F6000 X56.777 Y78.838
G1 F1200 X49.097 Y71.159 E0
G0 F6000 X48.532 Y71.159
G1 F1200 X56.211 Y78.838 E0
G0 F6000 X55.645 Y78.838
G1 F1200 X47.966 Y71.159 E0
G0 F6000 X47.4 Y71.159
G1 F1200 X55.08 Y78.838 E0
G0 F6000 X54.514 Y78.838
G1 F1200 X46.835 Y71.159 E0
G0 F6000 X46.269 Y71.159
G1 F1200 X53.948 Y78.838 E0
G0 F6000 X53.383 Y78.838
G1 F1200 X45.703 Y71.159 E0
G0 F6000 X45.138 Y71.159
G1 F1200 X52.817 Y78.838 E0
G0 F6000 X52.251 Y78.838
G1 F1200 X44.572 Y71.159 E0
G0 F6000 X44.006 Y71.159
G1 F1200 X51.685 Y78.838 E0
G0 F6000 X51.12 Y78.838
G1 F1200 X43.441 Y71.159 E0
G0 F6000 X42.875 Y71.159
G1 F1200 X50.554 Y78.838 E0
G0 F6000 X49.988 Y78.838
G1 F1200 X42.309 Y71.159 E0
G0 F6000 X41.744 Y71.159
G1 F1200 X49.423 Y78.838 E0
G0 F6000 X48.857 Y78.838
G1 F1200 X41.178 Y71.159 E0
G0 F6000 X41.159 Y71.706
G1 F1200 X48.291 Y78.838 E0
G0 F6000 X47.726 Y78.838
G1 F1200 X41.159 Y72.272 E0
G0 F6000 X41.159 Y72.838
G1 F1200 X47.16 Y78.838 E0
G0 F6000 X46.594 Y78.838
G1 F1200 X41.159 Y73.404 E0
G0 F6000 X41.159 Y73.969
G1 F1200 X46.029 Y78.838 E0
G0 F6000 X45.463 Y78.838
G1 F1200 X41.159 Y74.535 E0
G0 F6000 X41.159 Y75.101
G1 F1200 X44.897 Y78.838 E0
G0 F6000 X44.332 Y78.838
G1 F1200 X41.159 Y75.666 E0
G0 F6000 X41.159 Y76.232
G1 F1200 X43.766 Y78.838 E0
G0 F6000 X43.2 Y78.838
G1 F1200 X41.159 Y76.798 E0
G0 F6000 X41.159 Y77.363
G1 F1200 X42.635 Y78.838 E0
G0 F6000 X42.069 Y78.838
G1 F1200 X41.159 Y77.929 E0
G0 F6000 X41.159 Y78.495
G1 F1200 X41.503 Y78.838 E0
G1 F1500 E0
; MESH:basic test.3mf(1)
G0 F6000 X41.503 Y79.3
G0 X60.6 Y79.58
G0 X60.6 Y80.665
G0 X60.6 Y89.335
G0 X60.6 Y109.4
; TYPE:WALL-INNER
G1 F1500 E0
G1 F1200 X69.4 Y109.4 E0
G1 X69.4 Y90.6 E0
G1 X60.6 Y90.6 E0
G1 X60.6 Y109.4 E0
G0 F6000 X60.2 Y109.8
; TYPE:WALL-OUTER
G1 F1200 X69.8 Y109.8 E0
G1 X69.8 Y90.2 E0
G1 X60.2 Y90.2 E0
G1 X60.2 Y109.8 E0
G0 F6000 X60.47 Y109.53
G0 X60.7 Y109.04
G0 X60.96 Y109.04
; TYPE:SKIN
G1 F1200 X60.96 Y90.96 E0
G1 X69.04 Y90.96 E0
G1 X69.04 Y109.04 E0
G1 X60.96 Y109.04 E0
G0 F6000 X61.321 Y108.839
G1 F1200 X61.159 Y108.677 E0
G0 F6000 X61.159 Y108.111
G1 F1200 X61.887 Y108.839 E0
G0 F6000 X62.453 Y108.839
G1 F1200 X61.159 Y107.545 E0
G0 F6000 X61.159 Y106.98
G1 F1200 X63.018 Y108.839 E0
G0 F6000 X63.584 Y108.839
G1 F1200 X61.159 Y106.414 E0
G0 F6000 X61.159 Y105.848
G1 F1200 X64.15 Y108.839 E0
G0 F6000 X64.715 Y108.839
G1 F1200 X61.159 Y105.283 E0
G0 F6000 X61.159 Y104.717
G1 F1200 X65.281 Y108.839 E0
G0 F6000 X65.847 Y108.839
G1 F1200 X61.159 Y104.151 E0
G0 F6000 X61.159 Y103.586
G1 F1200 X66.412 Y108.839 E0
G0 F6000 X66.978 Y108.839
G1 F1200 X61.159 Y103.02 E0
G0 F6000 X61.159 Y102.454
G1 F1200 X67.544 Y108.839 E0
G0 F6000 X68.109 Y108.839
G1 F1200 X61.159 Y101.889 E0
G0 F6000 X61.159 Y101.323
G1 F1200 X68.675 Y108.839 E0
G0 F6000 X68.84 Y108.438
G1 F1200 X61.159 Y100.757 E0
G0 F6000 X61.159 Y100.192
G1 F1200 X68.84 Y107.872 E0
G0 F6000 X68.84 Y107.306
G1 F1200 X61.159 Y99.626 E0
G0 F6000 X61.159 Y99.06
G1 F1200 X68.84 Y106.741 E0
G0 F6000 X68.84 Y106.175
G1 F1200 X61.159 Y98.495 E0
G0 F6000 X61.159 Y97.929
G1 F1200 X68.84 Y105.609 E0
G0 F6000 X68.84 Y105.044
G1 F1200 X61.159 Y97.363 E0
G0 F6000 X61.159 Y96.797
G1 F1200 X68.84 Y104.478 E0
G0 F6000 X68.84 Y103.912
G1 F1200 X61.159 Y96.232 E0
G0 F6000 X61.159 Y95.666
G1 F1200 X68.84 Y103.347 E0
G0 F6000 X68.84 Y102.781
G1 F1200 X61.159 Y95.1 E0
G0 F6000 X61.159 Y94.535
G1 F1200 X68.84 Y102.215 E0
G0 F6000 X68.84 Y101.65
G1 F1200 X61.159 Y93.969 E0
G0 F6000 X61.159 Y93.403
G1 F1200 X68.84 Y101.084 E0
G0 F6000 X68.84 Y100.518
G1 F1200 X61.159 Y92.838 E0
G0 F6000 X61.159 Y92.272
G1 F1200 X68.84 Y99.953 E0
G0 F6000 X68.84 Y99.387
G1 F1200 X61.159 Y91.706 E0
G0 F6000 X61.178 Y91.159
G1 F1200 X68.84 Y98.821 E0
G0 F6000 X68.84 Y98.256
G1 F1200 X61.743 Y91.159 E0
G0 F6000 X62.309 Y91.159
G1 F1200 X68.84 Y97.69 E0
G0 F6000 X68.84 Y97.124
G1 F1200 X62.875 Y91.159 E0
G0 F6000 X63.44 Y91.159
G1 F1200 X68.84 Y96.558 E0
G0 F6000 X68.84 Y95.993
G1 F1200 X64.006 Y91.159 E0
G0 F6000 X64.572 Y91.159
G1 F1200 X68.84 Y95.427 E0
G0 F6000 X68.84 Y94.861
G1 F1200 X65.137 Y91.159 E0
G0 F6000 X65.703 Y91.159
G1 F1200 X68.84 Y94.296 E0
G0 F6000 X68.84 Y93.73
G1 F1200 X66.269 Y91.159 E0
G0 F6000 X66.835 Y91.159
G1 F1200 X68.84 Y93.164 E0
G0 F6000 X68.84 Y92.599
G1 F1200 X67.4 Y91.159 E0
G0 F6000 X67.966 Y91.159
G1 F1200 X68.84 Y92.033 E0
G0 F6000 X68.84 Y91.467
G1 F1200 X68.532 Y91.159 E0
M104 S200
G1 F1500 E0
; MESH:NONMESH
; ::: End layer 0 postamble :::
; ====== End layer 0 ====
; ==== Start layer 1 ====
; ::: Layer 1 preamble :::
G0 F300 X68.532 Y91.159 Z0.4
G0 F6000 X68.532 Y90.7
G0 X60.414 Y90.414
G0 X60.414 Y89.335
G0 X39.347 Y80.653
; ::: End layer 1 preamble :::
; Layer 1 - <Step 1.0> Rotate thread at {-21.50,   0.00,   0.40} to overlap next anchor at { 47.00,  70.20,   0.40}> -------------------------
M117 Ring -38.200
G0 A-85.17079 F5000 ; Rotate  90.00° →  45.70° ({-21.50,   0.00,   0.40}),  ⃘46.971°
; Layer 1 - <Step 1.1 (1 segments)>: Print 1 segment to fix anchor> -------------------------
G0 Z1.4 F200 ; gfunc_move_axis(G0 F1350 X69.8 Y70.2 Z0.4 ; Converted to xy move (fake from [749])) raise head by 1 to avoid thread snag
G0 F1350 ; Returning original feed rate
G0 F500 X69.8 Y70.2 Z0.4 ; Move type: non_extruding, Feed rate: 500, Ext. mult: -1
G0 F1350 ; Returning original feed rate
G0 Z0.4 F200 ; Drop head back to original location
G0 F1350 ; Returning original feed rate
G0 Z1.4 F200 ; gfunc_move_axis(G1 X40.2 Y70.2 E0 ; [750]) raise head by 1 to avoid thread snag
G0 F1350 ; Returning original feed rate
G1 X40.2 Y70.2 E0 F500 ; Move type: anchor_fixing, Feed rate: 500, Ext. mult: 3
G0 F1350 ; Returning original feed rate
G4 S2 ; Pause for 2 sec after move
G0 Z0.4 F200 ; Drop head back to original location
G0 F1350 ; Returning original feed rate
; Layer 1 - <Step 1.2> Rotate thread at { 47.00,  70.20,   0.40} to overlap next anchor at { 65.00,  79.80,   0.40}> -------------------------
M117 Ring 5.201
G0 A-20.88488 F5000 ; Move and rotate  45.70°/{-21.50,   0.00,   0.40} →  28.07°/{ 47.00,  70.20,   0.40},  ⃘26.086°
; Layer 1 - <Step 1.3 (1 segments)>: Print 1 segment to fix anchor> -------------------------
G0 X40.2 Y79.8 Z0.4
G0 Z1.4 F200 ; gfunc_move_axis(G1 X69.8 Y79.8 E0 ; [752]) raise head by 1 to avoid thread snag
G0 F1350 ; Returning original feed rate
G1 X69.8 Y79.8 E0 F500 ; Move type: anchor_fixing, Feed rate: 500, Ext. mult: 3
G0 F1350 ; Returning original feed rate
G4 S2 ; Pause for 2 sec after move
G0 Z0.4 F200 ; Drop head back to original location
G0 F1350 ; Returning original feed rate
; Layer 1 - <Step 1.4> Move thread to avoid printing over it with 11 segments?> -------------------------
; Layer 1 - <Step 1.5 (11 segments)>: Print 11 segments thread doesn't intersect> -------------------------
G0 F1350 X69.4 Y70.6 Z0.4 A5.00294
G0 Z1.4 F200 ; gfunc_move_axis(G1 X40.6 Y70.6 E0 ; [744]) raise head by 1 to avoid thread snag
G0 F1350 ; Returning original feed rate
G1 X40.6 Y70.6 E0 ; Move type: extruding, Ext. mult: 1
G0 F1350 ; Returning original feed rate
G0 Z0.4 F200 ; Drop head back to original location
G0 F1350 ; Returning original feed rate
G0 X40.6 Y79.4 Z0.4 A-4.78538
G0 Z1.4 F200 ; gfunc_move_axis(G1 X69.4 Y79.4 E0 ; [746]) raise head by 1 to avoid thread snag
G0 F1350 ; Returning original feed rate
G1 X69.4 Y79.4 E0 ; Move type: extruding, Ext. mult: 1
G0 F1350 ; Returning original feed rate
G0 Z0.4 F200 ; Drop head back to original location
G0 F1350 ; Returning original feed rate
G0 F7500 X64.821 Y79.1 A0.16315
G0 Z1.4 F200 ; gfunc_move_axis(G0 X61.992 Y79.1 ; [763]) raise head by 1 to avoid thread snag
G0 F7500 ; Returning original feed rate
G0 X61.992 Y79.1 F500 ; Move type: non_extruding, Feed rate: 500, Ext. mult: -1
G0 F7500 ; Returning original feed rate
G0 Z0.4 F200 ; Drop head back to original location
G0 F7500 ; Returning original feed rate
G0 X61.992 Y79.319 A-0.1191
G0 Z1.4 F200 ; gfunc_move_axis(G1 F2100 X69.319 Y71.992 E0 ; [765]) raise head by 1 to avoid thread snag
G0 F2100 ; Returning original feed rate
G1 F2100 X69.319 Y71.992 E0 A3.98383 ; Move type: extruding, Ext. mult: 1
G0 F2100 ; Returning original feed rate
G0 Z0.4 F200 ; Drop head back to original location
G0 F2100 ; Returning original feed rate
G0 F7500 X69.1 Y71.992
G0 X67.805 Y70.9 A0.59421
G0 X67.805 Y70.678 A0.12084
G0 Z1.4 F200 ; gfunc_move_axis(G1 F2100 X59.164 Y79.319 E0 ; [769]) raise head by 1 to avoid thread snag
G0 F2100 ; Returning original feed rate
G1 F2100 X59.164 Y79.319 E0 A-4.69887 ; Move type: extruding, Ext. mult: 1
G0 F2100 ; Returning original feed rate
G0 Z0.4 F200 ; Drop head back to original location
G0 F2100 ; Returning original feed rate
G0 F7500 X59.164 Y79.1 A0.1191
G0 X56.335 Y79.1
G0 X56.335 Y79.319 A-0.1191
G0 Z1.4 F200 ; gfunc_move_axis(G1 F2100 X64.976 Y70.678 E0 ; [773]) raise head by 1 to avoid thread snag
G0 F2100 ; Returning original feed rate
G1 F2100 X64.976 Y70.678 E0 A4.69887 ; Move type: extruding, Ext. mult: 1
G0 F2100 ; Returning original feed rate
G0 Z0.4 F200 ; Drop head back to original location
G0 F2100 ; Returning original feed rate
G0 F7500 X64.976 Y70.9 A-0.12084
G0 X62.148 Y70.9
G0 X62.148 Y70.678 A0.12084
G0 Z1.4 F200 ; gfunc_move_axis(G1 F2100 X53.507 Y79.319 E0 ; [777]) raise head by 1 to avoid thread snag
G0 F2100 ; Returning original feed rate
G1 F2100 X53.507 Y79.319 E0 A-4.69887 ; Move type: extruding, Ext. mult: 1
G0 F2100 ; Returning original feed rate
G0 Z0.4 F200 ; Drop head back to original location
G0 F2100 ; Returning original feed rate
G0 F7500 X53.507 Y79.1 A0.1191
G0 X50.679 Y79.1
G0 X50.679 Y79.319 A-0.1191
G0 Z1.4 F200 ; gfunc_move_axis(G1 F2100 X59.319 Y70.678 E0 ; [781]) raise head by 1 to avoid thread snag
G0 F2100 ; Returning original feed rate
G1 F2100 X59.319 Y70.678 E0 A4.69887 ; Move type: extruding, Ext. mult: 1
G0 F2100 ; Returning original feed rate
G0 Z0.4 F200 ; Drop head back to original location
G0 F2100 ; Returning original feed rate
G0 F7500 X59.319 Y70.9 A-0.12084
G0 X56.491 Y70.9
G0 X56.491 Y70.678 A0.12084
G0 Z1.4 F200 ; gfunc_move_axis(G1 F2100 X47.85 Y79.319 E0 ; [785]) raise head by 1 to avoid thread snag
G0 F2100 ; Returning original feed rate
G1 F2100 X47.85 Y79.319 E0 A-4.69887 ; Move type: extruding, Ext. mult: 1
G0 F2100 ; Returning original feed rate
G0 Z0.4 F200 ; Drop head back to original location
G0 F2100 ; Returning original feed rate
G0 F7500 X47.85 Y79.1 A0.1191
G0 X45.022 Y79.1
G0 X45.022 Y79.319 A-0.1191
G0 Z1.4 F200 ; gfunc_move_axis(G1 F2100 X53.663 Y70.678 E0 ; [789]) raise head by 1 to avoid thread snag
G0 F2100 ; Returning original feed rate
G1 F2100 X53.663 Y70.678 E0 A4.69887 ; Move type: extruding, Ext. mult: 1
G0 F2100 ; Returning original feed rate
G0 Z0.4 F200 ; Drop head back to original location
G0 F2100 ; Returning original feed rate
G0 F7500 X53.663 Y70.9 A-0.12084
G0 X50.834 Y70.9
G0 X50.834 Y70.678 A0.12084
G0 Z1.4 F200 ; gfunc_move_axis(G1 F2100 X42.193 Y79.319 E0 ; [793]) raise head by 1 to avoid thread snag
G0 F2100 ; Returning original feed rate
G1 F2100 X42.193 Y79.319 E0 A-4.69887 ; Move type: extruding, Ext. mult: 1
G0 F2100 ; Returning original feed rate
G0 Z0.4 F200 ; Drop head back to original location
G0 F2100 ; Returning original feed rate
G0 F7500 X42.193 Y79.1 A0.1191
G0 X40.9 Y78.005 A0.5954
G0 X40.679 Y78.005
G0 Z1.4 F200 ; gfunc_move_axis(G1 F2100 X48.006 Y70.678 E0 ; [797]) raise head by 1 to avoid thread snag
G0 F2100 ; Returning original feed rate
G1 F2100 X48.006 Y70.678 E0 A3.98437 ; Move type: extruding, Ext. mult: 1
G0 F2100 ; Returning original feed rate
G0 Z0.4 F200 ; Drop head back to original location
G0 F2100 ; Returning original feed rate
; Layer 1 - <Step 1.6> Move thread to avoid printing over it with 129 segments?> -------------------------
; Layer 1 - <Step 1.7 (128 segments)>: Print 128 segments thread doesn't intersect> -------------------------
G0 X35.169 Y61.031 Z0.4 A5.27124
G1 F1200 X35.982 Y60.638 E0 A0.21593
G1 X36.827 Y60.318 E0 A0.17591
G1 X37.696 Y60.075 E0 A0.13363
G1 X38.584 Y59.909 E0
G1 X39.723 Y59.813 E0 A0.14414
G1 X40.33 Y59.8 E0
G1 X69.293 Y59.8 E0
G1 X70.137 Y59.811 E0
G1 X71.039 Y59.864 E0
G1 X71.932 Y59.996 E0
G1 X72.81 Y60.207 E0 A-0.21673
G1 X73.666 Y60.495 E0 A-0.15835
G1 X74.493 Y60.857 E0 A-0.19894
G1 X75.285 Y61.292 E0 A-0.23892
G1 X76.036 Y61.794 E0 A-0.27555
G1 X76.739 Y62.361 E0 A-0.31101
G1 X77.389 Y62.988 E0 A-0.34366
G1 X77.981 Y63.67 E0 A-0.37351
G1 X78.511 Y64.401 E0 A-0.40002
G1 X78.973 Y65.177 E0 A-0.42431
G1 X79.366 Y65.99 E0 A-0.44419
G1 X79.684 Y66.835 E0 A-0.46132
G1 X79.927 Y67.705 E0 A-0.47462
G1 X80.092 Y68.593 E0 A-0.48412
G1 X80.187 Y69.723 E0 A-0.61563
G1 X80.2 Y70.33 E0 A-0.33053
G1 X80.199 Y79.415 E0 A-4.94053
G1 X80.181 Y80.426 E0 A-0.54994
G1 X80.152 Y81.109 E0 A-0.37164
G1 X80.078 Y83.737 E0 A-1.43117
G1 X80.078 Y86.271 E0 A-1.38241
G0 Z1.4 F200 ; gfunc_move_axis(G0 X80.2 Y90.33 Z0.4 ; Converted to xy move (fake from [662])) raise head by 1 to avoid thread snag
G0 F1200 ; Returning original feed rate
G0 X80.2 Y90.33 Z0.4 A-2.22145 F500 ; Move type: non_extruding, Feed rate: 500, Ext. mult: -1
G0 F1200 ; Returning original feed rate
G0 Z0.4 F200 ; Drop head back to original location
G0 F1200 ; Returning original feed rate
G1 X80.199 Y109.39 E0 A-10.6515
G1 X80.19 Y110.117 E0 A-0.41696
G1 X80.139 Y111.019 E0 A-0.51878
G1 X80.008 Y111.913 E0 A-0.51581
G1 X79.799 Y112.791 E0 A-0.50821
G1 X79.513 Y113.648 E0 A-0.49767
G1 X79.152 Y114.476 E0 A-0.4824
G1 X78.72 Y115.268 E0 A-0.46291
G1 X78.219 Y116.02 E0 A-0.44092
G1 X77.653 Y116.724 E0 A-0.41404
G1 X77.028 Y117.375 E0 A-0.38398
G1 X76.347 Y117.969 E0 A-0.35132
G1 X75.616 Y118.5 E0 A-0.31484
G1 X74.842 Y118.964 E0 A-0.27574
G1 X74.029 Y119.358 E0 A-0.23461
G1 X73.185 Y119.678 E0 A-0.19086
G1 X72.315 Y119.923 E0 A-0.14632
G1 X71.428 Y120.089 E0
G1 X70.277 Y120.187 E0 A-0.15786
G1 X69.67 Y120.2 E0
G1 X60.561 Y120.199 E0
G1 X59.861 Y120.189 E0
G1 X58.96 Y120.136 E0
G1 X58.066 Y120.004 E0
G1 X57.188 Y119.793 E0 A0.23552
G1 X56.332 Y119.505 E0 A0.17188
G1 X55.505 Y119.143 E0 A0.21572
G1 X54.713 Y118.709 E0 A0.25814
G1 X53.963 Y118.206 E0 A0.29854
G1 X53.26 Y117.639 E0 A0.33572
G1 X52.609 Y117.013 E0 A0.36968
G1 X52.017 Y116.331 E0 A0.40161
G1 X51.488 Y115.599 E0 A0.42977
G1 X51.025 Y114.824 E0 A0.4536
G1 X50.717 Y114.201 E0 A0.36361
G1 X50.253 Y113.176 E0 A0.59631
G1 X49.952 Y112.485 E0 A0.40068
G1 X48.875 Y110.196 E0 A1.32011
G1 X47.741 Y107.95 E0 A1.28529
G1 X46.51 Y105.675 E0 A1.29265
G1 X45.248 Y103.494 E0 A1.23129
G1 X43.932 Y101.359 E0 A1.19847
G1 X42.519 Y99.205 E0 A1.20291
G1 X41.075 Y97.137 E0 A1.14957
G1 X39.565 Y95.097 E0 A1.12943
G1 X37.995 Y93.099 E0 A1.10224
G1 X36.363 Y91.138 E0 A1.07848
G1 X34.694 Y89.243 E0 A1.03941
G1 X32.563 Y86.966 E0 A1.24585
G1 X31.976 Y86.28 E0 A0.37477
G1 X31.451 Y85.545 E0 A0.40128
G1 X30.994 Y84.766 E0 A0.42502
G1 X30.607 Y83.95 E0 A0.44493
G1 X30.295 Y83.103 E0 A0.46157
G1 X30.058 Y82.231 E0 A0.47493
G1 X29.899 Y81.342 E0 A0.48396
G1 X29.815 Y80.309 E0 A0.5621
G1 X29.8 Y79.67 E0 A0.34759
G1 X29.801 Y70.536 E0 A4.96707
G1 X29.81 Y69.871 E0 A0.36207
G1 X29.862 Y68.969 E0 A0.49133
G1 X29.994 Y68.076 E0 A0.48671
G1 X30.204 Y67.198 E0 A0.47885
G1 X30.491 Y66.341 E0 A0.46772
G1 X30.853 Y65.514 E0 A0.45169
G1 X31.286 Y64.722 E0 A0.43291
G1 X31.788 Y63.971 E0 A0.41083
G1 X32.355 Y63.267 E0 A0.38543
G1 X32.981 Y62.617 E0 A0.35615
G1 X33.662 Y62.024 E0 A0.32517
G1 X34.394 Y61.494 E0 A0.29083
G1 X35.169 Y61.031 E0 A0.25424
G1 F1500 E0
; MESH:basic test.3mf
G0 F7500 X40.414 Y69.335 A-4.53993
G0 X40.414 Y70.414 A-0.58759
G0 Z1.4 F200 ; gfunc_move_axis(G0 X69.13 Y79.13 ; [739]) raise head by 1 to avoid thread snag
G0 F7500 ; Returning original feed rate
G0 X69.13 Y79.13 A-4.7398 F500 ; Move type: non_extruding, Feed rate: 500, Ext. mult: -1
G0 F7500 ; Returning original feed rate
G0 Z0.4 F200 ; Drop head back to original location
G0 F7500 ; Returning original feed rate
G0 X69.4 Y79.4 A-0.14684
; TYPE:WALL-INNER
G1 F1500 E0
G1 F1350 X69.4 Y70.6 E0 A4.78538
G0 Z1.4 F200 ; gfunc_move_axis(G0 X40.6 Y70.6 Z0.4 ; Converted to xy move (fake from [744])) raise head by 1 to avoid thread snag
G0 F1350 ; Returning original feed rate
G0 X40.6 Y70.6 Z0.4 F500 ; Move type: non_extruding, Feed rate: 500, Ext. mult: -1
G0 F1350 ; Returning original feed rate
G0 Z0.4 F200 ; Drop head back to original location
G0 F1350 ; Returning original feed rate
G1 X40.6 Y79.4 E0 A-4.78538
G0 Z1.4 F200 ; gfunc_move_axis(G0 F7500 X69.8 Y79.8 Z0.4 ; [747]) raise head by 1 to avoid thread snag
G0 F7500 ; Returning original feed rate
G0 F500 X69.8 Y79.8 Z0.4 A-0.21756 ; Move type: non_extruding, Feed rate: 500, Ext. mult: -1
G0 F7500 ; Returning original feed rate
G0 Z0.4 F200 ; Drop head back to original location
G0 F7500 ; Returning original feed rate
G1 F1350 X69.8 Y70.2 E0 A5.22071
G0 Z1.4 F200 ; gfunc_move_axis(G0 X40.2 Y70.2 Z0.4 ; Converted to xy move (fake from [750])) raise head by 1 to avoid thread snag
G0 F1350 ; Returning original feed rate
G0 X40.2 Y70.2 Z0.4 F500 ; Move type: non_extruding, Feed rate: 500, Ext. mult: -1
G0 F1350 ; Returning original feed rate
G0 Z0.4 F200 ; Drop head back to original location
G0 F1350 ; Returning original feed rate
G1 X40.2 Y79.8 E0 A-5.22071
G0 Z1.4 F200 ; gfunc_move_axis(G0 F7500 X69.53 Y79.53 ; [753]) raise head by 1 to avoid thread snag
G0 F7500 ; Returning original feed rate
G0 F500 X69.53 Y79.53 A0.14685 ; Move type: non_extruding, Feed rate: 500, Ext. mult: -1
G0 F7500 ; Returning original feed rate
G0 Z0.4 F200 ; Drop head back to original location
G0 F7500 ; Returning original feed rate
G0 X67.649 Y79.1 A0.23386
G0 X67.649 Y79.319 A-0.1191
; TYPE:FILL
G1 F2100 X69.319 Y77.649 E0 A0.90805
G0 F7500 X69.1 Y77.649
G0 X69.1 Y74.821 A1.53736
G0 X69.319 Y74.821
G1 F2100 X64.821 Y79.319 E0 A-2.44541
G0 Z1.4 F200 ; gfunc_move_axis(G0 F7500 X48.006 Y70.9 ; [798]) raise head by 1 to avoid thread snag
G0 F7500 ; Returning original feed rate
G0 F500 X48.006 Y70.9 A4.57804 ; Move type: non_extruding, Feed rate: 500, Ext. mult: -1
G0 F7500 ; Returning original feed rate
G0 Z0.4 F200 ; Drop head back to original location
G0 F7500 ; Returning original feed rate
G0 X45.177 Y70.9
G0 X45.177 Y70.678 A0.12084
G1 F2100 X40.679 Y75.176 E0 A-2.44646
G0 F7500 X40.9 Y75.176
G0 X40.9 Y72.348 A1.53775
G0 X40.679 Y72.348
G1 F2100 X42.349 Y70.678 E0 A0.90871
G0 F7500 X42.349 Y71.2 A-0.28411
G1 F1500 E0
; MESH:basic test.3mf(1)
G0 F7500 X60.87 Y79.58 A-4.55671
G0 X60.87 Y80.665 A-0.59023
G0 X60.87 Y89.335 A-4.73113
G0 X60.87 Y90.42 A-0.59488
G0 X60.87 Y109.13 A-10.45324
G0 X60.6 Y109.4 A-0.1546
; TYPE:WALL-INNER
G1 F1500 E0
G1 F1350 X69.4 Y109.4 E0
G1 X69.4 Y90.6 E0 A10.50908
G1 X60.6 Y90.6 E0
G1 X60.6 Y109.4 E0 A-10.50908
G0 F7500 X60.2 Y109.8 Z0.4 A-0.2293
G1 F1350 X69.8 Y109.8 E0
G1 X69.8 Y90.2 E0 A10.95783
G1 X60.2 Y90.2 E0
G1 X60.2 Y109.8 E0 A-10.95783
G0 F7500 X60.47 Y109.53 A0.15481
G0 X61.336 Y109.1 A0.24626
G0 X61.336 Y109.319 A-0.12538
; TYPE:FILL
G1 F2100 X69.319 Y101.336 E0 A4.51758
G0 F7500 X69.1 Y101.336
G0 X69.1 Y104.164 A-1.58881
G0 X69.319 Y104.164
G1 F2100 X64.164 Y109.319 E0 A-2.92877
G0 F7500 X64.164 Y109.1 A0.12538
G0 X66.993 Y109.1
G0 X66.993 Y109.319 A-0.12538
G1 F2100 X69.319 Y106.993 E0 A1.32714
G0 F7500 X69.1 Y106.993
G0 X69.1 Y98.507 A4.76903
G0 X69.319 Y98.507
G1 F2100 X60.68 Y107.147 E0 A-4.8566
G0 F7500 X60.9 Y107.147
G0 X60.9 Y104.318 A1.60234
G0 X60.68 Y104.318
G1 F2100 X69.319 Y95.679 E0 A4.82292
G0 F7500 X69.1 Y95.679
G0 X69.1 Y92.85 A1.56114
G0 X69.319 Y92.85
G1 F2100 X60.68 Y101.49 E0 A-4.79462
G0 F7500 X60.9 Y101.49
G0 X60.9 Y98.661 A1.57914
G0 X60.68 Y98.661
G1 F2100 X68.662 Y90.679 E0 A4.40883
G0 F7500 X68.662 Y90.9 A-0.12131
G0 X65.834 Y90.9
G0 X65.834 Y90.679 A0.12131
G1 F2100 X60.68 Y95.833 E0 A-2.8397
G0 F7500 X60.9 Y95.833
G0 X60.9 Y93.005 A1.561
G0 X60.68 Y93.005
G1 F2100 X63.006 Y90.679 E0 A1.27871
; Layer 1 - <Step 1.8> Move thread to avoid printing over it with 1 segments?> -------------------------
M117 Ring 13.547
G0 A-3.30008 F5000 ; Move and rotate  28.07°/{ 47.00,  70.20,   0.40} →  19.73°/{ 65.00,  79.80,   0.40},  ⃘16.847°
; Layer 1 - <Step 1.9 (1 segments)>: Print 1 segments thread doesn't intersect> -------------------------
G0 X80.078 Y86.271 Z0.4 A-0.54668
G1 X80.2 Y90.33 E0 A-2.36165
; ::: Layer 1 postamble :::
G0 F7500 X63.006 Y91.2 A-0.50734
G1 F1500 E0
; MESH:NONMESH
; ::: End layer 1 postamble :::
; ====== End layer 1 ====
; ==== Start layer 2 ====
; ::: Layer 2 preamble :::
G0 F300 X63.006 Y91.2 Z0.6
G0 F7500 X60.414 Y90.414 A0.45838
G0 X60.414 Y89.335 A0.62864
G0 X39.347 Y80.653 A5.04192
; ::: End layer 2 preamble :::
; Layer 2 - <Step 2.0> Rotate thread at { 65.00,  79.80,   0.60} to overlap next anchor at { 65.00,  90.20,   0.60}> -------------------------
M117 Ring 130.401
G0 A55.42036 F5000 ; Rotate  19.73° →  90.00° ({ 65.00,  79.80,   0.60}),  ⃘74.981°
; Layer 2 - <Step 2.1 (1 segments)>: Print 1 segment to fix anchor> -------------------------
G0 Z1.6 F200 ; gfunc_move_axis(G0 X69.8 Y90.2 Z0.6 ; Converted to xy move (fake from [1070])) raise head by 1 to avoid thread snag
G0 F7500 ; Returning original feed rate
G0 X69.8 Y90.2 Z0.6 F500 ; Move type: non_extruding, Feed rate: 500, Ext. mult: -1
G0 F7500 ; Returning original feed rate
G0 Z0.6 F200 ; Drop head back to original location
G0 F7500 ; Returning original feed rate
G0 Z1.6 F200 ; gfunc_move_axis(G1 X60.2 Y90.2 E0 ; [1071]) raise head by 1 to avoid thread snag
G0 F7500 ; Returning original feed rate
G1 X60.2 Y90.2 E0 F500 ; Move type: anchor_fixing, Feed rate: 500, Ext. mult: 3
G0 F7500 ; Returning original feed rate
G4 S2 ; Pause for 2 sec after move
G0 Z0.6 F200 ; Drop head back to original location
G0 F7500 ; Returning original feed rate
; Layer 2 - <Step 2.2> Move thread to avoid printing over it with 1 segments?> -------------------------
; Layer 2 - <Step 2.3 (1 segments)>: Print 1 segments thread doesn't intersect> -------------------------
G0 X40.2 Y79.8 Z0.6
G0 Z1.6 F200 ; gfunc_move_axis(G1 X69.8 Y79.8 E0 ; [998]) raise head by 1 to avoid thread snag
G0 F7500 ; Returning original feed rate
G1 X69.8 Y79.8 E0 ; Move type: extruding, Ext. mult: 1
G0 F7500 ; Returning original feed rate
G0 Z0.6 F200 ; Drop head back to original location
G0 F7500 ; Returning original feed rate
; Layer 2 - <Step 2.4> Move thread to avoid printing over it with 140 segments?> -------------------------
; Layer 2 - <Step 2.5 (129 segments)>: Print 129 segments thread doesn't intersect> -------------------------
G0 X35.169 Y61.031 Z0.6
G1 F1200 X35.982 Y60.638 E0
G1 X36.827 Y60.318 E0
G1 X37.696 Y60.075 E0
G1 X38.584 Y59.909 E0
G1 X39.723 Y59.813 E0
G1 X40.33 Y59.8 E0
G1 X69.293 Y59.8 E0
G1 X70.137 Y59.811 E0
G1 X71.039 Y59.864 E0
G1 X71.932 Y59.996 E0
G1 X72.81 Y60.207 E0
G1 X73.666 Y60.495 E0
G1 X74.493 Y60.857 E0
G1 X75.285 Y61.292 E0
G1 X76.036 Y61.794 E0
G1 X76.739 Y62.361 E0
G1 X77.389 Y62.988 E0
G1 X77.981 Y63.67 E0
G1 X78.511 Y64.401 E0
G1 X78.973 Y65.177 E0
G1 X79.366 Y65.99 E0
G1 X79.684 Y66.835 E0
G1 X79.927 Y67.705 E0
G1 X80.092 Y68.593 E0
G1 X80.187 Y69.723 E0
G1 X80.2 Y70.33 E0
G1 X80.199 Y79.415 E0
G1 X80.181 Y80.426 E0
G1 X80.152 Y81.109 E0
G1 X80.078 Y83.737 E0
G1 X80.078 Y86.271 E0
G1 X80.2 Y90.33 E0
G1 X80.199 Y109.39 E0
G1 X80.19 Y110.117 E0
G1 X80.139 Y111.019 E0
G1 X80.008 Y111.913 E0
G1 X79.799 Y112.791 E0
G1 X79.513 Y113.648 E0
G1 X79.152 Y114.476 E0
G1 X78.72 Y115.268 E0
G1 X78.219 Y116.02 E0
G1 X77.653 Y116.724 E0
G1 X77.028 Y117.375 E0
G1 X76.347 Y117.969 E0
G1 X75.616 Y118.5 E0
G1 X74.842 Y118.964 E0
G1 X74.029 Y119.358 E0
G1 X73.185 Y119.678 E0
G1 X72.315 Y119.923 E0
G1 X71.428 Y120.089 E0
G1 X70.277 Y120.187 E0
G1 X69.67 Y120.2 E0
G0 Z1.6 F200 ; gfunc_move_axis(G0 X60.561 Y120.199 Z0.6 ; Converted to xy move (fake from [929])) raise head by 1 to avoid thread snag
G0 F1200 ; Returning original feed rate
G0 X60.561 Y120.199 Z0.6 F500 ; Move type: non_extruding, Feed rate: 500, Ext. mult: -1
G0 F1200 ; Returning original feed rate
G0 Z0.6 F200 ; Drop head back to original location
G0 F1200 ; Returning original feed rate
G1 X59.861 Y120.189 E0
G1 X58.96 Y120.136 E0
G1 X58.066 Y120.004 E0
G1 X57.188 Y119.793 E0
G1 X56.332 Y119.505 E0
G1 X55.505 Y119.143 E0
G1 X54.713 Y118.709 E0
G1 X53.963 Y118.206 E0
G1 X53.26 Y117.639 E0
G1 X52.609 Y117.013 E0
G1 X52.017 Y116.331 E0
G1 X51.488 Y115.599 E0
G1 X51.025 Y114.824 E0
G1 X50.717 Y114.201 E0
G1 X50.253 Y113.176 E0
G1 X49.952 Y112.485 E0
G1 X48.875 Y110.196 E0
G1 X47.741 Y107.95 E0
G1 X46.51 Y105.675 E0
G1 X45.248 Y103.494 E0
G1 X43.932 Y101.359 E0
G1 X42.519 Y99.205 E0
G1 X41.075 Y97.137 E0
G1 X39.565 Y95.097 E0
G1 X37.995 Y93.099 E0
G1 X36.363 Y91.138 E0
G1 X34.694 Y89.243 E0
G1 X32.563 Y86.966 E0
G1 X31.976 Y86.28 E0
G1 X31.451 Y85.545 E0
G1 X30.994 Y84.766 E0
G1 X30.607 Y83.95 E0
G1 X30.295 Y83.103 E0
G1 X30.058 Y82.231 E0
G1 X29.899 Y81.342 E0
G1 X29.815 Y80.309 E0
G1 X29.8 Y79.67 E0
G1 X29.801 Y70.536 E0
G1 X29.81 Y69.871 E0
G1 X29.862 Y68.969 E0
G1 X29.994 Y68.076 E0
G1 X30.204 Y67.198 E0
G1 X30.491 Y66.341 E0
G1 X30.853 Y65.514 E0
G1 X31.286 Y64.722 E0
G1 X31.788 Y63.971 E0
G1 X32.355 Y63.267 E0
G1 X32.981 Y62.617 E0
G1 X33.662 Y62.024 E0
G1 X34.394 Y61.494 E0
G1 X35.169 Y61.031 E0
G1 F1500 E0
; MESH:basic test.3mf
G0 F9000 X40.414 Y69.335
G0 X40.414 Y70.414
G0 X69.13 Y79.13
G0 X69.4 Y79.4
; TYPE:WALL-INNER
G1 F1500 E0
G1 X69.4 Y70.6 E0
G1 X40.6 Y70.6 E0
G1 X40.6 Y79.4 E0
G1 X69.4 Y79.4 E0
G0 F9000 X69.8 Y79.8 Z0.6
G1 F1500 X69.8 Y70.2 E0
G1 X40.2 Y70.2 E0
G1 X40.2 Y79.8 E0
G0 F9000 X69.53 Y79.53
G0 X69.1 Y78.005
G0 X69.319 Y78.005
; TYPE:FILL
G1 F3000 X61.993 Y70.679 E0
G0 F9000 X61.993 Y70.9
G0 X59.165 Y70.9
G0 X59.165 Y70.679
G1 F3000 X67.804 Y79.318 E0
G0 F9000 X67.804 Y79.1
G0 X64.976 Y79.1
G0 X64.976 Y79.318
G1 F3000 X56.336 Y70.679 E0
G0 F9000 X56.336 Y70.9
G0 X53.508 Y70.9
G0 X53.508 Y70.679
G1 F3000 X62.147 Y79.318 E0
G0 F9000 X62.147 Y79.1
G0 X59.319 Y79.1
G0 X59.319 Y79.318
G1 F3000 X50.679 Y70.679 E0
G0 F9000 X50.679 Y70.9
G0 X47.851 Y70.9
G0 X47.851 Y70.679
G1 F3000 X56.49 Y79.318 E0
G0 F9000 X56.49 Y79.1
G0 X53.662 Y79.1
G0 X53.662 Y79.318
G1 F3000 X45.022 Y70.679 E0
G0 F9000 X45.022 Y70.9
G0 X42.194 Y70.9
G0 X42.194 Y70.679
G1 F3000 X50.833 Y79.318 E0
G0 F9000 X50.833 Y79.1
G0 X48.005 Y79.1
G0 X48.005 Y79.318
G1 F3000 X40.679 Y71.993 E0
G0 F9000 X40.9 Y71.993
G0 X40.9 Y74.821
G0 X40.679 Y74.821
G1 F3000 X45.177 Y79.318 E0
G0 F9000 X45.177 Y79.1
G0 X42.348 Y79.1
G0 X42.348 Y79.318
G1 F3000 X40.679 Y77.65 E0
G0 F9000 X40.9 Y77.65
G0 X64.821 Y70.9
G0 X64.821 Y70.679
G1 F3000 X69.319 Y75.177 E0
G0 F9000 X69.1 Y75.177
G0 X69.1 Y72.349
G0 X69.319 Y72.349
G1 F3000 X67.65 Y70.679 E0
G0 X69.4 Y109.4 Z0.6
G1 X69.4 Y90.6 E0
G0 Z1.6 F200 ; gfunc_move_axis(G0 X60.6 Y90.6 Z0.6 ; Converted to xy move (fake from [1065])) raise head by 1 to avoid thread snag
G0 F3000 ; Returning original feed rate
G0 X60.6 Y90.6 Z0.6 F500 ; Move type: non_extruding, Feed rate: 500, Ext. mult: -1
G0 F3000 ; Returning original feed rate
G0 Z0.6 F200 ; Drop head back to original location
G0 F3000 ; Returning original feed rate
G1 X60.6 Y109.4 E0
G0 Z1.6 F200 ; gfunc_move_axis(G0 F1500 X69.8 Y109.8 Z0.6 ; Converted to xy move (fake from [1069])) raise head by 1 to avoid thread snag
G0 F1500 ; Returning original feed rate
G0 F500 X69.8 Y109.8 Z0.6 ; Move type: non_extruding, Feed rate: 500, Ext. mult: -1
G0 F1500 ; Returning original feed rate
G0 Z0.6 F200 ; Drop head back to original location
G0 F1500 ; Returning original feed rate
G1 X69.8 Y90.2 E0
G0 Z1.6 F200 ; gfunc_move_axis(G0 X60.2 Y90.2 Z0.6 ; Converted to xy move (fake from [1071])) raise head by 1 to avoid thread snag
G0 F1500 ; Returning original feed rate
G0 X60.2 Y90.2 Z0.6 F500 ; Move type: non_extruding, Feed rate: 500, Ext. mult: -1
G0 F1500 ; Returning original feed rate
G0 Z0.6 F200 ; Drop head back to original location
G0 F1500 ; Returning original feed rate
G1 X60.2 Y109.8 E0
G0 F9000 X60.47 Y109.53
G0 X63.006 Y109.1
G0 X63.006 Y109.319
; TYPE:FILL
G1 F3000 X60.679 Y106.992 E0
G0 Z1.6 F200 ; gfunc_move_axis(G0 F9000 X69.1 Y95.834 ; [1106]) raise head by 1 to avoid thread snag
G0 F9000 ; Returning original feed rate
G0 F500 X69.1 Y95.834 ; Move type: non_extruding, Feed rate: 500, Ext. mult: -1
G0 F9000 ; Returning original feed rate
G0 Z0.6 F200 ; Drop head back to original location
G0 F9000 ; Returning original feed rate
G0 X69.1 Y93.005
G0 X69.32 Y93.005
G1 F3000 X66.994 Y90.679 E0
; Layer 2 - <Step 2.6> Move thread to avoid printing over it with 11 segments?> -------------------------
M117 Ring -74.678
G0 A-74.82967 F5000 ; Move and rotate  90.00°/{ 65.00,  79.80,   0.60} →  -7.89°/{ 65.00,  90.20,   0.60},  ⃘0.151°
; Layer 2 - <Step 2.7 (11 segments)>: Print 11 segments thread doesn't intersect> -------------------------
G0 X69.67 Y120.2 Z0.6 A-18.7568
G1 X60.561 Y120.199 E0
G0 F9000 X67.65 Y71.2 A30.34661
G1 F1500 E0
; MESH:basic test.3mf(1)
G0 F9000 X60.87 Y79.58 A-5.34824
G0 X60.87 Y80.665 A-0.68222
G0 X60.87 Y89.335 A-5.39016
G0 X60.87 Y90.42 A-0.66843
G0 X60.87 Y109.13 A-11.44264
G0 X60.6 Y109.4 A-0.16517
; TYPE:WALL-INNER
G1 F1500 E0
G1 X69.4 Y109.4 E0
G0 X69.4 Y90.6 Z0.6 A11.49702
G1 X60.6 Y90.6 E0
G0 F9000 X60.2 Y109.8 Z0.6 A-11.74177
G1 F1500 X69.8 Y109.8 E0
G0 F9000 X60.9 Y106.992 A1.71678
G0 X60.9 Y104.163 A1.72727
G0 X60.679 Y104.163
G1 F3000 X65.835 Y109.319 E0 A-3.14974
G0 F9000 X65.835 Y109.1 A0.13396
G0 X68.663 Y109.1
G0 X68.663 Y109.319 A-0.13396
G1 F3000 X60.679 Y101.335 E0 A4.87561
G0 F9000 X60.9 Y101.335
G0 X60.9 Y98.507 A1.72665
G0 X60.679 Y98.507
G1 F3000 X69.32 Y107.147 E0 A-5.27447
G0 F9000 X69.1 Y107.147
G0 X69.1 Y104.319 A1.72675
G0 X69.32 Y104.319
G1 F3000 X60.679 Y95.678 E0 A5.27734
G0 F9000 X60.9 Y95.678
G0 X60.9 Y92.85 A1.73294
G0 X60.679 Y92.85
G1 F3000 X69.32 Y101.491 E0 A-5.28441
G0 F9000 X69.1 Y101.491
G0 X69.1 Y98.662 A1.72717
G0 X69.32 Y98.662
G1 F3000 X61.337 Y90.679 E0 A4.89128
G0 F9000 X61.337 Y90.9 A-0.13597
G0 X64.165 Y90.9
G0 X64.165 Y90.679 A0.13597
G1 F3000 X69.32 Y95.834 E0 A-3.16245
; ::: Layer 2 postamble :::
G0 F9000 X66.994 Y91.2 A2.84196
G1 F1500 E0
; MESH:NONMESH
; ::: End layer 2 postamble :::
; ====== End layer 2 ====
; ==== Start layer 3 ====
; ::: Layer 3 preamble :::
G0 F300 X66.994 Y91.2 Z0.8
G0 F9000 X69.13 Y90.42 A0.47989
G0 Z1.8 F200 ; gfunc_move_axis(G0 X69.13 Y89.335 ; [1115]) raise head by 1 to avoid thread snag
G0 F9000 ; Returning original feed rate
G0 X69.13 Y89.335 A0.66843 F500 ; Move type: non_extruding, Feed rate: 500, Ext. mult: -1
G0 F9000 ; Returning original feed rate
G0 Z0.8 F200 ; Drop head back to original location
G0 F9000 ; Returning original feed rate
G0 X69.13 Y80.665 A5.39016
G0 X69.13 Y79.58 A0.68222
G0 X69.13 Y79.13 A0.28355
; ::: End layer 3 preamble :::
; Layer 3 - <Step 3.0> Rotate thread at { 65.00,  90.20,   0.80} to overlap next anchor at { 65.66,  93.68,   0.80}> -------------------------
M117 Ring 123.690
G0 A58.50692 F5000 ; Rotate  -7.89° →  79.25° ({ 65.00,  90.20,   0.80}),  ⃘65.183°
; Layer 3 - <Step 3.1 (1 segments)>: Print 1 segment to fix anchor> -------------------------
G0 Z1.8 F200 ; gfunc_move_axis(G0 F9000 X60.9 Y101.49 ; [1235]) raise head by 1 to avoid thread snag
G0 F9000 ; Returning original feed rate
G0 F500 X60.9 Y101.49 A-0.92671 ; Move type: non_extruding, Feed rate: 500, Ext. mult: -1
G0 F9000 ; Returning original feed rate
G0 Z0.8 F200 ; Drop head back to original location
G0 F9000 ; Returning original feed rate
G0 X60.9 Y98.661 A0.33615
G0 X60.68 Y98.661
G0 Z1.8 F200 ; gfunc_move_axis(G1 F3000 X68.662 Y90.679 E0 ; [1238]) raise head by 1 to avoid thread snag
G0 F3000 ; Returning original feed rate
G1 F500 X68.662 Y90.679 E0 A0.94572 ; Move type: anchor_fixing, Feed rate: 500, Ext. mult: 3
G0 F3000 ; Returning original feed rate
G4 S2 ; Pause for 2 sec after move
G0 Z0.8 F200 ; Drop head back to original location
G0 F3000 ; Returning original feed rate
; Layer 3 - <Step 3.2> Move thread to avoid printing over it with 3 segments?> -------------------------
; Layer 3 - <Step 3.3 (3 segments)>: Print 3 segments thread doesn't intersect> -------------------------
G0 X69.4 Y90.6 Z0.8
G0 Z1.8 F200 ; gfunc_move_axis(G1 X60.6 Y90.6 E0 ; [1202]) raise head by 1 to avoid thread snag
G0 F3000 ; Returning original feed rate
G1 X60.6 Y90.6 E0 ; Move type: extruding, Ext. mult: 1
G0 F3000 ; Returning original feed rate
G0 Z0.8 F200 ; Drop head back to original location
G0 F3000 ; Returning original feed rate
G0 Z1.8 F200 ; gfunc_move_axis(G0 X69.8 Y90.2 Z0.8 ; Converted to xy move (fake from [1207])) raise head by 1 to avoid thread snag
G0 F3000 ; Returning original feed rate
G0 X69.8 Y90.2 Z0.8 F500 ; Move type: non_extruding, Feed rate: 500, Ext. mult: -1
G0 F3000 ; Returning original feed rate
G0 Z0.8 F200 ; Drop head back to original location
G0 F3000 ; Returning original feed rate
G0 Z1.8 F200 ; gfunc_move_axis(G1 X60.2 Y90.2 E0 ; [1208]) raise head by 1 to avoid thread snag
G0 F3000 ; Returning original feed rate
G1 X60.2 Y90.2 E0 ; Move type: extruding, Ext. mult: 1
G0 F3000 ; Returning original feed rate
G0 Z0.8 F200 ; Drop head back to original location
G0 F3000 ; Returning original feed rate
G0 Z1.8 F200 ; gfunc_move_axis(G0 F9000 X68.662 Y90.9 ; [1239]) raise head by 1 to avoid thread snag
G0 F9000 ; Returning original feed rate
G0 F500 X68.662 Y90.9 ; Move type: non_extruding, Feed rate: 500, Ext. mult: -1
G0 F9000 ; Returning original feed rate
G0 Z0.8 F200 ; Drop head back to original location
G0 F9000 ; Returning original feed rate
G0 X65.834 Y90.9
G0 X65.834 Y90.679
G0 Z1.8 F200 ; gfunc_move_axis(G1 F3000 X60.68 Y95.833 E0 ; [1242]) raise head by 1 to avoid thread snag
G0 F3000 ; Returning original feed rate
G1 F3000 X60.68 Y95.833 E0 A-0.6102 ; Move type: extruding, Ext. mult: 1
G0 F3000 ; Returning original feed rate
G0 Z0.8 F200 ; Drop head back to original location
G0 F3000 ; Returning original feed rate
; Layer 3 - <Step 3.4> Rotate thread at { 65.66,  93.68,   0.80} to overlap next anchor at { 60.20,  99.36,   0.80}> -------------------------
M117 Ring 177.574
G0 A56.32275 F5000 ; Move and rotate  79.25°/{ 65.00,  90.20,   0.80} → 133.85°/{ 65.66,  93.68,   0.80},  ⃘121.251°
; Layer 3 - <Step 3.5 (1 segments)>: Print 1 segment to fix anchor> -------------------------
G0 X60.2 Y90.2 Z0.8 A-4.04331
G0 Z1.8 F200 ; gfunc_move_axis(G1 X60.2 Y109.8 E0 ; [1209]) raise head by 1 to avoid thread snag
G0 F3000 ; Returning original feed rate
G1 X60.2 Y109.8 E0 A8.57244 F500 ; Move type: anchor_fixing, Feed rate: 500, Ext. mult: 3
G0 F3000 ; Returning original feed rate
G4 S2 ; Pause for 2 sec after move
G0 Z0.8 F200 ; Drop head back to original location
G0 F3000 ; Returning original feed rate
; Layer 3 - <Step 3.6> Rotate thread at { 60.20,  99.36,   0.80} to overlap next anchor at { 69.40, 106.44,   0.80}> -------------------------
M117 Ring -63.126
G0 A-94.4529 F5000 ; Move and rotate 133.85°/{ 65.66,  93.68,   0.80} →  37.55°/{ 60.20,  99.36,   0.80},  ⃘31.327°
; Layer 3 - <Step 3.7 (1 segments)>: Print 1 segment to fix anchor> -------------------------
G0 X69.4 Y109.4 Z0.8 A-1.45908
G0 Z1.8 F200 ; gfunc_move_axis(G1 X69.4 Y90.6 E0 ; [1201]) raise head by 1 to avoid thread snag
G0 F3000 ; Returning original feed rate
G1 X69.4 Y90.6 E0 A9.20646 F500 ; Move type: anchor_fixing, Feed rate: 500, Ext. mult: 3
G0 F3000 ; Returning original feed rate
G4 S2 ; Pause for 2 sec after move
G0 Z0.8 F200 ; Drop head back to original location
G0 F3000 ; Returning original feed rate
; Layer 3 - <Step 3.8> Move thread to avoid printing over it with 6 segments?> -------------------------
; Layer 3 - <Step 3.9 (6 segments)>: Print 6 segments thread doesn't intersect> -------------------------
G0 X60.6 Y90.6 Z0.8
G0 Z1.8 F200 ; gfunc_move_axis(G1 X60.6 Y109.4 E0 ; [1203]) raise head by 1 to avoid thread snag
G0 F3000 ; Returning original feed rate
G1 X60.6 Y109.4 E0 A-9.20646 ; Move type: extruding, Ext. mult: 1
G0 F3000 ; Returning original feed rate
G0 Z0.8 F200 ; Drop head back to original location
G0 F3000 ; Returning original feed rate
G0 F9000 X60.47 Y109.53
G0 X61.336 Y109.1 A0.14784
G0 X61.336 Y109.319
; TYPE:FILL
G0 Z1.8 F200 ; gfunc_move_axis(G1 F3000 X69.319 Y101.336 E0 ; [1214]) raise head by 1 to avoid thread snag
G0 F3000 ; Returning original feed rate
G1 F3000 X69.319 Y101.336 E0 A3.81156 ; Move type: extruding, Ext. mult: 1
G0 F3000 ; Returning original feed rate
G0 Z0.8 F200 ; Drop head back to original location
G0 F3000 ; Returning original feed rate
G0 F9000 X69.1 Y101.336
G0 X69.1 Y104.164 A-1.38554
G0 X69.319 Y104.164
G0 Z1.8 F200 ; gfunc_move_axis(G1 F3000 X64.164 Y109.319 E0 ; [1218]) raise head by 1 to avoid thread snag
G0 F3000 ; Returning original feed rate
G1 F3000 X64.164 Y109.319 E0 A-2.53394 ; Move type: extruding, Ext. mult: 1
G0 F3000 ; Returning original feed rate
G0 Z0.8 F200 ; Drop head back to original location
G0 F3000 ; Returning original feed rate
G0 F9000 X69.1 Y106.993 A1.1449
G0 Z1.8 F200 ; gfunc_move_axis(G0 X69.1 Y98.507 ; [1224]) raise head by 1 to avoid thread snag
G0 F9000 ; Returning original feed rate
G0 X69.1 Y98.507 A4.15843 F500 ; Move type: non_extruding, Feed rate: 500, Ext. mult: -1
G0 F9000 ; Returning original feed rate
G0 Z0.8 F200 ; Drop head back to original location
G0 F9000 ; Returning original feed rate
G0 X69.319 Y98.507
G0 Z1.8 F200 ; gfunc_move_axis(G1 F3000 X60.68 Y107.147 E0 ; [1226]) raise head by 1 to avoid thread snag
G0 F3000 ; Returning original feed rate
G1 F3000 X60.68 Y107.147 E0 A-4.23415 ; Move type: extruding, Ext. mult: 1
G0 F3000 ; Returning original feed rate
G0 Z0.8 F200 ; Drop head back to original location
G0 F3000 ; Returning original feed rate
G0 F9000 X60.9 Y107.147
G0 X60.9 Y104.318 A1.38922
G0 X60.68 Y104.318
G0 Z1.8 F200 ; gfunc_move_axis(G1 F3000 X69.319 Y95.679 E0 ; [1230]) raise head by 1 to avoid thread snag
G0 F3000 ; Returning original feed rate
G1 F3000 X69.319 Y95.679 E0 A4.22694 ; Move type: extruding, Ext. mult: 1
G0 F3000 ; Returning original feed rate
G0 Z0.8 F200 ; Drop head back to original location
G0 F3000 ; Returning original feed rate
G0 F9000 X69.1 Y95.679
G0 X69.1 Y92.85 A1.38194
G0 X69.319 Y92.85
G0 Z1.8 F200 ; gfunc_move_axis(G1 F3000 X60.68 Y101.49 E0 ; [1234]) raise head by 1 to avoid thread snag
G0 F3000 ; Returning original feed rate
G1 F3000 X60.68 Y101.49 E0 A-4.2232 ; Move type: extruding, Ext. mult: 1
G0 F3000 ; Returning original feed rate
G0 Z0.8 F200 ; Drop head back to original location
G0 F3000 ; Returning original feed rate
; Layer 3 - <Step 3.10> Rotate thread at { 69.40, 106.44,   0.80} to overlap next anchor at { 69.11, 109.80,   0.80}> -------------------------
M117 Ring 119.798
G0 A43.02283 F5000 ; Move and rotate  37.55°/{ 60.20,  99.36,   0.80} →  94.87°/{ 69.40, 106.44,   0.80},  ⃘76.775°
; Layer 3 - <Step 3.11 (1 segments)>: Print 1 segment to fix anchor> -------------------------
G0 F9000 X60.2 Y109.8 Z0.8
G0 Z1.8 F200 ; gfunc_move_axis(G1 F1500 X69.8 Y109.8 E0 ; [1206]) raise head by 1 to avoid thread snag
G0 F1500 ; Returning original feed rate
G1 F500 X69.8 Y109.8 E0 ; Move type: anchor_fixing, Feed rate: 500, Ext. mult: 3
G0 F1500 ; Returning original feed rate
G4 S2 ; Pause for 2 sec after move
G0 Z0.8 F200 ; Drop head back to original location
G0 F1500 ; Returning original feed rate
; Layer 3 - <Step 3.12> Move thread to avoid printing over it with 1 segments?> -------------------------
M117 Ring 67.905
G0 A-4.4349 F5000 ; Move and rotate  94.87°/{ 69.40, 106.44,   0.80} →  90.00°/{ 69.11, 109.80,   0.80},  ⃘72.340°
; Layer 3 - <Step 3.13 (1 segments)>: Print 1 segments thread doesn't intersect> -------------------------
G0 F9000 X42.349 Y71.2
G1 F1500 E0
; MESH:basic test.3mf(1)
G0 F9000 X60.87 Y79.58
G0 X60.87 Y80.665
G0 X60.87 Y89.335
G0 X60.87 Y90.42
G0 X60.87 Y109.13
G0 X60.6 Y109.4
; TYPE:WALL-INNER
G1 F1500 E0
G1 X69.4 Y109.4 E0
; Layer 3 - <Step 3.14> Move thread to avoid printing over it with 24 segments?> -------------------------
; Layer 3 - <Step 3.15 (24 segments)>: Print 24 segments thread doesn't intersect> -------------------------
G0 X69.4 Y79.4 Z0.8
G1 X69.4 Y70.6 E0
G1 X40.6 Y70.6 E0
G1 X40.6 Y79.4 E0
G1 X69.4 Y79.4 E0
G0 F9000 X69.8 Y79.8 Z0.8
G1 F1500 X69.8 Y70.2 E0
G1 X40.2 Y70.2 E0
G1 X40.2 Y79.8 E0
G1 X69.8 Y79.8 E0
G0 F9000 X69.53 Y79.53
G0 X67.649 Y79.1
G0 X67.649 Y79.319
; TYPE:FILL
G1 F3000 X69.319 Y77.649 E0
G0 F9000 X69.1 Y77.649
G0 X69.1 Y74.821
G0 X69.319 Y74.821
G1 F3000 X64.821 Y79.319 E0
G0 F9000 X64.821 Y79.1
G0 X61.992 Y79.1
G0 X61.992 Y79.319
G1 F3000 X69.319 Y71.992 E0
G0 F9000 X69.1 Y71.992
G0 X67.805 Y70.9
G0 X67.805 Y70.678
G1 F3000 X59.164 Y79.319 E0
G0 F9000 X59.164 Y79.1
G0 X56.335 Y79.1
G0 X56.335 Y79.319
G1 F3000 X64.976 Y70.678 E0
G0 F9000 X64.976 Y70.9
G0 X62.148 Y70.9
G0 X62.148 Y70.678
G1 F3000 X53.507 Y79.319 E0
G0 F9000 X53.507 Y79.1
G0 X50.679 Y79.1
G0 X50.679 Y79.319
G1 F3000 X59.319 Y70.678 E0
G0 F9000 X59.319 Y70.9
G0 X56.491 Y70.9
G0 X56.491 Y70.678
G1 F3000 X47.85 Y79.319 E0
G0 F9000 X47.85 Y79.1
G0 X45.022 Y79.1
G0 X45.022 Y79.319
G1 F3000 X53.663 Y70.678 E0
G0 F9000 X53.663 Y70.9
G0 X50.834 Y70.9
G0 X50.834 Y70.678
G1 F3000 X42.193 Y79.319 E0
G0 F9000 X42.193 Y79.1
G0 X40.9 Y78.005
G0 X40.679 Y78.005
G1 F3000 X48.006 Y70.678 E0
G0 F9000 X48.006 Y70.9
G0 X45.177 Y70.9
G0 X45.177 Y70.678
G1 F3000 X40.679 Y75.176 E0
G0 F9000 X40.9 Y75.176
G0 X40.9 Y72.348
G0 X40.679 Y72.348
G1 F3000 X42.349 Y70.678 E0
G0 F1500 X69.8 Y109.8 Z0.8
G1 X69.8 Y90.2 E0
G0 F9000 X64.164 Y109.1
G0 X66.993 Y109.1
G0 X66.993 Y109.319
G1 F3000 X69.319 Y106.993 E0
G0 F9000 X60.9 Y95.833
G0 X60.9 Y93.005
G0 X60.68 Y93.005
G1 F3000 X63.006 Y90.679 E0
; ::: Layer 3 postamble :::
G0 F9000 X63.006 Y91.2
G1 F1500 E0
; MESH:NONMESH
; ::: End layer 3 postamble :::
; ====== End layer 3 ====
; ==== Start layer 4 ====
; ::: Layer 4 postamble :::
G0 F300 X63.006 Y91.2 Z1
G0 F9000 X69.13 Y90.42
G0 X69.13 Y89.335
G0 X69.13 Y80.665
G0 X69.13 Y79.58
G0 X69.13 Y79.13
G0 X69.4 Y79.4
; TIME_ELAPSED:204.545875
; LAYER:4
; TYPE:WALL-INNER
; MESH:basic test.3mf
G1 F1500 E0
G1 X69.4 Y70.6 E0
G1 X40.6 Y70.6 E0
G1 X40.6 Y79.4 E0
G1 X69.4 Y79.4 E0
G0 F9000 X69.8 Y79.8
; TYPE:WALL-OUTER
G1 F1500 X69.8 Y70.2 E0
G1 X40.2 Y70.2 E0
G1 X40.2 Y79.8 E0
G1 X69.8 Y79.8 E0
G0 F9000 X69.53 Y79.53
G0 X69.1 Y78.005
G0 X69.319 Y78.005
; TYPE:FILL
G1 F3000 X61.993 Y70.679 E0
G0 F9000 X61.993 Y70.9
G0 X59.165 Y70.9
G0 X59.165 Y70.679
G1 F3000 X67.804 Y79.318 E0
G0 F9000 X67.804 Y79.1
G0 X64.976 Y79.1
G0 X64.976 Y79.318
G1 F3000 X56.336 Y70.679 E0
G0 F9000 X56.336 Y70.9
G0 X53.508 Y70.9
G0 X53.508 Y70.679
G1 F3000 X62.147 Y79.318 E0
G0 F9000 X62.147 Y79.1
G0 X59.319 Y79.1
G0 X59.319 Y79.318
G1 F3000 X50.679 Y70.679 E0
G0 F9000 X50.679 Y70.9
G0 X47.851 Y70.9
G0 X47.851 Y70.679
G1 F3000 X56.49 Y79.318 E0
G0 F9000 X56.49 Y79.1
G0 X53.662 Y79.1
G0 X53.662 Y79.318
G1 F3000 X45.022 Y70.679 E0
G0 F9000 X45.022 Y70.9
G0 X42.194 Y70.9
G0 X42.194 Y70.679
G1 F3000 X50.833 Y79.318 E0
G0 F9000 X50.833 Y79.1
G0 X48.005 Y79.1
G0 X48.005 Y79.318
G1 F3000 X40.679 Y71.993 E0
G0 F9000 X40.9 Y71.993
G0 X40.9 Y74.821
G0 X40.679 Y74.821
G1 F3000 X45.177 Y79.318 E0
G0 F9000 X45.177 Y79.1
G0 X42.348 Y79.1
G0 X42.348 Y79.318
G1 F3000 X40.679 Y77.65 E0
G0 F9000 X40.9 Y77.65
G0 X64.821 Y70.9
G0 X64.821 Y70.679
G1 F3000 X69.319 Y75.177 E0
G0 F9000 X69.1 Y75.177
G0 X69.1 Y72.349
G0 X69.319 Y72.349
G1 F3000 X67.65 Y70.679 E0
G0 F9000 X67.65 Y71.2
G1 F1500 E0
; MESH:basic test.3mf(1)
G0 F9000 X60.87 Y79.58
G0 X60.87 Y80.665
G0 X60.87 Y89.335
G0 X60.87 Y90.42
G0 X60.87 Y109.13
G0 X60.6 Y109.4
; TYPE:WALL-INNER
G1 F1500 E0
G1 X69.4 Y109.4 E0
G1 X69.4 Y90.6 E0
G1 X60.6 Y90.6 E0
G1 X60.6 Y109.4 E0
G0 F9000 X60.2 Y109.8
; TYPE:WALL-OUTER
G0 Z2 F200 ; gfunc_move_axis(G1 F1500 X69.8 Y109.8 E0 ; [1342]) raise head by 1 to avoid thread snag
G0 F1500 ; Returning original feed rate
G1 F1500 X69.8 Y109.8 E0 ; Move type: extruding, Ext. mult: 1
G0 F1500 ; Returning original feed rate
G0 Z1 F200 ; Drop head back to original location
G0 F1500 ; Returning original feed rate
G1 X69.8 Y90.2 E0
G1 X60.2 Y90.2 E0
G1 X60.2 Y109.8 E0
G0 F9000 X60.47 Y109.53
G0 X63.006 Y109.1
G0 X63.006 Y109.319
; TYPE:FILL
G1 F3000 X60.679 Y106.992 E0
G0 F9000 X60.9 Y106.992
G0 X60.9 Y104.163
G0 X60.679 Y104.163
G1 F3000 X65.835 Y109.319 E0
G0 F9000 X65.835 Y109.1
G0 X68.663 Y109.1
G0 X68.663 Y109.319
G1 F3000 X60.679 Y101.335 E0
G0 F9000 X60.9 Y101.335
G0 X60.9 Y98.507
G0 X60.679 Y98.507
G1 F3000 X69.32 Y107.147 E0
G0 F9000 X69.1 Y107.147
G0 X69.1 Y104.319
G0 X69.32 Y104.319
G1 F3000 X60.679 Y95.678 E0
G0 F9000 X60.9 Y95.678
G0 X60.9 Y92.85
G0 X60.679 Y92.85
G1 F3000 X69.32 Y101.491 E0
G0 F9000 X69.1 Y101.491
G0 X69.1 Y98.662
G0 X69.32 Y98.662
G1 F3000 X61.337 Y90.679 E0
G0 F9000 X61.337 Y90.9
G0 X64.165 Y90.9
G0 X64.165 Y90.679
G1 F3000 X69.32 Y95.834 E0
G0 F9000 X69.1 Y95.834
G0 X69.1 Y93.005
G0 X69.32 Y93.005
G1 F3000 X66.994 Y90.679 E0
G0 F9000 X66.994 Y91.2
G1 F1500 E0
; MESH:NONMESH
; ::: End layer 4 postamble :::
; ====== End layer 4 ====
; ==== Start layer 5 ====
; ::: Layer 5 postamble :::
G0 F300 X66.994 Y91.2 Z1.2
G0 F9000 X69.13 Y90.42
G0 X69.13 Y89.335
G0 X69.13 Y80.665
G0 X69.13 Y79.58
G0 X69.13 Y79.13
G0 X69.4 Y79.4
; TIME_ELAPSED:228.109649
; LAYER:5
; TYPE:WALL-INNER
; MESH:basic test.3mf
G1 F1500 E0
G1 X69.4 Y70.6 E0
G1 X40.6 Y70.6 E0
G1 X40.6 Y79.4 E0
G1 X69.4 Y79.4 E0
G0 F9000 X69.8 Y79.8
; TYPE:WALL-OUTER
G1 F1500 X69.8 Y70.2 E0
G1 X40.2 Y70.2 E0
G1 X40.2 Y79.8 E0
G1 X69.8 Y79.8 E0
G0 F9000 X69.53 Y79.53
G0 X69.3 Y79.04
G0 X69.04 Y79.04
; TYPE:SKIN
G1 F1500 X40.96 Y79.04 E0
G1 X40.96 Y70.96 E0
G1 X69.04 Y70.96 E0
G1 X69.04 Y79.04 E0
G0 F9000 X68.238 Y78.839
G1 F1500 X68.839 Y78.238 E0
G0 F9000 X68.839 Y77.672
G1 F1500 X67.672 Y78.839 E0
G0 F9000 X67.107 Y78.839
G1 F1500 X68.839 Y77.107 E0
G0 F9000 X68.839 Y76.541
G1 F1500 X66.541 Y78.839 E0
G0 F9000 X65.975 Y78.839
G1 F1500 X68.839 Y75.975 E0
G0 F9000 X68.839 Y75.41
G1 F1500 X65.41 Y78.839 E0
G0 F9000 X64.844 Y78.839
G1 F1500 X68.839 Y74.844 E0
G0 F9000 X68.839 Y74.278
G1 F1500 X64.278 Y78.839 E0
G0 F9000 X63.713 Y78.839
G1 F1500 X68.839 Y73.713 E0
G0 F9000 X68.839 Y73.147
G1 F1500 X63.147 Y78.839 E0
G0 F9000 X62.581 Y78.839
G1 F1500 X68.839 Y72.581 E0
G0 F9000 X68.839 Y72.015
G1 F1500 X62.016 Y78.839 E0
G0 F9000 X61.45 Y78.839
G1 F1500 X68.839 Y71.45 E0
G0 F9000 X68.565 Y71.158
G1 F1500 X60.884 Y78.839 E0
G0 F9000 X60.319 Y78.839
G1 F1500 X67.999 Y71.158 E0
G0 F9000 X67.433 Y71.158
G1 F1500 X59.753 Y78.839 E0
G0 F9000 X59.187 Y78.839
G1 F1500 X66.868 Y71.158 E0
G0 F9000 X66.302 Y71.158
G1 F1500 X58.621 Y78.839 E0
G0 F9000 X58.056 Y78.839
G1 F1500 X65.736 Y71.158 E0
G0 F9000 X65.171 Y71.158
G1 F1500 X57.49 Y78.839 E0
G0 F9000 X56.924 Y78.839
G1 F1500 X64.605 Y71.158 E0
G0 F9000 X64.039 Y71.158
G1 F1500 X56.359 Y78.839 E0
G0 F9000 X55.793 Y78.839
G1 F1500 X63.474 Y71.158 E0
G0 F9000 X62.908 Y71.158
G1 F1500 X55.227 Y78.839 E0
G0 F9000 X54.662 Y78.839
G1 F1500 X62.342 Y71.158 E0
G0 F9000 X61.777 Y71.158
G1 F1500 X54.096 Y78.839 E0
G0 F9000 X53.53 Y78.839
G1 F1500 X61.211 Y71.158 E0
G0 F9000 X60.645 Y71.158
G1 F1500 X52.965 Y78.839 E0
G0 F9000 X52.399 Y78.839
G1 F1500 X60.08 Y71.158 E0
G0 F9000 X59.514 Y71.158
G1 F1500 X51.833 Y78.839 E0
G0 F9000 X51.268 Y78.839
G1 F1500 X58.948 Y71.158 E0
G0 F9000 X58.382 Y71.158
G1 F1500 X50.702 Y78.839 E0
G0 F9000 X50.136 Y78.839
G1 F1500 X57.817 Y71.158 E0
G0 F9000 X57.251 Y71.158
G1 F1500 X49.571 Y78.839 E0
G0 F9000 X49.005 Y78.839
G1 F1500 X56.685 Y71.158 E0
G0 F9000 X56.12 Y71.158
G1 F1500 X48.439 Y78.839 E0
G0 F9000 X47.873 Y78.839
G1 F1500 X55.554 Y71.158 E0
G0 F9000 X54.988 Y71.158
G1 F1500 X47.308 Y78.839 E0
G0 F9000 X46.742 Y78.839
G1 F1500 X54.423 Y71.158 E0
G0 F9000 X53.857 Y71.158
G1 F1500 X46.176 Y78.839 E0
G0 F9000 X45.611 Y78.839
G1 F1500 X53.291 Y71.158 E0
G0 F9000 X52.726 Y71.158
G1 F1500 X45.045 Y78.839 E0
G0 F9000 X44.479 Y78.839
G1 F1500 X52.16 Y71.158 E0
G0 F9000 X51.594 Y71.158
G1 F1500 X43.914 Y78.839 E0
G0 F9000 X43.348 Y78.839
G1 F1500 X51.029 Y71.158 E0
G0 F9000 X50.463 Y71.158
G1 F1500 X42.782 Y78.839 E0
G0 F9000 X42.217 Y78.839
G1 F1500 X49.897 Y71.158 E0
G0 F9000 X49.332 Y71.158
G1 F1500 X41.651 Y78.839 E0
G0 F9000 X41.159 Y78.765
G1 F1500 X48.766 Y71.158 E0
G0 F9000 X48.2 Y71.158
G1 F1500 X41.159 Y78.199 E0
G0 F9000 X41.159 Y77.633
G1 F1500 X47.634 Y71.158 E0
G0 F9000 X47.069 Y71.158
G1 F1500 X41.159 Y77.068 E0
G0 F9000 X41.159 Y76.502
G1 F1500 X46.503 Y71.158 E0
G0 F9000 X45.937 Y71.158
G1 F1500 X41.159 Y75.936 E0
G0 F9000 X41.159 Y75.371
G1 F1500 X45.372 Y71.158 E0
G0 F9000 X44.806 Y71.158
G1 F1500 X41.159 Y74.805 E0
G0 F9000 X41.159 Y74.239
G1 F1500 X44.24 Y71.158 E0
G0 F9000 X43.675 Y71.158
G1 F1500 X41.159 Y73.674 E0
G0 F9000 X41.159 Y73.108
G1 F1500 X43.109 Y71.158 E0
G0 F9000 X42.543 Y71.158
G1 F1500 X41.159 Y72.542 E0
G0 F9000 X41.159 Y71.977
G1 F1500 X41.978 Y71.158 E0
G0 F9000 X41.412 Y71.158
G1 F1500 X41.159 Y71.411 E0
G1 F1500 E0
; MESH:basic test.3mf(1)
G0 F9000 X40.7 Y71.411
G0 X40.772 Y79.228
G0 X60.6 Y79.58
G0 X60.6 Y80.665
G0 X60.6 Y89.335
G0 X60.6 Y109.4
; TYPE:WALL-INNER
G1 F1500 E0
G1 X69.4 Y109.4 E0
G1 X69.4 Y90.6 E0
G1 X60.6 Y90.6 E0
G1 X60.6 Y109.4 E0
G0 F9000 X60.2 Y109.8
; TYPE:WALL-OUTER
G0 Z2.2 F200 ; gfunc_move_axis(G1 F1500 X69.8 Y109.8 E0 ; [1556]) raise head by 1 to avoid thread snag
G0 F1500 ; Returning original feed rate
G1 F1500 X69.8 Y109.8 E0 ; Move type: extruding, Ext. mult: 1
G0 F1500 ; Returning original feed rate
G0 Z1.2 F200 ; Drop head back to original location
G0 F1500 ; Returning original feed rate
G1 X69.8 Y90.2 E0
G1 X60.2 Y90.2 E0
G1 X60.2 Y109.8 E0
G0 F9000 X60.47 Y109.53
G0 X60.7 Y109.04
G0 X60.96 Y109.04
; TYPE:SKIN
G1 F1500 X60.96 Y90.96 E0
G1 X69.04 Y90.96 E0
G1 X69.04 Y109.04 E0
G1 X60.96 Y109.04 E0
G0 F9000 X60.7 Y109.04
G0 X68.22 Y109.3
G0 X68.22 Y108.839
G1 F1500 X68.839 Y108.219 E0
G0 F9000 X68.839 Y107.654
G1 F1500 X67.654 Y108.839 E0
G0 F9000 X67.088 Y108.839
G1 F1500 X68.839 Y107.088 E0
G0 F9000 X68.839 Y106.522
G1 F1500 X66.523 Y108.839 E0
G0 F9000 X65.957 Y108.839
G1 F1500 X68.839 Y105.957 E0
G0 F9000 X68.839 Y105.391
G1 F1500 X65.391 Y108.839 E0
G0 F9000 X64.826 Y108.839
G1 F1500 X68.839 Y104.825 E0
G0 F9000 X68.839 Y104.26
G1 F1500 X64.26 Y108.839 E0
G0 F9000 X63.694 Y108.839
G1 F1500 X68.839 Y103.694 E0
G0 F9000 X68.839 Y103.128
G1 F1500 X63.129 Y108.839 E0
G0 F9000 X62.563 Y108.839
G1 F1500 X68.839 Y102.563 E0
G0 F9000 X68.839 Y101.997
G1 F1500 X61.997 Y108.839 E0
G0 F9000 X61.432 Y108.839
G1 F1500 X68.839 Y101.431 E0
G0 F9000 X68.839 Y100.865
G1 F1500 X61.16 Y108.545 E0
G0 F9000 X61.16 Y107.979
G1 F1500 X68.839 Y100.3 E0
G0 F9000 X68.839 Y99.734
G1 F1500 X61.16 Y107.413 E0
G0 F9000 X61.16 Y106.848
G1 F1500 X68.839 Y99.168 E0
G0 F9000 X68.839 Y98.603
G1 F1500 X61.16 Y106.282 E0
G0 F9000 X61.16 Y105.716
G1 F1500 X68.839 Y98.037 E0
G0 F9000 X68.839 Y97.471
G1 F1500 X61.16 Y105.151 E0
G0 F9000 X61.16 Y104.585
G1 F1500 X68.839 Y96.906 E0
G0 F9000 X68.839 Y96.34
G1 F1500 X61.16 Y104.019 E0
G0 F9000 X61.16 Y103.453
G1 F1500 X68.839 Y95.774 E0
G0 F9000 X68.839 Y95.209
G1 F1500 X61.16 Y102.888 E0
G0 F9000 X61.16 Y102.322
G1 F1500 X68.839 Y94.643 E0
G0 F9000 X68.839 Y94.077
G1 F1500 X61.16 Y101.756 E0
G0 F9000 X61.16 Y101.191
G1 F1500 X68.839 Y93.512 E0
G0 F9000 X68.839 Y92.946
G1 F1500 X61.16 Y100.625 E0
G0 F9000 X61.16 Y100.059
G1 F1500 X68.839 Y92.38 E0
G0 F9000 X68.839 Y91.814
G1 F1500 X61.16 Y99.494 E0
G0 F9000 X61.16 Y98.928
G1 F1500 X68.839 Y91.249 E0
G0 F9000 X68.363 Y91.159
G1 F1500 X61.16 Y98.362 E0
G0 F9000 X61.16 Y97.797
G1 F1500 X67.798 Y91.159 E0
G0 F9000 X67.232 Y91.159
G1 F1500 X61.16 Y97.231 E0
G0 F9000 X61.16 Y96.665
G1 F1500 X66.666 Y91.159 E0
G0 F9000 X66.101 Y91.159
G1 F1500 X61.16 Y96.1 E0
G0 F9000 X61.16 Y95.534
G1 F1500 X65.535 Y91.159 E0
G0 F9000 X64.969 Y91.159
G1 F1500 X61.16 Y94.968 E0
G0 F9000 X61.16 Y94.402
G1 F1500 X64.403 Y91.159 E0
G0 F9000 X63.838 Y91.159
G1 F1500 X61.16 Y93.837 E0
G0 F9000 X61.16 Y93.271
G1 F1500 X63.272 Y91.159 E0
G0 F9000 X62.706 Y91.159
G1 F1500 X61.16 Y92.705 E0
G0 F9000 X61.16 Y92.14
G1 F1500 X62.141 Y91.159 E0
G0 F9000 X61.575 Y91.159
G1 F1500 X61.16 Y91.574 E0
; TIME_ELAPSED:290.283077
; ::: End layer 5 postamble :::
; ====== End layer 5 ====
G1 F1500 E0
M107
G91 ; Relative positioning
G1 E0 F2700 ; Retract a bit
G1 E0 Z0.2 F2400 ; Retract and raise Z
G1 X5 Y5 F3000
G1 Z10 ; Raise Z more
; G90 ;Absolute positioning; Drop G90 to avoid ring being absolutely positioned

G1 X55 Y220
M106 S0 ; Turn-off fan
M104 S0 ; Turn-off hotend
M140 S0 ; Turn-off bed

M84 X Y E ; Disable all steppers but Z

M82 ; absolute extrusion mode
M104 S0
; End of Gcode
; SETTING_3 {"global_quality": "[general]\\nversion = 4\\nname = Standard Quality
; SETTING_3  #2\\ndefinition = creality_base\\n\\n[metadata]\\ntype = quality_cha
; SETTING_3 nges\\nquality_type = standard\\nsetting_version = 22\\n\\n[values]\\
; SETTING_3 n\\n", "extruder_quality": ["[general]\\nversion = 4\\nname = Standar
; SETTING_3 d Quality #2\\ndefinition = creality_ender3pro\\n\\n[metadata]\\ntype
; SETTING_3  = quality_changes\\nquality_type = standard\\nsetting_version = 22\\
; SETTING_3 nposition = 0\\n\\n[values]\\nbottom_layers = 1\\ninfill_pattern = li
; SETTING_3 nes\\ntop_layers = 1\\n\\n"]}
