; FLAVOR:Marlin
; TIME:290
; Filament used: 0.178586m
; Layer height: 0.2
; MINX:29
; MINY:59
; MINZ:0.2
; MAXX:81
; MAXY:121
; MAXZ:1.2
; Generated with Cura_SteamEngine 5.4.0
M82 ; absolute extrusion mode
; Ender 3 Custom Start G-code
G92 E0 ; Reset Extruder
G28 X Y Z ; Home only X, Y, and Z axes, but avoid trying to home A
M104 S175 ; Start heating up the nozzle most of the way
M190 S60 ; Start heating the bed, wait until target temperature reached
M109 S200 ; Finish heating the nozzle
G92 A90 ; Assume the ring has been manually homed, set its position to 90°
G0 F5000 X55.0 ; Move head out of the way of the carrier
G0 F5000 A41.81 ; Move ring to initial thread position (🧵H({-20.00,   0.00,   0.00}, ↗ 90.00° (  0.00,   1.00,   0.00)),  ⃘131.810°)
; --- Printer state ---
; Ring(131.810°, ⌀186 → {-20.00,  60.12,   0.00}, ⊙{ 42.00,  -9.20,   0.00})
; Bed(0, 0, ⚓︎{-20.00,   0.00,   0.00})
; Carrier: {-20.00,  60.12,   0.00}
; Print head: {  0.00,   0.00,   0.00}
G1 Z2.0 F3000 ; Move Z Axis up little to prevent scratching of Heat Bed
G1 X0.1 Y20 Z0.3 F5000.0 ; Move to start position
G1 X0.1 Y200.0 Z0.3 F1500.0 E15 ; Draw the first line
G1 X0.4 Y200.0 Z0.3 F5000.0 ; Move to side a little
G1 X0.4 Y20 Z0.3 F1500.0 E30 ; Draw the second line
G92 E0 ; Reset Extruder
G1 Z2.0 F3000 ; Move Z Axis up little to prevent scratching of Heat Bed
G1 X5 Y20 Z0.3 F5000.0 ; Move over to prevent blob squish
G92 E0
G92 E0
G1 F1500 E-6.5
; LAYER_COUNT:6
; LAYER:0
M107
; ==== Start layer 0 ====
; ::: Layer 0 postamble :::
G0 F6000 X34.821 Y60.311 Z0.2
; TYPE:SKIRT
G1 F1500 E0
G1 F1200 X35.699 Y59.89 E0.03239
G1 X36.612 Y59.548 E0.06481
G1 X37.549 Y59.289 E0.09715
G1 X38.516 Y59.111 E0.12985
G1 X39.655 Y59.015 E0.16787
G1 X40.312 Y59 E0.18972
G1 X69.304 Y59 E1.154
G1 X70.184 Y59.013 E1.18327
G1 X71.156 Y59.072 E1.21566
G1 X72.119 Y59.218 E1.24806
G1 X73.066 Y59.449 E1.28048
G1 X73.954 Y59.749 E1.31165
G1 X74.846 Y60.139 E1.34403
G1 X75.729 Y60.626 E1.37757
G1 X76.48 Y61.128 E1.40762
G1 X77.295 Y61.786 E1.44246
G1 X77.993 Y62.464 E1.47482
G1 X78.629 Y63.201 E1.5072
G1 X79.199 Y63.991 E1.5396
G1 X79.661 Y64.767 E1.56964
G1 X80.115 Y65.709 E1.60442
G1 X80.444 Y66.587 E1.6356
G1 X80.713 Y67.559 E1.66915
G1 X80.89 Y68.525 E1.70181
G1 X80.985 Y69.655 E1.73953
G1 X81 Y70.33 E1.76198
G1 X80.999 Y79.429 E2.06462
G1 X80.981 Y80.46 E2.09892
G1 X80.952 Y81.143 E2.12165
G1 X80.878 Y83.759 E2.2087
G1 X80.878 Y86.271 E2.29225
G1 X81 Y90.33 E2.42731
G1 X80.999 Y109.4 E3.06158
G1 X80.988 Y110.163 E3.08696
G1 X80.931 Y111.136 E3.11938
G1 X80.786 Y112.099 E3.15177
G1 X80.557 Y113.045 E3.18414
G1 X80.246 Y113.969 E3.21657
G1 X79.854 Y114.86 E3.24894
G1 X79.386 Y115.712 E3.28127
G1 X78.864 Y116.493 E3.31252
G1 X78.231 Y117.278 E3.34606
G1 X77.606 Y117.929 E3.37607
G1 X76.817 Y118.617 E3.41089
G1 X76.057 Y119.167 E3.4421
G1 X75.19 Y119.684 E3.47567
G1 X74.312 Y120.106 E3.50807
G1 X73.401 Y120.448 E3.54043
G1 X72.462 Y120.709 E3.57285
G1 X71.496 Y120.887 E3.60552
G1 X70.345 Y120.985 E3.64394
G1 X69.67 Y121 E3.6664
G1 X60.549 Y120.999 E3.96976
G1 X59.831 Y120.988 E3.99365
G1 X58.843 Y120.928 E4.02657
G1 X57.879 Y120.782 E4.059
G1 X56.932 Y120.551 E4.09142
G1 X56.076 Y120.263 E4.12146
G1 X55.12 Y119.844 E4.15617
G1 X54.267 Y119.373 E4.18858
G1 X53.46 Y118.828 E4.22097
G1 X52.705 Y118.215 E4.25332
G1 X52.004 Y117.537 E4.28575
G1 X51.368 Y116.799 E4.31816
G1 X50.801 Y116.009 E4.3505
G1 X50.307 Y115.178 E4.38265
G1 X49.989 Y114.531 E4.40663
G1 X49.519 Y113.496 E4.44444
G1 X49.218 Y112.805 E4.46951
G1 X48.151 Y110.536 E4.5529
G1 X47.027 Y108.31 E4.63584
G1 X45.806 Y106.055 E4.72113
G1 X44.566 Y103.914 E4.80342
G1 X43.252 Y101.779 E4.8868
G1 X41.863 Y99.663 E4.97099
G1 X40.431 Y97.613 E5.05416
G1 X38.921 Y95.573 E5.13858
G1 X37.365 Y93.593 E5.22234
G1 X35.749 Y91.65 E5.30639
G1 X34.094 Y89.771 E5.38967
G1 X31.955 Y87.486 E5.49377
G1 X31.346 Y86.772 E5.52499
G1 X30.761 Y85.949 E5.55857
G1 X30.271 Y85.108 E5.59094
G1 X29.856 Y84.226 E5.62336
G1 X29.533 Y83.346 E5.65454
G1 X29.27 Y82.371 E5.68813
G1 X29.101 Y81.406 E5.72071
G1 X29.015 Y80.327 E5.75672
G1 X29 Y79.67 E5.77857
G1 X29.001 Y70.525 E6.08274
G1 X29.012 Y69.825 E6.10602
G1 X29.07 Y68.852 E6.13844
G1 X29.216 Y67.889 E6.17084
G1 X29.446 Y66.943 E6.20322
G1 X29.759 Y66.02 E6.23563
G1 X30.151 Y65.13 E6.26798
G1 X30.621 Y64.277 E6.30037
G1 X31.164 Y63.469 E6.33275
G1 X31.731 Y62.765 E6.36282
G1 X32.456 Y62.013 E6.39756
G1 X33.192 Y61.376 E6.42993
G1 X33.924 Y60.846 E6.45999
G1 X34.821 Y60.311 E6.49473
G0 F6000 X34.995 Y60.671
G1 F1200 X35.84 Y60.264 E6.52593
G1 X36.719 Y59.933 E6.55716
G1 X37.622 Y59.682 E6.58834
G1 X38.55 Y59.51 E6.61973
G1 X39.689 Y59.414 E6.65775
G1 X40.321 Y59.4 E6.67877
G1 X69.298 Y59.4 E7.64255
G1 X70.16 Y59.412 E7.67122
G1 X71.097 Y59.468 E7.70244
G1 X72.025 Y59.607 E7.73365
G1 X72.938 Y59.828 E7.7649
G1 X73.794 Y60.116 E7.79494
G1 X74.686 Y60.506 E7.82732
G1 X75.507 Y60.959 E7.8585
G1 X76.258 Y61.461 E7.88855
G1 X77.017 Y62.073 E7.92098
G1 X77.691 Y62.726 E7.95219
G1 X78.305 Y63.435 E7.98338
G1 X78.855 Y64.196 E8.01461
G1 X79.317 Y64.972 E8.04465
G1 X79.74 Y65.849 E8.07704
G1 X80.069 Y66.727 E8.10822
G1 X80.32 Y67.632 E8.13946
G1 X80.491 Y68.559 E8.17081
G1 X80.586 Y69.689 E8.20853
G1 X80.6 Y70.33 E8.22985
G1 X80.599 Y79.422 E8.53225
G1 X80.581 Y80.443 E8.56622
G1 X80.552 Y81.126 E8.58895
G1 X80.478 Y83.748 E8.6762
G1 X80.478 Y86.271 E8.76011
G1 X80.6 Y90.33 E8.89518
G1 X80.599 Y109.395 E9.52928
G1 X80.589 Y110.14 E9.55406
G1 X80.535 Y111.077 E9.58528
G1 X80.397 Y112.006 E9.61652
G1 X80.178 Y112.918 E9.64771
G1 X79.88 Y113.808 E9.67893
G1 X79.503 Y114.668 E9.71016
G1 X79.053 Y115.49 E9.74133
G1 X78.531 Y116.271 E9.77257
G1 X77.942 Y117.001 E9.80377
G1 X77.317 Y117.652 E9.83379
G1 X76.582 Y118.293 E9.86622
G1 X75.822 Y118.843 E9.89743
G1 X75.016 Y119.324 E9.92864
G1 X74.171 Y119.732 E9.95985
G1 X73.293 Y120.063 E9.99106
G1 X72.389 Y120.316 E10.02228
G1 X71.462 Y120.488 E10.05364
G1 X70.311 Y120.586 E10.09206
G1 X69.67 Y120.6 E10.11339
G1 X60.555 Y120.599 E10.41655
G1 X59.855 Y120.589 E10.43984
G1 X58.902 Y120.532 E10.47159
G1 X57.973 Y120.393 E10.50284
G1 X57.06 Y120.172 E10.53408
G1 X56.204 Y119.884 E10.56412
G1 X55.313 Y119.494 E10.59647
G1 X54.49 Y119.041 E10.62771
G1 X53.712 Y118.517 E10.65891
G1 X52.983 Y117.927 E10.6901
G1 X52.307 Y117.275 E10.72134
G1 X51.693 Y116.565 E10.75256
G1 X51.145 Y115.804 E10.78375
G1 X50.666 Y115.001 E10.81485
G1 X50.353 Y114.366 E10.8384
G1 X49.886 Y113.336 E10.87601
G1 X49.585 Y112.645 E10.90108
G1 X48.513 Y110.366 E10.98485
G1 X47.384 Y108.13 E11.06816
G1 X46.158 Y105.865 E11.15382
G1 X44.907 Y103.704 E11.23687
G1 X43.592 Y101.569 E11.32027
G1 X42.191 Y99.434 E11.4052
G1 X40.753 Y97.375 E11.48874
G1 X39.243 Y95.335 E11.57315
G1 X37.68 Y93.346 E11.65729
G1 X36.056 Y91.394 E11.74174
G1 X34.394 Y89.507 E11.82538
G1 X32.259 Y87.226 E11.92929
G1 X31.672 Y86.54 E11.95932
G1 X31.106 Y85.747 E11.99173
G1 X30.633 Y84.937 E12.02292
G1 X30.232 Y84.088 E12.05415
G1 X29.909 Y83.208 E12.08533
G1 X29.664 Y82.301 E12.11658
G1 X29.5 Y81.374 E12.14789
G1 X29.415 Y80.318 E12.18313
G1 X29.4 Y79.67 E12.20468
G1 X29.401 Y70.531 E12.50865
G1 X29.411 Y69.848 E12.53137
G1 X29.466 Y68.911 E12.56259
G1 X29.605 Y67.983 E12.5938
G1 X29.825 Y67.071 E12.625
G1 X30.125 Y66.181 E12.65624
G1 X30.502 Y65.322 E12.68744
G1 X30.953 Y64.5 E12.71862
G1 X31.476 Y63.72 E12.74986
G1 X32.043 Y63.016 E12.77992
G1 X32.718 Y62.315 E12.81229
G1 X33.427 Y61.7 E12.84351
G1 X34.159 Y61.17 E12.87356
G1 X34.995 Y60.671 E12.90595
G0 F6000 X35.169 Y61.031
G1 F1200 X35.982 Y60.638 E12.93598
G1 X36.827 Y60.318 E12.96603
G1 X37.696 Y60.075 E12.99605
G1 X38.584 Y59.909 E13.02609
G1 X39.723 Y59.813 E13.06411
G1 X40.33 Y59.8 E13.0843
G1 X69.293 Y59.8 E14.04762
G1 X70.137 Y59.811 E14.07569
G1 X71.039 Y59.864 E14.10574
G1 X71.932 Y59.996 E14.13577
G1 X72.81 Y60.207 E14.1658
G1 X73.666 Y60.495 E14.19584
G1 X74.493 Y60.857 E14.22587
G1 X75.285 Y61.292 E14.25592
G1 X76.036 Y61.794 E14.28596
G1 X76.739 Y62.361 E14.316
G1 X77.389 Y62.988 E14.34604
G1 X77.981 Y63.67 E14.37608
G1 X78.511 Y64.401 E14.40611
G1 X78.973 Y65.177 E14.43615
G1 X79.366 Y65.99 E14.46618
G1 X79.684 Y66.835 E14.49621
G1 X79.927 Y67.705 E14.52625
G1 X80.092 Y68.593 E14.5563
G1 X80.187 Y69.723 E14.59401
G1 X80.2 Y70.33 E14.61421
G1 X80.199 Y79.415 E14.91637
G1 X80.181 Y80.426 E14.95
G1 X80.152 Y81.109 E14.97274
G1 X80.078 Y83.737 E15.06018
G1 X80.078 Y86.271 E15.14447
G1 X80.2 Y90.33 E15.27953
G1 X80.199 Y109.39 E15.91347
G1 X80.19 Y110.117 E15.93765
G1 X80.139 Y111.019 E15.9677
G1 X80.008 Y111.913 E15.99775
G1 X79.799 Y112.791 E16.02777
G1 X79.513 Y113.648 E16.05782
G1 X79.152 Y114.476 E16.08786
G1 X78.72 Y115.268 E16.11787
G1 X78.219 Y116.02 E16.14792
G1 X77.653 Y116.724 E16.17796
G1 X77.028 Y117.375 E16.20798
G1 X76.347 Y117.969 E16.23804
G1 X75.616 Y118.5 E16.26809
G1 X74.842 Y118.964 E16.2981
G1 X74.029 Y119.358 E16.32815
G1 X73.185 Y119.678 E16.35817
G1 X72.315 Y119.923 E16.38823
G1 X71.428 Y120.089 E16.41825
G1 X70.277 Y120.187 E16.45667
G1 X69.67 Y120.2 E16.47686
G1 X60.561 Y120.199 E16.77983
G1 X59.861 Y120.189 E16.80311
G1 X58.96 Y120.136 E16.83313
G1 X58.066 Y120.004 E16.86319
G1 X57.188 Y119.793 E16.89322
G1 X56.332 Y119.505 E16.92326
G1 X55.505 Y119.143 E16.95329
G1 X54.713 Y118.709 E16.98333
G1 X53.963 Y118.206 E17.01336
G1 X53.26 Y117.639 E17.0434
G1 X52.609 Y117.013 E17.07344
G1 X52.017 Y116.331 E17.10348
G1 X51.488 Y115.599 E17.13352
G1 X51.025 Y114.824 E17.16354
G1 X50.717 Y114.201 E17.18666
G1 X50.253 Y113.176 E17.22408
G1 X49.952 Y112.485 E17.24915
G1 X48.875 Y110.196 E17.33329
G1 X47.741 Y107.95 E17.41697
G1 X46.51 Y105.675 E17.503
G1 X45.248 Y103.494 E17.58681
G1 X43.932 Y101.359 E17.67023
G1 X42.519 Y99.205 E17.75591
G1 X41.075 Y97.137 E17.8398
G1 X39.565 Y95.097 E17.92422
G1 X37.995 Y93.099 E18.00873
G1 X36.363 Y91.138 E18.09359
G1 X34.694 Y89.243 E18.17758
G1 X32.563 Y86.966 E18.2813
G1 X31.976 Y86.28 E18.31133
G1 X31.451 Y85.545 E18.34137
G1 X30.994 Y84.766 E18.37141
G1 X30.607 Y83.95 E18.40145
G1 X30.295 Y83.103 E18.43147
G1 X30.058 Y82.231 E18.46153
G1 X29.899 Y81.342 E18.49156
G1 X29.815 Y80.309 E18.52604
G1 X29.8 Y79.67 E18.5473
G1 X29.801 Y70.536 E18.85109
G1 X29.81 Y69.871 E18.87321
G1 X29.862 Y68.969 E18.90326
G1 X29.994 Y68.076 E18.93329
G1 X30.204 Y67.198 E18.96331
G1 X30.491 Y66.341 E18.99337
G1 X30.853 Y65.514 E19.0234
G1 X31.286 Y64.722 E19.05342
G1 X31.788 Y63.971 E19.08347
G1 X32.355 Y63.267 E19.11353
G1 X32.981 Y62.617 E19.14355
G1 X33.662 Y62.024 E19.17358
G1 X34.394 Y61.494 E19.20364
G1 X35.169 Y61.031 E19.23366
G1 F1500 E12.73366
; MESH:basic test.3mf
G0 F6000 X40.414 Y69.335
G0 X69.4 Y79.4
; TYPE:WALL-INNER
G1 F1500 E19.23366
G1 F1200 X69.4 Y70.6 E19.52635
G1 X40.6 Y70.6 E20.48425
G1 X40.6 Y79.4 E20.77693
G1 X69.4 Y79.4 E21.73483
G0 F6000 X69.8 Y79.8
; TYPE:WALL-OUTER
G1 F1200 X69.8 Y70.2 E22.05412
G1 X40.2 Y70.2 E23.03862
G1 X40.2 Y79.8 E23.35792
G1 X69.8 Y79.8 E24.34242
G0 F6000 X69.53 Y79.53
G0 X69.3 Y79.04
G0 X69.04 Y79.04
; TYPE:SKIN
G1 F1200 X40.96 Y79.04 E25.27637
G1 X40.96 Y70.96 E25.54511
G1 X69.04 Y70.96 E26.47905
G1 X69.04 Y79.04 E26.74779
G0 F6000 X69.3 Y79.04
G0 X69.3 Y71.668
G0 X68.839 Y71.668
G1 F1200 X68.331 Y71.159 E26.77171
G0 F6000 X67.765 Y71.159
G1 F1200 X68.839 Y72.233 E26.82223
G0 F6000 X68.839 Y72.799
G1 F1200 X67.199 Y71.159 E26.89937
G0 F6000 X66.634 Y71.159
G1 F1200 X68.839 Y73.365 E27.00311
G0 F6000 X68.839 Y73.93
G1 F1200 X66.068 Y71.159 E27.13345
G0 F6000 X65.502 Y71.159
G1 F1200 X68.839 Y74.496 E27.29041
G0 F6000 X68.839 Y75.062
G1 F1200 X64.937 Y71.159 E27.47397
G0 F6000 X64.371 Y71.159
G1 F1200 X68.839 Y75.627 E27.68413
G0 F6000 X68.839 Y76.193
G1 F1200 X63.805 Y71.159 E27.92092
G0 F6000 X63.24 Y71.159
G1 F1200 X68.839 Y76.759 E28.1843
G0 F6000 X68.839 Y77.324
G1 F1200 X62.674 Y71.159 E28.47428
G0 F6000 X62.108 Y71.159
G1 F1200 X68.839 Y77.89 E28.79089
G0 F6000 X68.839 Y78.456
G1 F1200 X61.543 Y71.159 E29.1341
G0 F6000 X60.977 Y71.159
G1 F1200 X68.656 Y78.838 E29.49529
G0 F6000 X68.09 Y78.838
G1 F1200 X60.411 Y71.159 E29.85649
G0 F6000 X59.845 Y71.159
G1 F1200 X67.525 Y78.838 E30.21771
G0 F6000 X66.959 Y78.838
G1 F1200 X59.28 Y71.159 E30.57891
G0 F6000 X58.714 Y71.159
G1 F1200 X66.393 Y78.838 E30.9401
G0 F6000 X65.828 Y78.838
G1 F1200 X58.148 Y71.159 E31.30132
G0 F6000 X57.583 Y71.159
G1 F1200 X65.262 Y78.838 E31.66252
G0 F6000 X64.696 Y78.838
G1 F1200 X57.017 Y71.159 E32.02372
G0 F6000 X56.451 Y71.159
G1 F1200 X64.131 Y78.838 E32.38494
G0 F6000 X63.565 Y78.838
G1 F1200 X55.886 Y71.159 E32.74613
G0 F6000 X55.32 Y71.159
G1 F1200 X62.999 Y78.838 E33.10733
G0 F6000 X62.433 Y78.838
G1 F1200 X54.754 Y71.159 E33.46853
G0 F6000 X54.189 Y71.159
G1 F1200 X61.868 Y78.838 E33.82972
G0 F6000 X61.302 Y78.838
G1 F1200 X53.623 Y71.159 E34.19092
G0 F6000 X53.057 Y71.159
G1 F1200 X60.736 Y78.838 E34.55212
G0 F6000 X60.171 Y78.838
G1 F1200 X52.492 Y71.159 E34.91331
G0 F6000 X51.926 Y71.159
G1 F1200 X59.605 Y78.838 E35.27451
G0 F6000 X59.039 Y78.838
G1 F1200 X51.36 Y71.159 E35.63571
G0 F6000 X50.795 Y71.159
G1 F1200 X58.474 Y78.838 E35.9969
G0 F6000 X57.908 Y78.838
G1 F1200 X50.229 Y71.159 E36.3581
G0 F6000 X49.663 Y71.159
G1 F1200 X57.342 Y78.838 E36.71929
G0 F6000 X56.777 Y78.838
G1 F1200 X49.097 Y71.159 E37.08052
G0 F6000 X48.532 Y71.159
G1 F1200 X56.211 Y78.838 E37.44171
G0 F6000 X55.645 Y78.838
G1 F1200 X47.966 Y71.159 E37.80291
G0 F6000 X47.4 Y71.159
G1 F1200 X55.08 Y78.838 E38.16413
G0 F6000 X54.514 Y78.838
G1 F1200 X46.835 Y71.159 E38.52532
G0 F6000 X46.269 Y71.159
G1 F1200 X53.948 Y78.838 E38.88652
G0 F6000 X53.383 Y78.838
G1 F1200 X45.703 Y71.159 E39.24774
G0 F6000 X45.138 Y71.159
G1 F1200 X52.817 Y78.838 E39.60894
G0 F6000 X52.251 Y78.838
G1 F1200 X44.572 Y71.159 E39.97013
G0 F6000 X44.006 Y71.159
G1 F1200 X51.685 Y78.838 E40.33133
G0 F6000 X51.12 Y78.838
G1 F1200 X43.441 Y71.159 E40.69253
G0 F6000 X42.875 Y71.159
G1 F1200 X50.554 Y78.838 E41.05372
G0 F6000 X49.988 Y78.838
G1 F1200 X42.309 Y71.159 E41.41492
G0 F6000 X41.744 Y71.159
G1 F1200 X49.423 Y78.838 E41.77612
G0 F6000 X48.857 Y78.838
G1 F1200 X41.178 Y71.159 E42.13731
G0 F6000 X41.159 Y71.706
G1 F1200 X48.291 Y78.838 E42.47278
G0 F6000 X47.726 Y78.838
G1 F1200 X41.159 Y72.272 E42.78165
G0 F6000 X41.159 Y72.838
G1 F1200 X47.16 Y78.838 E43.0639
G0 F6000 X46.594 Y78.838
G1 F1200 X41.159 Y73.404 E43.31952
G0 F6000 X41.159 Y73.969
G1 F1200 X46.029 Y78.838 E43.54856
G0 F6000 X45.463 Y78.838
G1 F1200 X41.159 Y74.535 E43.75099
G0 F6000 X41.159 Y75.101
G1 F1200 X44.897 Y78.838 E43.92679
G0 F6000 X44.332 Y78.838
G1 F1200 X41.159 Y75.666 E44.07601
G0 F6000 X41.159 Y76.232
G1 F1200 X43.766 Y78.838 E44.19861
G0 F6000 X43.2 Y78.838
G1 F1200 X41.159 Y76.798 E44.29459
G0 F6000 X41.159 Y77.363
G1 F1200 X42.635 Y78.838 E44.364
G0 F6000 X42.069 Y78.838
G1 F1200 X41.159 Y77.929 E44.40678
G0 F6000 X41.159 Y78.495
G1 F1200 X41.503 Y78.838 E44.42293
G1 F1500 E37.92293
; MESH:basic test.3mf(1)
G0 F6000 X41.503 Y79.3
G0 X60.6 Y79.58
G0 X60.6 Y80.665
G0 X60.6 Y89.335
G0 X60.6 Y109.4
; TYPE:WALL-INNER
G1 F1500 E44.42293
G1 F1200 X69.4 Y109.4 E44.71562
G1 X69.4 Y90.6 E45.34091
G1 X60.6 Y90.6 E45.6336
G1 X60.6 Y109.4 E46.25889
G0 F6000 X60.2 Y109.8
; TYPE:WALL-OUTER
G1 F1200 X69.8 Y109.8 E46.57819
G1 X69.8 Y90.2 E47.23009
G1 X60.2 Y90.2 E47.54939
G1 X60.2 Y109.8 E48.20128
G0 F6000 X60.47 Y109.53
G0 X60.7 Y109.04
G0 X60.96 Y109.04
; TYPE:SKIN
G1 F1200 X60.96 Y90.96 E48.80263
G1 X69.04 Y90.96 E49.07137
G1 X69.04 Y109.04 E49.67271
G1 X60.96 Y109.04 E49.94146
G0 F6000 X61.321 Y108.839
G1 F1200 X61.159 Y108.677 E49.94908
G0 F6000 X61.159 Y108.111
G1 F1200 X61.887 Y108.839 E49.98332
G0 F6000 X62.453 Y108.839
G1 F1200 X61.159 Y107.545 E50.04418
G0 F6000 X61.159 Y106.98
G1 F1200 X63.018 Y108.839 E50.13163
G0 F6000 X63.584 Y108.839
G1 F1200 X61.159 Y106.414 E50.24569
G0 F6000 X61.159 Y105.848
G1 F1200 X64.15 Y108.839 E50.38638
G0 F6000 X64.715 Y108.839
G1 F1200 X61.159 Y105.283 E50.55364
G0 F6000 X61.159 Y104.717
G1 F1200 X65.281 Y108.839 E50.74753
G0 F6000 X65.847 Y108.839
G1 F1200 X61.159 Y104.151 E50.96804
G0 F6000 X61.159 Y103.586
G1 F1200 X66.412 Y108.839 E51.21512
G0 F6000 X66.978 Y108.839
G1 F1200 X61.159 Y103.02 E51.48883
G0 F6000 X61.159 Y102.454
G1 F1200 X67.544 Y108.839 E51.78916
G0 F6000 X68.109 Y108.839
G1 F1200 X61.159 Y101.889 E52.11607
G0 F6000 X61.159 Y101.323
G1 F1200 X68.675 Y108.839 E52.4696
G0 F6000 X68.84 Y108.438
G1 F1200 X61.159 Y100.757 E52.83089
G0 F6000 X61.159 Y100.192
G1 F1200 X68.84 Y107.872 E53.19215
G0 F6000 X68.84 Y107.306
G1 F1200 X61.159 Y99.626 E53.55342
G0 F6000 X61.159 Y99.06
G1 F1200 X68.84 Y106.741 E53.91471
G0 F6000 X68.84 Y106.175
G1 F1200 X61.159 Y98.495 E54.27598
G0 F6000 X61.159 Y97.929
G1 F1200 X68.84 Y105.609 E54.63725
G0 F6000 X68.84 Y105.044
G1 F1200 X61.159 Y97.363 E54.99854
G0 F6000 X61.159 Y96.797
G1 F1200 X68.84 Y104.478 E55.35983
G0 F6000 X68.84 Y103.912
G1 F1200 X61.159 Y96.232 E55.72109
G0 F6000 X61.159 Y95.666
G1 F1200 X68.84 Y103.347 E56.08239
G0 F6000 X68.84 Y102.781
G1 F1200 X61.159 Y95.1 E56.44368
G0 F6000 X61.159 Y94.535
G1 F1200 X68.84 Y102.215 E56.80494
G0 F6000 X68.84 Y101.65
G1 F1200 X61.159 Y93.969 E57.16623
G0 F6000 X61.159 Y93.403
G1 F1200 X68.84 Y101.084 E57.52752
G0 F6000 X68.84 Y100.518
G1 F1200 X61.159 Y92.838 E57.88879
G0 F6000 X61.159 Y92.272
G1 F1200 X68.84 Y99.953 E58.25008
G0 F6000 X68.84 Y99.387
G1 F1200 X61.159 Y91.706 E58.61137
G0 F6000 X61.178 Y91.159
G1 F1200 X68.84 Y98.821 E58.97177
G0 F6000 X68.84 Y98.256
G1 F1200 X61.743 Y91.159 E59.30559
G0 F6000 X62.309 Y91.159
G1 F1200 X68.84 Y97.69 E59.61279
G0 F6000 X68.84 Y97.124
G1 F1200 X62.875 Y91.159 E59.89336
G0 F6000 X63.44 Y91.159
G1 F1200 X68.84 Y96.558 E60.14734
G0 F6000 X68.84 Y95.993
G1 F1200 X64.006 Y91.159 E60.37472
G0 F6000 X64.572 Y91.159
G1 F1200 X68.84 Y95.427 E60.57547
G0 F6000 X68.84 Y94.861
G1 F1200 X65.137 Y91.159 E60.74963
G0 F6000 X65.703 Y91.159
G1 F1200 X68.84 Y94.296 E60.89718
G0 F6000 X68.84 Y93.73
G1 F1200 X66.269 Y91.159 E61.01811
G0 F6000 X66.835 Y91.159
G1 F1200 X68.84 Y93.164 E61.11242
G0 F6000 X68.84 Y92.599
G1 F1200 X67.4 Y91.159 E61.18015
G0 F6000 X67.966 Y91.159
G1 F1200 X68.84 Y92.033 E61.22126
G0 F6000 X68.84 Y91.467
G1 F1200 X68.532 Y91.159 E61.23575
M104 S200
G1 F1500 E54.73575
; MESH:NONMESH
; ::: End layer 0 postamble :::
; ====== End layer 0 ====
; ==== Start layer 1 ====
; ::: Layer 1 preamble :::
G0 F300 X68.532 Y91.159 Z0.4
G0 F6000 X68.532 Y90.7
G0 X60.414 Y90.414
G0 X60.414 Y89.335
G0 X39.347 Y80.653
; ::: End layer 1 preamble :::
; Layer 1 - <Step 1.0> Move thread to avoid printing over it with 129 segments?> -------------------------
; Layer 1 - <Step 1.1 (129 segments)>: Print 129 segments thread doesn't intersect> -------------------------
G0 X35.169 Y61.031
; TIME_ELAPSED:109.589239
; LAYER:1
M106 S85
; TYPE:SKIRT
G1 F1500 E61.23575
G1 F1200 X35.982 Y60.638 E61.26579
G1 X36.827 Y60.318 E61.29584
G1 X37.696 Y60.075 E61.32585
G1 X38.584 Y59.909 E61.3559
G1 X39.723 Y59.813 E61.39391
G1 X40.33 Y59.8 E61.41411
G1 X69.293 Y59.8 E62.37742
G1 X70.137 Y59.811 E62.4055
G1 X71.039 Y59.864 E62.43555
G1 X71.932 Y59.996 E62.46557
G1 X72.81 Y60.207 E62.49561
G1 X73.666 Y60.495 E62.52564
G1 X74.493 Y60.857 E62.55567
G1 X75.285 Y61.292 E62.58572
G1 X76.036 Y61.794 E62.61577
G1 X76.739 Y62.361 E62.64581
G1 X77.389 Y62.988 E62.67585
G1 X77.981 Y63.67 E62.70588
G1 X78.511 Y64.401 E62.73591
G1 X78.973 Y65.177 E62.76595
G1 X79.366 Y65.99 E62.79599
G1 X79.684 Y66.835 E62.82602
G1 X79.927 Y67.705 E62.85606
G1 X80.092 Y68.593 E62.8861
G1 X80.187 Y69.723 E62.92382
G1 X80.2 Y70.33 E62.94401
G1 X80.199 Y79.415 E63.24618
G1 X80.181 Y80.426 E63.27981
G1 X80.152 Y81.109 E63.30255
G1 X80.078 Y83.737 E63.38999
G1 X80.078 Y86.271 E63.47427
G1 X80.2 Y90.33 E63.60933
G1 X80.199 Y109.39 E64.24327
G1 X80.19 Y110.117 E64.26745
G1 X80.139 Y111.019 E64.2975
G1 X80.008 Y111.913 E64.32756
G1 X79.799 Y112.791 E64.35757
G1 X79.513 Y113.648 E64.38762
G1 X79.152 Y114.476 E64.41767
G1 X78.72 Y115.268 E64.44767
G1 X78.219 Y116.02 E64.47773
G1 X77.653 Y116.724 E64.50777
G1 X77.028 Y117.375 E64.53779
G1 X76.347 Y117.969 E64.56784
G1 X75.616 Y118.5 E64.59789
G1 X74.842 Y118.964 E64.62791
G1 X74.029 Y119.358 E64.65796
G1 X73.185 Y119.678 E64.68798
G1 X72.315 Y119.923 E64.71804
G1 X71.428 Y120.089 E64.74805
G1 X70.277 Y120.187 E64.78647
G1 X69.67 Y120.2 E64.80667
G1 X60.561 Y120.199 E65.10963
G1 X59.861 Y120.189 E65.13292
G1 X58.96 Y120.136 E65.16294
G1 X58.066 Y120.004 E65.19299
G1 X57.188 Y119.793 E65.22303
G1 X56.332 Y119.505 E65.25307
G1 X55.505 Y119.143 E65.28309
G1 X54.713 Y118.709 E65.31313
G1 X53.963 Y118.206 E65.34317
G1 X53.26 Y117.639 E65.37321
G1 X52.609 Y117.013 E65.40324
G1 X52.017 Y116.331 E65.43328
G1 X51.488 Y115.599 E65.46332
G1 X51.025 Y114.824 E65.49335
G1 X50.717 Y114.201 E65.51646
G1 X50.253 Y113.176 E65.55388
G1 X49.952 Y112.485 E65.57895
G1 X48.875 Y110.196 E65.66309
G1 X47.741 Y107.95 E65.74677
G1 X46.51 Y105.675 E65.83281
G1 X45.248 Y103.494 E65.91662
G1 X43.932 Y101.359 E66.00003
G1 X42.519 Y99.205 E66.08572
G1 X41.075 Y97.137 E66.16961
G1 X39.565 Y95.097 E66.25402
G1 X37.995 Y93.099 E66.33854
G1 X36.363 Y91.138 E66.42339
G1 X34.694 Y89.243 E66.50738
G1 X32.563 Y86.966 E66.61111
G1 X31.976 Y86.28 E66.64114
G1 X31.451 Y85.545 E66.67118
G1 X30.994 Y84.766 E66.70122
G1 X30.607 Y83.95 E66.73126
G1 X30.295 Y83.103 E66.76128
G1 X30.058 Y82.231 E66.79133
G1 X29.899 Y81.342 E66.82137
G1 X29.815 Y80.309 E66.85584
G1 X29.8 Y79.67 E66.8771
G1 X29.801 Y70.536 E67.1809
G1 X29.81 Y69.871 E67.20302
G1 X29.862 Y68.969 E67.23307
G1 X29.994 Y68.076 E67.26309
G1 X30.204 Y67.198 E67.29312
G1 X30.491 Y66.341 E67.32318
G1 X30.853 Y65.514 E67.3532
G1 X31.286 Y64.722 E67.38323
G1 X31.788 Y63.971 E67.41327
G1 X32.355 Y63.267 E67.44334
G1 X32.981 Y62.617 E67.47335
G1 X33.662 Y62.024 E67.50338
G1 X34.394 Y61.494 E67.53344
G1 X35.169 Y61.031 E67.56347
G1 F1500 E61.06347
; MESH:basic test.3mf
G0 F7500 X40.414 Y69.335
G0 X40.414 Y70.414
G0 X69.13 Y79.13
G0 X69.4 Y79.4
; TYPE:WALL-INNER
G1 F1500 E67.56347
G1 F1350 X69.4 Y70.6 E67.85616
G1 X40.6 Y70.6 E68.81405
G1 X40.6 Y79.4 E69.10674
G0 F7500 X69.8 Y79.8
; TYPE:WALL-OUTER
G1 F1350 X69.8 Y70.2 E70.38393
G1 X40.2 Y70.2 E71.36843
G1 X40.2 Y79.8 E71.68773
G0 F7500 X69.53 Y79.53
G0 X67.649 Y79.1
G0 X67.649 Y79.319
; TYPE:FILL
G1 F2100 X69.319 Y77.649 E72.75078
G0 F7500 X69.1 Y77.649
G0 X69.1 Y74.821
G0 X69.319 Y74.821
G1 F2100 X64.821 Y79.319 E72.96235
G0 F7500 X48.006 Y70.9
G0 X45.177 Y70.9
G0 X45.177 Y70.678
G1 F2100 X40.679 Y75.176 E76.7083
G0 F7500 X40.9 Y75.176
G0 X40.9 Y72.348
G0 X40.679 Y72.348
G1 F2100 X42.349 Y70.678 E76.78685
G0 F7500 X42.349 Y71.2
G1 F1500 E70.28685
; MESH:basic test.3mf(1)
G0 F7500 X60.87 Y79.58
G0 X60.87 Y80.665
G0 X60.87 Y89.335
G0 X60.87 Y90.42
G0 X60.87 Y109.13
G0 X60.6 Y109.4
; TYPE:WALL-INNER
G1 F1500 E76.78685
G1 F1350 X69.4 Y109.4 E77.07954
G1 X69.4 Y90.6 E77.70483
G1 X60.6 Y90.6 E77.99752
G1 X60.6 Y109.4 E78.62281
G0 F7500 X60.2 Y109.8
; TYPE:WALL-OUTER
G1 F1350 X69.8 Y109.8 E78.94211
G1 X69.8 Y90.2 E79.59401
G1 X60.2 Y90.2 E79.91331
G1 X60.2 Y109.8 E80.5652
G0 F7500 X60.47 Y109.53
G0 X61.336 Y109.1
G0 X61.336 Y109.319
; TYPE:FILL
G1 F2100 X69.319 Y101.336 E80.9407
G0 F7500 X69.1 Y101.336
G0 X69.1 Y104.164
G0 X69.319 Y104.164
G1 F2100 X64.164 Y109.319 E81.18318
G0 F7500 X64.164 Y109.1
G0 X66.993 Y109.1
G0 X66.993 Y109.319
G1 F2100 X69.319 Y106.993 E81.29258
G0 F7500 X69.1 Y106.993
G0 X69.1 Y98.507
G0 X69.319 Y98.507
G1 F2100 X60.68 Y107.147 E81.69896
G0 F7500 X60.9 Y107.147
G0 X60.9 Y104.318
G0 X60.68 Y104.318
G1 F2100 X69.319 Y95.679 E82.10531
G0 F7500 X69.1 Y95.679
G0 X69.1 Y92.85
G0 X69.319 Y92.85
G1 F2100 X60.68 Y101.49 E82.51169
G0 F7500 X60.9 Y101.49
G0 X60.9 Y98.661
G0 X60.68 Y98.661
G1 F2100 X68.662 Y90.679 E82.88713
G0 F7500 X68.662 Y90.9
G0 X65.834 Y90.9
G0 X65.834 Y90.679
G1 F2100 X60.68 Y95.833 E83.12956
G0 F7500 X60.9 Y95.833
G0 X60.9 Y93.005
G0 X60.68 Y93.005
G1 F2100 X63.006 Y90.679 E83.23897
; Layer 1 - <Step 1.2> Rotate thread at {-20.00,   0.00,   0.40} to overlap next anchor at { 47.00,  70.20,   0.40}> -------------------------
G0 A-83.78903 F5000 ; Rotate  90.00° →  46.34° ({-20.00,   0.00,   0.40}),  ⃘48.021°
; Layer 1 - <Step 1.3 (1 segments)>: Print 1 segment to fix anchor> -------------------------
G1 F1350 X69.8 Y70.2 E70.38393
G1 X40.2 Y70.2 E71.36843
; Layer 1 - <Step 1.4> Rotate thread at { 47.00,  70.20,   0.40} to overlap next anchor at { 65.00,  79.80,   0.40}> -------------------------
G0 A-21.61608 F5000 ; Move and rotate  46.34°/{-20.00,   0.00,   0.40} →  28.07°/{ 47.00,  70.20,   0.40},  ⃘26.405°
; Layer 1 - <Step 1.5 (1 segments)>: Print 1 segment to fix anchor> -------------------------
G1 X40.2 Y79.8 E71.68773
G1 X69.8 Y79.8 E72.67223
; Layer 1 - <Step 1.6> Move thread to avoid printing over it with 11 segments?> -------------------------
; Layer 1 - <Step 1.7 (11 segments)>: Print 11 segments thread doesn't intersect> -------------------------
G1 F1350 X69.4 Y70.6 E67.85616 A5.00327 ; (🧵28.072°,  ⃘31.408°)
G1 X40.6 Y70.6 E68.81405
G1 X40.6 Y79.4 E69.10674 A-4.78575 ; (🧵28.072°,  ⃘26.623°)
G1 X69.4 Y79.4 E70.06463
G0 F7500 X64.821 Y79.1 A0.16313 ; (🧵28.072°,  ⃘26.786°)
G0 X61.992 Y79.1
G0 X61.992 Y79.319 A-0.11908 ; (🧵28.072°,  ⃘26.667°)
G1 F2100 X69.319 Y71.992 E73.30699 A3.98399 ; (🧵28.072°,  ⃘30.651°)
G0 F7500 X69.1 Y71.992
G0 X67.805 Y70.9 A0.59437 ; (🧵28.072°,  ⃘31.245°)
G0 X67.805 Y70.678 A0.12087 ; (🧵28.072°,  ⃘31.366°)
G1 F2100 X59.164 Y79.319 E73.71344 A-4.69923 ; (🧵28.072°,  ⃘26.667°)
G0 F7500 X59.164 Y79.1 A0.11908 ; (🧵28.072°,  ⃘26.786°)
G0 X56.335 Y79.1
G0 X56.335 Y79.319 A-0.11908 ; (🧵28.072°,  ⃘26.667°)
G1 F2100 X64.976 Y70.678 E74.11988 A4.69923 ; (🧵28.072°,  ⃘31.366°)
G0 F7500 X64.976 Y70.9 A-0.12087 ; (🧵28.072°,  ⃘31.245°)
G0 X62.148 Y70.9
G0 X62.148 Y70.678 A0.12087 ; (🧵28.072°,  ⃘31.366°)
G1 F2100 X53.507 Y79.319 E74.52633 A-4.69923 ; (🧵28.072°,  ⃘26.667°)
G0 F7500 X53.507 Y79.1 A0.11908 ; (🧵28.072°,  ⃘26.786°)
G0 X50.679 Y79.1
G0 X50.679 Y79.319 A-0.11908 ; (🧵28.072°,  ⃘26.667°)
G1 F2100 X59.319 Y70.678 E74.93275 A4.69923 ; (🧵28.072°,  ⃘31.366°)
G0 F7500 X59.319 Y70.9 A-0.12087 ; (🧵28.072°,  ⃘31.245°)
G0 X56.491 Y70.9
G0 X56.491 Y70.678 A0.12087 ; (🧵28.072°,  ⃘31.366°)
G1 F2100 X47.85 Y79.319 E75.3392 A-4.69923 ; (🧵28.072°,  ⃘26.667°)
G0 F7500 X47.85 Y79.1 A0.11908 ; (🧵28.072°,  ⃘26.786°)
G0 X45.022 Y79.1
G0 X45.022 Y79.319 A-0.11908 ; (🧵28.072°,  ⃘26.667°)
G1 F2100 X53.663 Y70.678 E75.74564 A4.69923 ; (🧵28.072°,  ⃘31.366°)
G0 F7500 X53.663 Y70.9 A-0.12087 ; (🧵28.072°,  ⃘31.245°)
G0 X50.834 Y70.9
G0 X50.834 Y70.678 A0.12087 ; (🧵28.072°,  ⃘31.366°)
G1 F2100 X42.193 Y79.319 E76.15209 A-4.69923 ; (🧵28.072°,  ⃘26.667°)
G0 F7500 X42.193 Y79.1 A0.11908 ; (🧵28.072°,  ⃘26.786°)
G0 X40.9 Y78.005 A0.59534 ; (🧵28.072°,  ⃘27.381°)
G0 X40.679 Y78.005
G1 F2100 X48.006 Y70.678 E76.49673 A3.98481 ; (🧵28.072°,  ⃘31.366°)
; ::: Layer 1 postamble :::
G0 F7500 X63.006 Y91.2 A-11.18254 ; (🧵28.072°,  ⃘20.183°)
G1 F1500 E76.73897
; MESH:NONMESH
; ::: End layer 1 postamble :::
; ====== End layer 1 ====
; ==== Start layer 2 ====
; ::: Layer 2 preamble :::
G0 F300 X63.006 Y91.2 Z0.6
G0 F7500 X60.414 Y90.414 A0.43113 ; (🧵28.072°,  ⃘20.615°)
G0 X60.414 Y89.335 A0.59116 ; (🧵28.072°,  ⃘21.206°)
G0 X39.347 Y80.653 A4.7355 ; (🧵28.072°,  ⃘25.941°)
; ::: End layer 2 preamble :::
; Layer 2 - <Step 2.0> Move thread to avoid printing over it with 140 segments?> -------------------------
; Layer 2 - <Step 2.1 (139 segments)>: Print 139 segments thread doesn't intersect> -------------------------
G0 X35.169 Y61.031 A10.69897 ; (🧵28.072°,  ⃘36.640°)
; TIME_ELAPSED:146.629569
; LAYER:2
M106 S170
; TYPE:SKIRT
G1 F1500 E83.23897
G1 F1200 X35.982 Y60.638 E83.26901 A0.21611 ; (🧵28.072°,  ⃘36.856°)
G1 X36.827 Y60.318 E83.29906 A0.17606 ; (🧵28.072°,  ⃘37.032°)
G1 X37.696 Y60.075 E83.32907 A0.13375 ; (🧵28.072°,  ⃘37.166°)
G1 X38.584 Y59.909 E83.35912
G1 X39.723 Y59.813 E83.39713 A0.14427 ; (🧵28.072°,  ⃘37.310°)
G1 X40.33 Y59.8 E83.41733
G1 X69.293 Y59.8 E84.38064
G1 X70.137 Y59.811 E84.40871
G1 X71.039 Y59.864 E84.43877
G1 X71.932 Y59.996 E84.46879
G1 X72.81 Y60.207 E84.49882 A-0.21693 ; (🧵28.072°,  ⃘37.093°)
G1 X73.666 Y60.495 E84.52886 A-0.15848 ; (🧵28.072°,  ⃘36.935°)
G1 X74.493 Y60.857 E84.55889 A-0.19911 ; (🧵28.072°,  ⃘36.736°)
G1 X75.285 Y61.292 E84.58894 A-0.23912 ; (🧵28.072°,  ⃘36.497°)
G1 X76.036 Y61.794 E84.61899 A-0.27577 ; (🧵28.072°,  ⃘36.221°)
G1 X76.739 Y62.361 E84.64903 A-0.31125 ; (🧵28.072°,  ⃘35.910°)
G1 X77.389 Y62.988 E84.67907 A-0.34391 ; (🧵28.072°,  ⃘35.566°)
G1 X77.981 Y63.67 E84.7091 A-0.37377 ; (🧵28.072°,  ⃘35.192°)
G1 X78.511 Y64.401 E84.73913 A-0.40029 ; (🧵28.072°,  ⃘34.792°)
G1 X78.973 Y65.177 E84.76917 A-0.42457 ; (🧵28.072°,  ⃘34.367°)
G1 X79.366 Y65.99 E84.79921 A-0.44444 ; (🧵28.072°,  ⃘33.923°)
G1 X79.684 Y66.835 E84.82923 A-0.46156 ; (🧵28.072°,  ⃘33.461°)
G1 X79.927 Y67.705 E84.85928 A-0.47485 ; (🧵28.072°,  ⃘32.986°)
G1 X80.092 Y68.593 E84.88932 A-0.48433 ; (🧵28.072°,  ⃘32.502°)
G1 X80.187 Y69.723 E84.92704 A-0.61587 ; (🧵28.072°,  ⃘31.886°)
G1 X80.2 Y70.33 E84.94723 A-0.33064 ; (🧵28.072°,  ⃘31.556°)
G1 X80.199 Y79.415 E85.2494 A-4.94094 ; (🧵28.072°,  ⃘26.615°)
G1 X80.181 Y80.426 E85.28303 A-0.54984 ; (🧵28.072°,  ⃘26.065°)
G1 X80.152 Y81.109 E85.30577 A-0.37155 ; (🧵28.072°,  ⃘25.693°)
G1 X80.078 Y83.737 E85.39321 A-1.43071 ; (🧵28.072°,  ⃘24.262°)
G1 X80.078 Y86.271 E85.47749 A-1.38179 ; (🧵28.072°,  ⃘22.881°)
G1 X80.2 Y90.33 E85.61255 A-2.22004 ; (🧵28.072°,  ⃘20.661°)
G1 X80.199 Y109.39 E86.24649 A-10.63747 ; (🧵28.072°,  ⃘10.023°)
G1 X80.19 Y110.117 E86.27067 A-0.41615 ; (🧵28.072°,  ⃘9.607°)
G1 X80.139 Y111.019 E86.30072 A-0.51773 ; (🧵28.072°,  ⃘9.089°)
G1 X80.008 Y111.913 E86.33077 A-0.51473 ; (🧵28.072°,  ⃘8.575°)
G1 X79.799 Y112.791 E86.36079 A-0.50712 ; (🧵28.072°,  ⃘8.067°)
G1 X79.513 Y113.648 E86.39084 A-0.49657 ; (🧵28.072°,  ⃘7.571°)
G1 X79.152 Y114.476 E86.42088 A-0.4813 ; (🧵28.072°,  ⃘7.090°)
G1 X78.72 Y115.268 E86.45089 A-0.46183 ; (🧵28.072°,  ⃘6.628°)
G1 X78.219 Y116.02 E86.48094 A-0.43986 ; (🧵28.072°,  ⃘6.188°)
G1 X77.653 Y116.724 E86.51099 A-0.41302 ; (🧵28.072°,  ⃘5.775°)
G1 X77.028 Y117.375 E86.541 A-0.38301 ; (🧵28.072°,  ⃘5.392°)
G1 X76.347 Y117.969 E86.57106 A-0.35041 ; (🧵28.072°,  ⃘5.041°)
G1 X75.616 Y118.5 E86.60111 A-0.31402 ; (🧵28.072°,  ⃘4.727°)
G1 X74.842 Y118.964 E86.63113 A-0.27501 ; (🧵28.072°,  ⃘4.452°)
G1 X74.029 Y119.358 E86.66117 A-0.23397 ; (🧵28.072°,  ⃘4.218°)
G1 X73.185 Y119.678 E86.6912 A-0.19034 ; (🧵28.072°,  ⃘4.028°)
G1 X72.315 Y119.923 E86.72126 A-0.14592 ; (🧵28.072°,  ⃘3.882°)
G1 X71.428 Y120.089 E86.75127
G1 X70.277 Y120.187 E86.78969 A-0.15742 ; (🧵28.072°,  ⃘3.725°)
G1 X69.67 Y120.2 E86.80989
G1 X60.561 Y120.199 E87.11285
G1 X59.861 Y120.189 E87.13614
G1 X58.96 Y120.136 E87.16616
G1 X58.066 Y120.004 E87.19621
G1 X57.188 Y119.793 E87.22625 A0.23487 ; (🧵28.072°,  ⃘3.960°)
G1 X56.332 Y119.505 E87.25629 A0.17141 ; (🧵28.072°,  ⃘4.131°)
G1 X55.505 Y119.143 E87.28631 A0.21513 ; (🧵28.072°,  ⃘4.346°)
G1 X54.713 Y118.709 E87.31635 A0.25745 ; (🧵28.072°,  ⃘4.604°)
G1 X53.963 Y118.206 E87.34639 A0.29776 ; (🧵28.072°,  ⃘4.901°)
G1 X53.26 Y117.639 E87.37643 A0.33485 ; (🧵28.072°,  ⃘5.236°)
G1 X52.609 Y117.013 E87.40646 A0.36874 ; (🧵28.072°,  ⃘5.605°)
G1 X52.017 Y116.331 E87.4365 A0.40061 ; (🧵28.072°,  ⃘6.006°)
G1 X51.488 Y115.599 E87.46654 A0.42872 ; (🧵28.072°,  ⃘6.434°)
G1 X51.025 Y114.824 E87.49657 A0.45253 ; (🧵28.072°,  ⃘6.887°)
G1 X50.717 Y114.201 E87.51968 A0.36277 ; (🧵28.072°,  ⃘7.250°)
G1 X50.253 Y113.176 E87.5571 A0.59497 ; (🧵28.072°,  ⃘7.845°)
G1 X49.952 Y112.485 E87.58217 A0.39981 ; (🧵28.072°,  ⃘8.244°)
G1 X48.875 Y110.196 E87.66631 A1.31738 ; (🧵28.072°,  ⃘9.562°)
G1 X47.741 Y107.95 E87.74999 A1.28284 ; (🧵28.072°,  ⃘10.845°)
G1 X46.51 Y105.675 E87.83603 A1.29039 ; (🧵28.072°,  ⃘12.135°)
G1 X45.248 Y103.494 E87.91984 A1.22932 ; (🧵28.072°,  ⃘13.364°)
G1 X43.932 Y101.359 E88.00325 A1.19672 ; (🧵28.072°,  ⃘14.561°)
G1 X42.519 Y99.205 E88.08893 A1.20131 ; (🧵28.072°,  ⃘15.762°)
G1 X41.075 Y97.137 E88.17283 A1.14819 ; (🧵28.072°,  ⃘16.911°)
G1 X39.565 Y95.097 E88.25724 A1.12821 ; (🧵28.072°,  ⃘18.039°)
G1 X37.995 Y93.099 E88.34176 A1.10118 ; (🧵28.072°,  ⃘19.140°)
G1 X36.363 Y91.138 E88.42661 A1.07756 ; (🧵28.072°,  ⃘20.217°)
G1 X34.694 Y89.243 E88.5106 A1.03864 ; (🧵28.072°,  ⃘21.256°)
G1 X32.563 Y86.966 E88.61433 A1.24508 ; (🧵28.072°,  ⃘22.501°)
G1 X31.976 Y86.28 E88.64436 A0.37456 ; (🧵28.072°,  ⃘22.876°)
G1 X31.451 Y85.545 E88.6744 A0.40107 ; (🧵28.072°,  ⃘23.277°)
G1 X30.994 Y84.766 E88.70444 A0.42483 ; (🧵28.072°,  ⃘23.702°)
G1 X30.607 Y83.95 E88.73447 A0.44475 ; (🧵28.072°,  ⃘24.146°)
G1 X30.295 Y83.103 E88.7645 A0.46139 ; (🧵28.072°,  ⃘24.608°)
G1 X30.058 Y82.231 E88.79455 A0.47478 ; (🧵28.072°,  ⃘25.083°)
G1 X29.899 Y81.342 E88.82459 A0.48382 ; (🧵28.072°,  ⃘25.566°)
G1 X29.815 Y80.309 E88.85906 A0.56197 ; (🧵28.072°,  ⃘26.128°)
G1 X29.8 Y79.67 E88.88032 A0.34753 ; (🧵28.072°,  ⃘26.476°)
G1 X29.801 Y70.536 E89.18412 A4.96742 ; (🧵28.072°,  ⃘31.443°)
G1 X29.81 Y69.871 E89.20624 A0.36219 ; (🧵28.072°,  ⃘31.806°)
G1 X29.862 Y68.969 E89.23629 A0.49152 ; (🧵28.072°,  ⃘32.297°)
G1 X29.994 Y68.076 E89.26631 A0.48692 ; (🧵28.072°,  ⃘32.784°)
G1 X30.204 Y67.198 E89.29634 A0.47907 ; (🧵28.072°,  ⃘33.263°)
G1 X30.491 Y66.341 E89.3264 A0.46796 ; (🧵28.072°,  ⃘33.731°)
G1 X30.853 Y65.514 E89.35642 A0.45194 ; (🧵28.072°,  ⃘34.183°)
G1 X31.286 Y64.722 E89.38645 A0.43317 ; (🧵28.072°,  ⃘34.616°)
G1 X31.788 Y63.971 E89.41649 A0.4111 ; (🧵28.072°,  ⃘35.027°)
G1 X32.355 Y63.267 E89.44656 A0.38569 ; (🧵28.072°,  ⃘35.413°)
G1 X32.981 Y62.617 E89.47657 A0.35641 ; (🧵28.072°,  ⃘35.769°)
G1 X33.662 Y62.024 E89.5066 A0.32541 ; (🧵28.072°,  ⃘36.095°)
G1 X34.394 Y61.494 E89.53666 A0.29106 ; (🧵28.072°,  ⃘36.386°)
G1 X35.169 Y61.031 E89.56669 A0.25444 ; (🧵28.072°,  ⃘36.640°)
G1 F1500 E83.06669
; MESH:basic test.3mf
G0 F9000 X40.414 Y69.335 A-4.54267 ; (🧵28.072°,  ⃘32.098°)
G0 X40.414 Y70.414 A-0.5878 ; (🧵28.072°,  ⃘31.510°)
G0 X69.13 Y79.13 A-4.74022 ; (🧵28.072°,  ⃘26.770°)
G0 X69.4 Y79.4 A-0.14682 ; (🧵28.072°,  ⃘26.623°)
; TYPE:WALL-INNER
G1 F1500 E89.56669
G1 X69.4 Y70.6 E89.85938 A4.78575 ; (🧵28.072°,  ⃘31.408°)
G1 X40.6 Y70.6 E90.81727
G1 X40.6 Y79.4 E91.10996 A-4.78575 ; (🧵28.072°,  ⃘26.623°)
G1 X69.4 Y79.4 E92.06785
G0 F9000 X69.8 Y79.8 A-0.21752 ; (🧵28.072°,  ⃘26.405°)
; TYPE:WALL-OUTER
G1 F1500 X69.8 Y70.2 E92.38715 A5.2211 ; (🧵28.072°,  ⃘31.626°)
G1 X40.2 Y70.2 E93.37165
G1 X40.2 Y79.8 E93.69095 A-5.2211 ; (🧵28.072°,  ⃘26.405°)
G0 F9000 X69.53 Y79.53 A0.14683 ; (🧵28.072°,  ⃘26.552°)
G0 X69.1 Y78.005 A0.82916 ; (🧵28.072°,  ⃘27.381°)
G0 X69.319 Y78.005
; TYPE:FILL
G1 F3000 X61.993 Y70.679 E95.02004 A3.98427 ; (🧵28.072°,  ⃘31.365°)
G0 F9000 X61.993 Y70.9 A-0.12033 ; (🧵28.072°,  ⃘31.245°)
G0 X59.165 Y70.9
G0 X59.165 Y70.679 A0.12033 ; (🧵28.072°,  ⃘31.365°)
G1 F3000 X67.804 Y79.318 E95.42639 A-4.69814 ; (🧵28.072°,  ⃘26.667°)
G0 F9000 X67.804 Y79.1 A0.11854 ; (🧵28.072°,  ⃘26.786°)
G0 X64.976 Y79.1
G0 X64.976 Y79.318 A-0.11854 ; (🧵28.072°,  ⃘26.667°)
G1 F3000 X56.336 Y70.679 E95.83277 A4.69814 ; (🧵28.072°,  ⃘31.365°)
G0 F9000 X56.336 Y70.9 A-0.12033 ; (🧵28.072°,  ⃘31.245°)
G0 X53.508 Y70.9
G0 X53.508 Y70.679 A0.12033 ; (🧵28.072°,  ⃘31.365°)
G1 F3000 X62.147 Y79.318 E96.23912 A-4.69814 ; (🧵28.072°,  ⃘26.667°)
G0 F9000 X62.147 Y79.1 A0.11854 ; (🧵28.072°,  ⃘26.786°)
G0 X59.319 Y79.1
G0 X59.319 Y79.318 A-0.11854 ; (🧵28.072°,  ⃘26.667°)
G1 F3000 X50.679 Y70.679 E96.64549 A4.69814 ; (🧵28.072°,  ⃘31.365°)
G0 F9000 X50.679 Y70.9 A-0.12033 ; (🧵28.072°,  ⃘31.245°)
G0 X47.851 Y70.9
G0 X47.851 Y70.679 A0.12033 ; (🧵28.072°,  ⃘31.365°)
G1 F3000 X56.49 Y79.318 E97.05185 A-4.69814 ; (🧵28.072°,  ⃘26.667°)
G0 F9000 X56.49 Y79.1 A0.11854 ; (🧵28.072°,  ⃘26.786°)
G0 X53.662 Y79.1
G0 X53.662 Y79.318 A-0.11854 ; (🧵28.072°,  ⃘26.667°)
G1 F3000 X45.022 Y70.679 E97.45822 A4.69814 ; (🧵28.072°,  ⃘31.365°)
G0 F9000 X45.022 Y70.9 A-0.12033 ; (🧵28.072°,  ⃘31.245°)
G0 X42.194 Y70.9
G0 X42.194 Y70.679 A0.12033 ; (🧵28.072°,  ⃘31.365°)
G1 F3000 X50.833 Y79.318 E97.86457 A-4.69814 ; (🧵28.072°,  ⃘26.667°)
G0 F9000 X50.833 Y79.1 A0.11854 ; (🧵28.072°,  ⃘26.786°)
G0 X48.005 Y79.1
G0 X48.005 Y79.318 A-0.11854 ; (🧵28.072°,  ⃘26.667°)
G1 F3000 X40.679 Y71.993 E98.20914 A3.9829 ; (🧵28.072°,  ⃘30.650°)
G0 F9000 X40.9 Y71.993
G0 X40.9 Y74.821 A-1.53812 ; (🧵28.072°,  ⃘29.112°)
G0 X40.679 Y74.821
G1 F3000 X45.177 Y79.318 E98.42069 A-2.44478 ; (🧵28.072°,  ⃘26.667°)
G0 F9000 X45.177 Y79.1 A0.11854 ; (🧵28.072°,  ⃘26.786°)
G0 X42.348 Y79.1
G0 X42.348 Y79.318 A-0.11854 ; (🧵28.072°,  ⃘26.667°)
G1 F3000 X40.679 Y77.65 E98.49917 A0.90686 ; (🧵28.072°,  ⃘27.574°)
G0 F9000 X40.9 Y77.65
G0 X64.821 Y70.9 A3.67095 ; (🧵28.072°,  ⃘31.245°)
G0 X64.821 Y70.679 A0.12033 ; (🧵28.072°,  ⃘31.365°)
G1 F3000 X69.319 Y75.177 E98.71074 A-2.44691 ; (🧵28.072°,  ⃘28.919°)
G0 F9000 X69.1 Y75.177
G0 X69.1 Y72.349 A1.53797 ; (🧵28.072°,  ⃘30.457°)
G0 X69.319 Y72.349
G1 F3000 X67.65 Y70.679 E98.78927 A0.90894 ; (🧵28.072°,  ⃘31.365°)
G0 F9000 X67.65 Y71.2 A-0.28365 ; (🧵28.072°,  ⃘31.082°)
G1 F1500 E92.28927
; MESH:basic test.3mf(1)
G0 F9000 X60.87 Y79.58 A-4.55697 ; (🧵28.072°,  ⃘26.525°)
G0 X60.87 Y80.665 A-0.59012 ; (🧵28.072°,  ⃘25.935°)
G0 X60.87 Y89.335 A-4.72897 ; (🧵28.072°,  ⃘21.206°)
G0 X60.87 Y90.42 A-0.59445 ; (🧵28.072°,  ⃘20.611°)
G0 X60.87 Y109.13 A-10.43954 ; (🧵28.072°,  ⃘10.172°)
G0 X60.6 Y109.4 A-0.15431 ; (🧵28.072°,  ⃘10.017°)
; TYPE:WALL-INNER
G1 F1500 E98.78927
G1 X69.4 Y109.4 E99.08196
G1 X69.4 Y90.6 E99.70725 A10.49516 ; (🧵28.072°,  ⃘20.513°)
G1 X60.6 Y90.6 E99.99994
G1 X60.6 Y109.4 E100.62523 A-10.49516 ; (🧵28.072°,  ⃘10.017°)
G0 F9000 X60.2 Y109.8 A-0.22885 ; (🧵28.072°,  ⃘9.789°)
; TYPE:WALL-OUTER
G1 F1500 X69.8 Y109.8 E100.94453
G1 X69.8 Y90.2 E101.59643 A10.9433 ; (🧵28.072°,  ⃘20.732°)
G1 X60.2 Y90.2 E101.91572
G1 X60.2 Y109.8 E102.56762 A-10.9433 ; (🧵28.072°,  ⃘9.789°)
G0 F9000 X60.47 Y109.53 A0.15451 ; (🧵28.072°,  ⃘9.943°)
G0 X63.006 Y109.1 A0.24579 ; (🧵28.072°,  ⃘10.189°)
G0 X63.006 Y109.319 A-0.12514 ; (🧵28.072°,  ⃘10.064°)
; TYPE:FILL
G1 F3000 X60.679 Y106.992 E102.67708 A1.32526 ; (🧵28.072°,  ⃘11.389°)
G0 F9000 X60.9 Y106.992
G0 X60.9 Y104.163 A1.59895 ; (🧵28.072°,  ⃘12.988°)
G0 X60.679 Y104.163
G1 F3000 X65.835 Y109.319 E102.9196 A-2.92422 ; (🧵28.072°,  ⃘10.064°)
G0 F9000 X65.835 Y109.1 A0.12514 ; (🧵28.072°,  ⃘10.189°)
G0 X68.663 Y109.1
G0 X68.663 Y109.319 A-0.12514 ; (🧵28.072°,  ⃘10.064°)
G1 F3000 X60.679 Y101.335 E103.29514 A4.51067 ; (🧵28.072°,  ⃘14.574°)
G0 F9000 X60.9 Y101.335
G0 X60.9 Y98.507 A1.57598 ; (🧵28.072°,  ⃘16.150°)
G0 X60.679 Y98.507
G1 F3000 X69.32 Y107.147 E103.70157 A-4.84937 ; (🧵28.072°,  ⃘11.301°)
G0 F9000 X69.1 Y107.147
G0 X69.1 Y104.319 A1.59909 ; (🧵28.072°,  ⃘12.900°)
G0 X69.32 Y104.319
G1 F3000 X60.679 Y95.678 E104.10801 A4.8177 ; (🧵28.072°,  ⃘17.718°)
G0 F9000 X60.9 Y95.678
G0 X60.9 Y92.85 A1.55908 ; (🧵28.072°,  ⃘19.277°)
G0 X60.679 Y92.85
G1 F3000 X69.32 Y101.491 E104.51446 A-4.78971 ; (🧵28.072°,  ⃘14.487°)
G0 F9000 X69.1 Y101.491
G0 X69.1 Y98.662 A1.57707 ; (🧵28.072°,  ⃘16.064°)
G0 X69.32 Y98.662
G1 F3000 X61.337 Y90.679 E104.88995 A4.40501 ; (🧵28.072°,  ⃘20.469°)
G0 F9000 X61.337 Y90.9 A-0.12122 ; (🧵28.072°,  ⃘20.348°)
G0 X64.165 Y90.9
G0 X64.165 Y90.679 A0.12122 ; (🧵28.072°,  ⃘20.469°)
G1 F3000 X69.32 Y95.834 E105.13243 A-2.83767 ; (🧵28.072°,  ⃘17.632°)
G0 F9000 X69.1 Y95.834
G0 X69.1 Y93.005 A1.56002 ; (🧵28.072°,  ⃘19.192°)
G0 X69.32 Y93.005
G1 F3000 X66.994 Y90.679 E105.24184 A1.27764 ; (🧵28.072°,  ⃘20.469°)
; Layer 2 - <Step 2.2> Move thread to avoid printing over it with 1 segments?> -------------------------
G0 A-3.39286 F5000 ; Move and rotate  28.07°/{ 47.00,  70.20,   0.40} →  19.73°/{ 65.00,  79.80,   0.60},  ⃘17.076°
; Layer 2 - <Step 2.3 (1 segments)>: Print 1 segments thread doesn't intersect> -------------------------
G1 X80.078 Y86.271 E85.47749 A-0.54656 ; (🧵19.733°,  ⃘16.530°)
G1 X80.2 Y90.33 E85.61255 A-2.3609 ; (🧵19.733°,  ⃘14.169°)
; Layer 2 - <Step 2.4> Rotate thread at { 65.00,  79.80,   0.60} to overlap next anchor at { 65.00,  90.20,   0.60}> -------------------------
G0 A61.51254 F5000 ; Rotate  19.73° →  90.00° ({ 65.00,  79.80,   0.60}),  ⃘75.682°
; Layer 2 - <Step 2.5 (1 segments)>: Print 1 segment to fix anchor> -------------------------
G1 X69.8 Y90.2 E101.59643
G1 X60.2 Y90.2 E101.91572
; Layer 2 - <Step 2.6> Move thread to avoid printing over it with 1 segments?> -------------------------
; Layer 2 - <Step 2.7 (1 segments)>: Print 1 segments thread doesn't intersect> -------------------------
G1 X40.2 Y79.8 E93.69095
G1 X69.8 Y79.8 E94.67545
; ::: Layer 2 postamble :::
G0 F9000 X66.994 Y91.2
G1 F1500 E98.74184
; MESH:NONMESH
; ::: End layer 2 postamble :::
; ====== End layer 2 ====
; ==== Start layer 3 ====
; ::: Layer 3 preamble :::
G0 F300 X66.994 Y91.2 Z0.8
G0 F9000 X69.13 Y90.42
G0 X69.13 Y89.335
G0 X69.13 Y80.665
G0 X69.13 Y79.58
G0 X69.13 Y79.13
; ::: End layer 3 preamble :::
; Layer 3 - <Step 3.0> Move thread to avoid printing over it with 24 segments?> -------------------------
; Layer 3 - <Step 3.1 (24 segments)>: Print 24 segments thread doesn't intersect> -------------------------
G0 X69.4 Y79.4
; TIME_ELAPSED:181.073982
; LAYER:3
M106 S255
; TYPE:WALL-INNER
; MESH:basic test.3mf
G1 F1500 E105.24184
G1 X69.4 Y70.6 E105.53453
G1 X40.6 Y70.6 E106.49242
G1 X40.6 Y79.4 E106.78511
G1 X69.4 Y79.4 E107.743
G0 F9000 X69.8 Y79.8
; TYPE:WALL-OUTER
G1 F1500 X69.8 Y70.2 E108.0623
G1 X40.2 Y70.2 E109.0468
G1 X40.2 Y79.8 E109.36609
G1 X69.8 Y79.8 E110.35059
G0 F9000 X69.53 Y79.53
G0 X67.649 Y79.1
G0 X67.649 Y79.319
; TYPE:FILL
G1 F3000 X69.319 Y77.649 E110.42915
G0 F9000 X69.1 Y77.649
G0 X69.1 Y74.821
G0 X69.319 Y74.821
G1 F3000 X64.821 Y79.319 E110.64072
G0 F9000 X64.821 Y79.1
G0 X61.992 Y79.1
G0 X61.992 Y79.319
G1 F3000 X69.319 Y71.992 E110.98536
G0 F9000 X69.1 Y71.992
G0 X67.805 Y70.9
G0 X67.805 Y70.678
G1 F3000 X59.164 Y79.319 E111.3918
G0 F9000 X59.164 Y79.1
G0 X56.335 Y79.1
G0 X56.335 Y79.319
G1 F3000 X64.976 Y70.678 E111.79825
G0 F9000 X64.976 Y70.9
G0 X62.148 Y70.9
G0 X62.148 Y70.678
G1 F3000 X53.507 Y79.319 E112.2047
G0 F9000 X53.507 Y79.1
G0 X50.679 Y79.1
G0 X50.679 Y79.319
G1 F3000 X59.319 Y70.678 E112.61112
G0 F9000 X59.319 Y70.9
G0 X56.491 Y70.9
G0 X56.491 Y70.678
G1 F3000 X47.85 Y79.319 E113.01757
G0 F9000 X47.85 Y79.1
G0 X45.022 Y79.1
G0 X45.022 Y79.319
G1 F3000 X53.663 Y70.678 E113.42401
G0 F9000 X53.663 Y70.9
G0 X50.834 Y70.9
G0 X50.834 Y70.678
G1 F3000 X42.193 Y79.319 E113.83046
G0 F9000 X42.193 Y79.1
G0 X40.9 Y78.005
G0 X40.679 Y78.005
G1 F3000 X48.006 Y70.678 E114.1751
G0 F9000 X48.006 Y70.9
G0 X45.177 Y70.9
G0 X45.177 Y70.678
G1 F3000 X40.679 Y75.176 E114.38667
G0 F9000 X40.9 Y75.176
G0 X40.9 Y72.348
G0 X40.679 Y72.348
G1 F3000 X42.349 Y70.678 E114.46522
G1 F1500 X69.8 Y109.8 E116.62048
G1 X69.8 Y90.2 E117.27238
G0 F9000 X64.164 Y109.1
G0 X66.993 Y109.1
G0 X66.993 Y109.319
G1 F3000 X69.319 Y106.993 E118.97095
G0 F9000 X60.9 Y95.833
G0 X60.9 Y93.005
G0 X60.68 Y93.005
G1 F3000 X63.006 Y90.679 E120.91734
; Layer 3 - <Step 3.2> Rotate thread at { 65.00,  90.20,   0.80} to overlap next anchor at { 65.66,  93.68,   0.80}> -------------------------
G0 A-9.81277 F5000 ; Move and rotate  90.00°/{ 65.00,  79.80,   0.60} →  79.25°/{ 65.00,  90.20,   0.80},  ⃘65.869°
; Layer 3 - <Step 3.3 (1 segments)>: Print 1 segment to fix anchor> -------------------------
G0 F9000 X60.9 Y101.49 A-0.9239 ; (🧵79.255°,  ⃘64.945°)
G0 X60.9 Y98.661 A0.33511 ; (🧵79.255°,  ⃘65.280°)
G0 X60.68 Y98.661
G1 F3000 X68.662 Y90.679 E120.5655 A0.94293 ; (🧵79.255°,  ⃘66.223°)
; Layer 3 - <Step 3.4> Move thread to avoid printing over it with 3 segments?> -------------------------
; Layer 3 - <Step 3.5 (3 segments)>: Print 3 segments thread doesn't intersect> -------------------------
G1 X69.4 Y90.6 E115.3832
G1 X60.6 Y90.6 E115.67589
G1 X69.8 Y90.2 E117.27238
G1 X60.2 Y90.2 E117.59167
G0 F9000 X68.662 Y90.9
G0 X65.834 Y90.9
G0 X65.834 Y90.679
G1 F3000 X60.68 Y95.833 E120.80793 A-0.60842 ; (🧵79.255°,  ⃘65.614°)
; Layer 3 - <Step 3.6> Rotate thread at { 65.66,  93.68,   0.80} to overlap next anchor at { 60.20,  99.36,   0.80}> -------------------------
G0 A56.13688 F5000 ; Move and rotate  79.25°/{ 65.00,  90.20,   0.80} → 133.85°/{ 65.66,  93.68,   0.80},  ⃘121.751°
; Layer 3 - <Step 3.7 (1 segments)>: Print 1 segment to fix anchor> -------------------------
G1 X60.2 Y90.2 E117.59167 A-4.03419 ; (🧵133.854°,  ⃘117.717°)
G1 X60.2 Y109.8 E118.24357 A8.55633 ; (🧵133.854°,  ⃘126.273°)
; Layer 3 - <Step 3.8> Rotate thread at { 60.20,  99.36,   0.80} to overlap next anchor at { 69.40, 106.44,   0.80}> -------------------------
G0 A-94.53093 F5000 ; Move and rotate 133.85°/{ 65.66,  93.68,   0.80} →  37.55°/{ 60.20,  99.36,   0.80},  ⃘31.743°
; Layer 3 - <Step 3.9 (1 segments)>: Print 1 segment to fix anchor> -------------------------
G1 X69.4 Y109.4 E114.75791 A-1.45783 ; (🧵37.545°,  ⃘30.285°)
G1 X69.4 Y90.6 E115.3832 A9.20311 ; (🧵37.545°,  ⃘39.488°)
; Layer 3 - <Step 3.10> Move thread to avoid printing over it with 6 segments?> -------------------------
; Layer 3 - <Step 3.11 (6 segments)>: Print 6 segments thread doesn't intersect> -------------------------
G1 X60.6 Y90.6 E115.67589
G1 X60.6 Y109.4 E116.30118 A-9.20311 ; (🧵37.545°,  ⃘30.285°)
G0 F9000 X60.47 Y109.53
G0 X61.336 Y109.1 A0.1477 ; (🧵37.545°,  ⃘30.432°)
G0 X61.336 Y109.319
; TYPE:FILL
G1 F3000 X69.319 Y101.336 E118.61907 A3.80894 ; (🧵37.545°,  ⃘34.241°)
G0 F9000 X69.1 Y101.336
G0 X69.1 Y104.164 A-1.38481 ; (🧵37.545°,  ⃘32.857°)
G0 X69.319 Y104.164
G1 F3000 X64.164 Y109.319 E118.86154 A-2.53195 ; (🧵37.545°,  ⃘30.325°)
G0 F9000 X69.1 Y106.993 A1.1439 ; (🧵37.545°,  ⃘31.468°)
G0 X69.1 Y98.507 A4.15622 ; (🧵37.545°,  ⃘35.625°)
G0 X69.319 Y98.507
G1 F3000 X60.68 Y107.147 E119.37733 A-4.23188 ; (🧵37.545°,  ⃘31.393°)
G0 F9000 X60.9 Y107.147
G0 X60.9 Y104.318 A1.38822 ; (🧵37.545°,  ⃘32.781°)
G0 X60.68 Y104.318
G1 F3000 X69.319 Y95.679 E119.78368 A4.22541 ; (🧵37.545°,  ⃘37.006°)
G0 F9000 X69.1 Y95.679
G0 X69.1 Y92.85 A1.38193 ; (🧵37.545°,  ⃘38.388°)
G0 X69.319 Y92.85
G1 F3000 X60.68 Y101.49 E120.19005 A-4.22241 ; (🧵37.545°,  ⃘34.166°)
; Layer 3 - <Step 3.12> Rotate thread at { 69.40, 106.44,   0.80} to overlap next anchor at { 69.11, 109.80,   0.80}> -------------------------
G0 A43.31801 F5000 ; Move and rotate  37.55°/{ 60.20,  99.36,   0.80} →  94.87°/{ 69.40, 106.44,   0.80},  ⃘77.484°
; Layer 3 - <Step 3.13 (1 segments)>: Print 1 segment to fix anchor> -------------------------
G0 F9000 X60.2 Y109.8
; TYPE:WALL-OUTER
G1 F1500 X69.8 Y109.8 E116.62048
; Layer 3 - <Step 3.14> Move thread to avoid printing over it with 1 segments?> -------------------------
G0 A-4.43405 F5000 ; Move and rotate  94.87°/{ 69.40, 106.44,   0.80} →  90.00°/{ 69.11, 109.80,   0.80},  ⃘73.050°
; Layer 3 - <Step 3.15 (1 segments)>: Print 1 segments thread doesn't intersect> -------------------------
G0 F9000 X42.349 Y71.2
G1 F1500 E107.96522
; MESH:basic test.3mf(1)
G0 F9000 X60.87 Y79.58
G0 X60.87 Y80.665
G0 X60.87 Y89.335
G0 X60.87 Y90.42
G0 X60.87 Y109.13
G0 X60.6 Y109.4
; TYPE:WALL-INNER
G1 F1500 E114.46522
G1 X69.4 Y109.4 E114.75791
; ::: Layer 3 postamble :::
G0 F9000 X63.006 Y91.2
G1 F1500 E114.41734
; MESH:NONMESH
; ::: End layer 3 postamble :::
; ====== End layer 3 ====
; ==== Start layer 4 ====
; ::: Layer 4 postamble :::
G0 F300 X63.006 Y91.2 Z1
G0 F9000 X69.13 Y90.42
G0 X69.13 Y89.335
G0 X69.13 Y80.665
G0 X69.13 Y79.58
G0 X69.13 Y79.13
G0 X69.4 Y79.4
; TIME_ELAPSED:204.545875
; LAYER:4
; TYPE:WALL-INNER
; MESH:basic test.3mf
G1 F1500 E120.91734
G1 X69.4 Y70.6 E121.21003
G1 X40.6 Y70.6 E122.16792
G1 X40.6 Y79.4 E122.46061
G1 X69.4 Y79.4 E123.4185
G0 F9000 X69.8 Y79.8
; TYPE:WALL-OUTER
G1 F1500 X69.8 Y70.2 E123.7378
G1 X40.2 Y70.2 E124.7223
G1 X40.2 Y79.8 E125.0416
G1 X69.8 Y79.8 E126.0261
G0 F9000 X69.53 Y79.53
G0 X69.1 Y78.005
G0 X69.319 Y78.005
; TYPE:FILL
G1 F3000 X61.993 Y70.679 E126.37069
G0 F9000 X61.993 Y70.9
G0 X59.165 Y70.9
G0 X59.165 Y70.679
G1 F3000 X67.804 Y79.318 E126.77704
G0 F9000 X67.804 Y79.1
G0 X64.976 Y79.1
G0 X64.976 Y79.318
G1 F3000 X56.336 Y70.679 E127.18342
G0 F9000 X56.336 Y70.9
G0 X53.508 Y70.9
G0 X53.508 Y70.679
G1 F3000 X62.147 Y79.318 E127.58977
G0 F9000 X62.147 Y79.1
G0 X59.319 Y79.1
G0 X59.319 Y79.318
G1 F3000 X50.679 Y70.679 E127.99614
G0 F9000 X50.679 Y70.9
G0 X47.851 Y70.9
G0 X47.851 Y70.679
G1 F3000 X56.49 Y79.318 E128.4025
G0 F9000 X56.49 Y79.1
G0 X53.662 Y79.1
G0 X53.662 Y79.318
G1 F3000 X45.022 Y70.679 E128.80887
G0 F9000 X45.022 Y70.9
G0 X42.194 Y70.9
G0 X42.194 Y70.679
G1 F3000 X50.833 Y79.318 E129.21522
G0 F9000 X50.833 Y79.1
G0 X48.005 Y79.1
G0 X48.005 Y79.318
G1 F3000 X40.679 Y71.993 E129.55979
G0 F9000 X40.9 Y71.993
G0 X40.9 Y74.821
G0 X40.679 Y74.821
G1 F3000 X45.177 Y79.318 E129.77134
G0 F9000 X45.177 Y79.1
G0 X42.348 Y79.1
G0 X42.348 Y79.318
G1 F3000 X40.679 Y77.65 E129.84982
G0 F9000 X40.9 Y77.65
G0 X64.821 Y70.9
G0 X64.821 Y70.679
G1 F3000 X69.319 Y75.177 E130.06139
G0 F9000 X69.1 Y75.177
G0 X69.1 Y72.349
G0 X69.319 Y72.349
G1 F3000 X67.65 Y70.679 E130.13992
G0 F9000 X67.65 Y71.2
G1 F1500 E123.63992
; MESH:basic test.3mf(1)
G0 F9000 X60.87 Y79.58
G0 X60.87 Y80.665
G0 X60.87 Y89.335
G0 X60.87 Y90.42
G0 X60.87 Y109.13
G0 X60.6 Y109.4
; TYPE:WALL-INNER
G1 F1500 E130.13992
G1 X69.4 Y109.4 E130.43261
G1 X69.4 Y90.6 E131.0579
G1 X60.6 Y90.6 E131.35059
G1 X60.6 Y109.4 E131.97588
G0 F9000 X60.2 Y109.8
; TYPE:WALL-OUTER
G1 F1500 X69.8 Y109.8 E132.29518
G1 X69.8 Y90.2 E132.94708
G1 X60.2 Y90.2 E133.26638
G1 X60.2 Y109.8 E133.91827
G0 F9000 X60.47 Y109.53
G0 X63.006 Y109.1
G0 X63.006 Y109.319
; TYPE:FILL
G1 F3000 X60.679 Y106.992 E134.02773
G0 F9000 X60.9 Y106.992
G0 X60.9 Y104.163
G0 X60.679 Y104.163
G1 F3000 X65.835 Y109.319 E134.27025
G0 F9000 X65.835 Y109.1
G0 X68.663 Y109.1
G0 X68.663 Y109.319
G1 F3000 X60.679 Y101.335 E134.64579
G0 F9000 X60.9 Y101.335
G0 X60.9 Y98.507
G0 X60.679 Y98.507
G1 F3000 X69.32 Y107.147 E135.05222
G0 F9000 X69.1 Y107.147
G0 X69.1 Y104.319
G0 X69.32 Y104.319
G1 F3000 X60.679 Y95.678 E135.45866
G0 F9000 X60.9 Y95.678
G0 X60.9 Y92.85
G0 X60.679 Y92.85
G1 F3000 X69.32 Y101.491 E135.86511
G0 F9000 X69.1 Y101.491
G0 X69.1 Y98.662
G0 X69.32 Y98.662
G1 F3000 X61.337 Y90.679 E136.24061
G0 F9000 X61.337 Y90.9
G0 X64.165 Y90.9
G0 X64.165 Y90.679
G1 F3000 X69.32 Y95.834 E136.48308
G0 F9000 X69.1 Y95.834
G0 X69.1 Y93.005
G0 X69.32 Y93.005
G1 F3000 X66.994 Y90.679 E136.59249
G0 F9000 X66.994 Y91.2
G1 F1500 E130.09249
; MESH:NONMESH
; ::: End layer 4 postamble :::
; ====== End layer 4 ====
; ==== Start layer 5 ====
; ::: Layer 5 postamble :::
G0 F300 X66.994 Y91.2 Z1.2
G0 F9000 X69.13 Y90.42
G0 X69.13 Y89.335
G0 X69.13 Y80.665
G0 X69.13 Y79.58
G0 X69.13 Y79.13
G0 X69.4 Y79.4
; TIME_ELAPSED:228.109649
; LAYER:5
; TYPE:WALL-INNER
; MESH:basic test.3mf
G1 F1500 E136.59249
G1 X69.4 Y70.6 E136.88518
G1 X40.6 Y70.6 E137.84307
G1 X40.6 Y79.4 E138.13576
G1 X69.4 Y79.4 E139.09365
G0 F9000 X69.8 Y79.8
; TYPE:WALL-OUTER
G1 F1500 X69.8 Y70.2 E139.41295
G1 X40.2 Y70.2 E140.39745
G1 X40.2 Y79.8 E140.71675
G1 X69.8 Y79.8 E141.70125
G0 F9000 X69.53 Y79.53
G0 X69.3 Y79.04
G0 X69.04 Y79.04
; TYPE:SKIN
G1 F1500 X40.96 Y79.04 E142.63519
G1 X40.96 Y70.96 E142.90393
G1 X69.04 Y70.96 E143.83788
G1 X69.04 Y79.04 E144.10662
G0 F9000 X68.238 Y78.839
G1 F1500 X68.839 Y78.238 E144.13489
G0 F9000 X68.839 Y77.672
G1 F1500 X67.672 Y78.839 E144.18978
G0 F9000 X67.107 Y78.839
G1 F1500 X68.839 Y77.107 E144.27125
G0 F9000 X68.839 Y76.541
G1 F1500 X66.541 Y78.839 E144.37934
G0 F9000 X65.975 Y78.839
G1 F1500 X68.839 Y75.975 E144.51405
G0 F9000 X68.839 Y75.41
G1 F1500 X65.41 Y78.839 E144.67534
G0 F9000 X64.844 Y78.839
G1 F1500 X68.839 Y74.844 E144.86325
G0 F9000 X68.839 Y74.278
G1 F1500 X64.278 Y78.839 E145.07779
G0 F9000 X63.713 Y78.839
G1 F1500 X68.839 Y73.713 E145.3189
G0 F9000 X68.839 Y73.147
G1 F1500 X63.147 Y78.839 E145.58664
G0 F9000 X62.581 Y78.839
G1 F1500 X68.839 Y72.581 E145.88099
G0 F9000 X68.839 Y72.015
G1 F1500 X62.016 Y78.839 E146.20195
G0 F9000 X61.45 Y78.839
G1 F1500 X68.839 Y71.45 E146.54951
G0 F9000 X68.565 Y71.158
G1 F1500 X60.884 Y78.839 E146.9108
G0 F9000 X60.319 Y78.839
G1 F1500 X67.999 Y71.158 E147.27206
G0 F9000 X67.433 Y71.158
G1 F1500 X59.753 Y78.839 E147.63333
G0 F9000 X59.187 Y78.839
G1 F1500 X66.868 Y71.158 E147.99462
G0 F9000 X66.302 Y71.158
G1 F1500 X58.621 Y78.839 E148.35591
G0 F9000 X58.056 Y78.839
G1 F1500 X65.736 Y71.158 E148.71718
G0 F9000 X65.171 Y71.158
G1 F1500 X57.49 Y78.839 E149.07847
G0 F9000 X56.924 Y78.839
G1 F1500 X64.605 Y71.158 E149.43976
G0 F9000 X64.039 Y71.158
G1 F1500 X56.359 Y78.839 E149.80103
G0 F9000 X55.793 Y78.839
G1 F1500 X63.474 Y71.158 E150.16232
G0 F9000 X62.908 Y71.158
G1 F1500 X55.227 Y78.839 E150.52361
G0 F9000 X54.662 Y78.839
G1 F1500 X62.342 Y71.158 E150.88488
G0 F9000 X61.777 Y71.158
G1 F1500 X54.096 Y78.839 E151.24617
G0 F9000 X53.53 Y78.839
G1 F1500 X61.211 Y71.158 E151.60746
G0 F9000 X60.645 Y71.158
G1 F1500 X52.965 Y78.839 E151.96872
G0 F9000 X52.399 Y78.839
G1 F1500 X60.08 Y71.158 E152.33002
G0 F9000 X59.514 Y71.158
G1 F1500 X51.833 Y78.839 E152.69131
G0 F9000 X51.268 Y78.839
G1 F1500 X58.948 Y71.158 E153.05257
G0 F9000 X58.382 Y71.158
G1 F1500 X50.702 Y78.839 E153.41384
G0 F9000 X50.136 Y78.839
G1 F1500 X57.817 Y71.158 E153.77513
G0 F9000 X57.251 Y71.158
G1 F1500 X49.571 Y78.839 E154.1364
G0 F9000 X49.005 Y78.839
G1 F1500 X56.685 Y71.158 E154.49767
G0 F9000 X56.12 Y71.158
G1 F1500 X48.439 Y78.839 E154.85896
G0 F9000 X47.873 Y78.839
G1 F1500 X55.554 Y71.158 E155.22025
G0 F9000 X54.988 Y71.158
G1 F1500 X47.308 Y78.839 E155.58151
G0 F9000 X46.742 Y78.839
G1 F1500 X54.423 Y71.158 E155.9428
G0 F9000 X53.857 Y71.158
G1 F1500 X46.176 Y78.839 E156.3041
G0 F9000 X45.611 Y78.839
G1 F1500 X53.291 Y71.158 E156.66536
G0 F9000 X52.726 Y71.158
G1 F1500 X45.045 Y78.839 E157.02665
G0 F9000 X44.479 Y78.839
G1 F1500 X52.16 Y71.158 E157.38794
G0 F9000 X51.594 Y71.158
G1 F1500 X43.914 Y78.839 E157.74921
G0 F9000 X43.348 Y78.839
G1 F1500 X51.029 Y71.158 E158.1105
G0 F9000 X50.463 Y71.158
G1 F1500 X42.782 Y78.839 E158.47179
G0 F9000 X42.217 Y78.839
G1 F1500 X49.897 Y71.158 E158.83306
G0 F9000 X49.332 Y71.158
G1 F1500 X41.651 Y78.839 E159.19435
G0 F9000 X41.159 Y78.765
G1 F1500 X48.766 Y71.158 E159.55216
G0 F9000 X48.2 Y71.158
G1 F1500 X41.159 Y78.199 E159.88335
G0 F9000 X41.159 Y77.633
G1 F1500 X47.634 Y71.158 E160.18791
G0 F9000 X47.069 Y71.158
G1 F1500 X41.159 Y77.068 E160.4659
G0 F9000 X41.159 Y76.502
G1 F1500 X46.503 Y71.158 E160.71726
G0 F9000 X45.937 Y71.158
G1 F1500 X41.159 Y75.936 E160.94201
G0 F9000 X41.159 Y75.371
G1 F1500 X45.372 Y71.158 E161.14017
G0 F9000 X44.806 Y71.158
G1 F1500 X41.159 Y74.805 E161.31172
G0 F9000 X41.159 Y74.239
G1 F1500 X44.24 Y71.158 E161.45664
G0 F9000 X43.675 Y71.158
G1 F1500 X41.159 Y73.674 E161.57498
G0 F9000 X41.159 Y73.108
G1 F1500 X43.109 Y71.158 E161.66671
G0 F9000 X42.543 Y71.158
G1 F1500 X41.159 Y72.542 E161.7318
G0 F9000 X41.159 Y71.977
G1 F1500 X41.978 Y71.158 E161.77033
G0 F9000 X41.412 Y71.158
G1 F1500 X41.159 Y71.411 E161.78223
G1 F1500 E155.28223
; MESH:basic test.3mf(1)
G0 F9000 X40.7 Y71.411
G0 X40.772 Y79.228
G0 X60.6 Y79.58
G0 X60.6 Y80.665
G0 X60.6 Y89.335
G0 X60.6 Y109.4
; TYPE:WALL-INNER
G1 F1500 E161.78223
G1 X69.4 Y109.4 E162.07492
G1 X69.4 Y90.6 E162.70021
G1 X60.6 Y90.6 E162.9929
G1 X60.6 Y109.4 E163.61819
G0 F9000 X60.2 Y109.8
; TYPE:WALL-OUTER
G1 F1500 X69.8 Y109.8 E163.93748
G1 X69.8 Y90.2 E164.58938
G1 X60.2 Y90.2 E164.90868
G1 X60.2 Y109.8 E165.56058
G0 F9000 X60.47 Y109.53
G0 X60.7 Y109.04
G0 X60.96 Y109.04
; TYPE:SKIN
G1 F1500 X60.96 Y90.96 E166.16192
G1 X69.04 Y90.96 E166.43066
G1 X69.04 Y109.04 E167.03201
G1 X60.96 Y109.04 E167.30075
G0 F9000 X60.7 Y109.04
G0 X68.22 Y109.3
G0 X68.22 Y108.839
G1 F1500 X68.839 Y108.219 E167.32989
G0 F9000 X68.839 Y107.654
G1 F1500 X67.654 Y108.839 E167.38563
G0 F9000 X67.088 Y108.839
G1 F1500 X68.839 Y107.088 E167.46799
G0 F9000 X68.839 Y106.522
G1 F1500 X66.523 Y108.839 E167.57695
G0 F9000 X65.957 Y108.839
G1 F1500 X68.839 Y105.957 E167.71251
G0 F9000 X68.839 Y105.391
G1 F1500 X65.391 Y108.839 E167.87469
G0 F9000 X64.826 Y108.839
G1 F1500 X68.839 Y104.825 E168.06348
G0 F9000 X68.839 Y104.26
G1 F1500 X64.26 Y108.839 E168.27886
G0 F9000 X63.694 Y108.839
G1 F1500 X68.839 Y103.694 E168.52086
G0 F9000 X68.839 Y103.128
G1 F1500 X63.129 Y108.839 E168.78947
G0 F9000 X62.563 Y108.839
G1 F1500 X68.839 Y102.563 E169.08467
G0 F9000 X68.839 Y101.997
G1 F1500 X61.997 Y108.839 E169.4065
G0 F9000 X61.432 Y108.839
G1 F1500 X68.839 Y101.431 E169.75493
G0 F9000 X68.839 Y100.865
G1 F1500 X61.16 Y108.545 E170.11615
G0 F9000 X61.16 Y107.979
G1 F1500 X68.839 Y100.3 E170.47734
G0 F9000 X68.839 Y99.734
G1 F1500 X61.16 Y107.413 E170.83854
G0 F9000 X61.16 Y106.848
G1 F1500 X68.839 Y99.168 E171.19976
G0 F9000 X68.839 Y98.603
G1 F1500 X61.16 Y106.282 E171.56096
G0 F9000 X61.16 Y105.716
G1 F1500 X68.839 Y98.037 E171.92215
G0 F9000 X68.839 Y97.471
G1 F1500 X61.16 Y105.151 E172.28337
G0 F9000 X61.16 Y104.585
G1 F1500 X68.839 Y96.906 E172.64457
G0 F9000 X68.839 Y96.34
G1 F1500 X61.16 Y104.019 E173.00577
G0 F9000 X61.16 Y103.453
G1 F1500 X68.839 Y95.774 E173.36696
G0 F9000 X68.839 Y95.209
G1 F1500 X61.16 Y102.888 E173.72816
G0 F9000 X61.16 Y102.322
G1 F1500 X68.839 Y94.643 E174.08936
G0 F9000 X68.839 Y94.077
G1 F1500 X61.16 Y101.756 E174.45055
G0 F9000 X61.16 Y101.191
G1 F1500 X68.839 Y93.512 E174.81175
G0 F9000 X68.839 Y92.946
G1 F1500 X61.16 Y100.625 E175.17295
G0 F9000 X61.16 Y100.059
G1 F1500 X68.839 Y92.38 E175.53414
G0 F9000 X68.839 Y91.814
G1 F1500 X61.16 Y99.494 E175.89536
G0 F9000 X61.16 Y98.928
G1 F1500 X68.839 Y91.249 E176.25656
G0 F9000 X68.363 Y91.159
G1 F1500 X61.16 Y98.362 E176.59537
G0 F9000 X61.16 Y97.797
G1 F1500 X67.798 Y91.159 E176.9076
G0 F9000 X67.232 Y91.159
G1 F1500 X61.16 Y97.231 E177.19321
G0 F9000 X61.16 Y96.665
G1 F1500 X66.666 Y91.159 E177.45219
G0 F9000 X66.101 Y91.159
G1 F1500 X61.16 Y96.1 E177.6846
G0 F9000 X61.16 Y95.534
G1 F1500 X65.535 Y91.159 E177.89039
G0 F9000 X64.969 Y91.159
G1 F1500 X61.16 Y94.968 E178.06955
G0 F9000 X61.16 Y94.402
G1 F1500 X64.403 Y91.159 E178.22209
G0 F9000 X63.838 Y91.159
G1 F1500 X61.16 Y93.837 E178.34806
G0 F9000 X61.16 Y93.271
G1 F1500 X63.272 Y91.159 E178.4474
G0 F9000 X62.706 Y91.159
G1 F1500 X61.16 Y92.705 E178.52012
G0 F9000 X61.16 Y92.14
G1 F1500 X62.141 Y91.159 E178.56626
G0 F9000 X61.575 Y91.159
G1 F1500 X61.16 Y91.574 E178.58578
; TIME_ELAPSED:290.283077
; ::: End layer 5 postamble :::
; ====== End layer 5 ====
G1 F1500 E172.08578
M107
G91 ; Relative positioning
G1 E-2 F2700 ; Retract a bit
G1 E-2 Z0.2 F2400 ; Retract and raise Z
G1 X5 Y5 F3000 ; Wipe out --- No ring intersection for thread H({ 69.11, 109.80,   0.80}, ↗ 90.00° ( -0.00,   8.80,   0.00))
G1 X5 Y5 F3000 ; Wipe out
G1 Z10 ; Raise Z more
G90 ; Absolute positioning

G1 X0 Y220 ; Present print
M106 S0 ; Turn-off fan
M104 S0 ; Turn-off hotend
M140 S0 ; Turn-off bed

M84 X Y E ; Disable all steppers but Z

M82 ; absolute extrusion mode
M104 S0
; End of Gcode
; SETTING_3 {"global_quality": "[general]\\nversion = 4\\nname = Standard Quality
; SETTING_3  #2\\ndefinition = creality_base\\n\\n[metadata]\\ntype = quality_cha
; SETTING_3 nges\\nquality_type = standard\\nsetting_version = 22\\n\\n[values]\\
; SETTING_3 n\\n", "extruder_quality": ["[general]\\nversion = 4\\nname = Standar
; SETTING_3 d Quality #2\\ndefinition = creality_ender3pro\\n\\n[metadata]\\ntype
; SETTING_3  = quality_changes\\nquality_type = standard\\nsetting_version = 22\\
; SETTING_3 nposition = 0\\n\\n[values]\\nbottom_layers = 1\\ninfill_pattern = li
; SETTING_3 nes\\ntop_layers = 1\\n\\n"]}
