; [1] FLAVOR:Marlin
; [2] TIME:233
; [3] Filament used: 0.142581m
; [4] Layer height: 0.2
; [5] MINX:33.36
; [6] MINY:55.841
; [7] MINZ:0.2
; [8] MAXX:75.342
; [9] MAXY:97.821
; [10] MAXZ:2
; [11] Generated with Cura_SteamEngine 5.2.2
M82 ; [12] absolute extrusion mode
; [13] Ender 3 Custom Start G-code
G92 E0 ; [14] Reset Extruder
G28 ; [15] Home all axes
M140 S60 ; Start heating bed
;G0 Z50 F5000.0 ; Raise Z to allow thread attachment
;M117 Bed heating, attach thread ; Display message
;M104 S175 ; [16] Start heating up the nozzle most of the way
M190 S60 ; [17] Start heating the bed, wait until target temperature reached
M109 S200 ; [18] Finish heating the nozzle
G1 Z2.0 F3000 ; [19] Move Z Axis up little to prevent scratching of Heat Bed
G1 X0.1 Y20 Z0.3 F5000.0 ; [20] Move to start position
G1 X0.1 Y200.0 Z0.3 F1500.0 E15 ; [21] Draw the first line
G1 X0.4 Y200.0 Z0.3 F5000.0 ; [22] Move to side a little
G1 X0.4 Y20 Z0.3 F1500.0 E30 ; [23] Draw the second line
G92 E0 ; [24] Reset Extruder
G1 Z2.0 F3000 ; [25] Move Z Axis up little to prevent scratching of Heat Bed
G1 X5 Y20 Z0.3 F5000.0 ; [26] Move over to prevent blob squish
G92 E0 ; [27]
G92 E0 ; [28]
G1 F1500 E-6.5 ; [29]
; [30] LAYER_COUNT:10
; [31] LAYER:0
M107 ; [32]
; ==== Start layer 0 ====
; ::: Layer 0 postamble :::
G0 F6000 X42.333 Y59.621 Z0.2 ; [33]
; [34] TYPE:SKIRT
G1 F1500 E0 ; [35]
G1 F1200 X42.768 Y59.325 E0.0175 ; [36]
G1 X43.125 Y59.094 E0.03164 ; [37]
G1 X43.584 Y58.812 E0.04956 ; [38]
G1 X44.067 Y58.532 E0.06813 ; [39]
G1 X44.532 Y58.278 E0.08575 ; [40]
G1 X44.944 Y58.065 E0.10118 ; [41]
G1 X45.471 Y57.81 E0.12065 ; [42]
G1 X45.943 Y57.597 E0.13787 ; [43]
G1 X46.447 Y57.384 E0.15607 ; [44]
G1 X46.885 Y57.212 E0.17172 ; [45]
G1 X47.391 Y57.028 E0.18963 ; [46]
G1 X47.898 Y56.857 E0.20743 ; [47]
G1 X48.446 Y56.688 E0.2265 ; [48]
G1 X48.928 Y56.553 E0.24315 ; [49]
G1 X49.44 Y56.423 E0.26072 ; [50]
G1 X49.916 Y56.314 E0.27696 ; [51]
G1 X50.459 Y56.203 E0.29539 ; [52]
G1 X50.952 Y56.116 E0.31204 ; [53]
G1 X51.505 Y56.033 E0.33064 ; [54]
G1 X52.003 Y55.971 E0.34733 ; [55]
G1 X52.585 Y55.914 E0.36678 ; [56]
G1 X53.136 Y55.875 E0.38516 ; [57]
G1 X53.706 Y55.85 E0.40413 ; [58]
G1 X54.184 Y55.841 E0.42003 ; [59]
G1 X54.717 Y55.844 E0.43776 ; [60]
G1 X55.223 Y55.859 E0.4546 ; [61]
G1 X55.742 Y55.887 E0.47189 ; [62]
G1 X56.222 Y55.924 E0.4879 ; [63]
G1 X56.821 Y55.986 E0.50793 ; [64]
G1 X57.357 Y56.057 E0.52591 ; [65]
G1 X57.893 Y56.142 E0.54396 ; [66]
G1 X58.374 Y56.23 E0.56023 ; [67]
G1 X58.884 Y56.335 E0.57754 ; [68]
G1 X59.366 Y56.447 E0.594 ; [69]
G1 X59.898 Y56.585 E0.61228 ; [70]
G1 X60.339 Y56.711 E0.62754 ; [71]
G1 X60.875 Y56.879 E0.64622 ; [72]
G1 X61.384 Y57.053 E0.66411 ; [73]
G1 X61.884 Y57.238 E0.68184 ; [74]
G1 X62.335 Y57.417 E0.69798 ; [75]
G1 X62.841 Y57.633 E0.71628 ; [76]
G1 X63.205 Y57.799 E0.72959 ; [77]
G1 X63.668 Y58.023 E0.74669 ; [78]
G1 X64.211 Y58.302 E0.767 ; [79]
G1 X64.759 Y58.603 E0.78779 ; [80]
G1 X65.22 Y58.874 E0.80558 ; [81]
G1 X65.676 Y59.157 E0.82343 ; [82]
G1 X66.065 Y59.412 E0.8389 ; [83]
G1 X66.521 Y59.728 E0.85735 ; [84]
G1 X66.899 Y60.004 E0.87292 ; [85]
G1 X67.307 Y60.317 E0.89002 ; [86]
G1 X67.757 Y60.679 E0.90923 ; [87]
G1 X68.233 Y61.085 E0.93004 ; [88]
G1 X68.583 Y61.401 E0.94572 ; [89]
G1 X68.966 Y61.764 E0.96327 ; [90]
G1 X69.292 Y62.088 E0.97856 ; [91]
G1 X69.641 Y62.45 E0.99529 ; [92]
G1 X70 Y62.841 E1.01294 ; [93]
G1 X70.433 Y63.343 E1.03499 ; [94]
G1 X70.815 Y63.813 E1.05513 ; [95]
G1 X71.129 Y64.218 E1.07218 ; [96]
G1 X71.38 Y64.558 E1.08624 ; [97]
G1 X71.672 Y64.973 E1.10311 ; [98]
G1 X71.931 Y65.36 E1.1186 ; [99]
G1 X72.258 Y65.881 E1.13906 ; [100]
G1 X72.55 Y66.375 E1.15815 ; [101]
G1 X72.803 Y66.826 E1.17535 ; [102]
G1 X73.02 Y67.236 E1.19077 ; [103]
G1 X73.262 Y67.721 E1.2088 ; [104]
G1 X73.465 Y68.155 E1.22474 ; [105]
G1 X73.68 Y68.645 E1.24254 ; [106]
G1 X73.882 Y69.138 E1.26026 ; [107]
G1 X74.082 Y69.666 E1.27903 ; [108]
G1 X74.234 Y70.099 E1.2943 ; [109]
G1 X74.406 Y70.63 E1.31286 ; [110]
G1 X74.547 Y71.108 E1.32944 ; [111]
G1 X74.69 Y71.644 E1.34789 ; [112]
G1 X74.816 Y72.167 E1.36578 ; [113]
G1 X74.931 Y72.7 E1.38392 ; [114]
G1 X75.027 Y73.208 E1.40111 ; [115]
G1 X75.119 Y73.777 E1.42028 ; [116]
G1 X75.182 Y74.243 E1.43592 ; [117]
G1 X75.24 Y74.772 E1.45362 ; [118]
G1 X75.285 Y75.294 E1.47105 ; [119]
G1 X75.319 Y75.837 E1.48915 ; [120]
G1 X75.336 Y76.302 E1.50462 ; [121]
G1 X75.342 Y76.885 E1.52401 ; [122]
G1 X75.333 Y77.431 E1.54218 ; [123]
G1 X75.311 Y77.965 E1.55995 ; [124]
G1 X75.279 Y78.456 E1.57632 ; [125]
G1 X75.228 Y79.014 E1.59495 ; [126]
G1 X75.17 Y79.512 E1.61163 ; [127]
G1 X75.088 Y80.086 E1.63091 ; [128]
G1 X75.002 Y80.591 E1.64795 ; [129]
G1 X74.901 Y81.109 E1.66551 ; [130]
G1 X74.794 Y81.595 E1.68206 ; [131]
G1 X74.665 Y82.117 E1.69994 ; [132]
G1 X74.538 Y82.584 E1.71604 ; [133]
G1 X74.372 Y83.137 E1.73524 ; [134]
G1 X74.211 Y83.626 E1.75236 ; [135]
G1 X74.037 Y84.116 E1.76966 ; [136]
G1 X73.866 Y84.563 E1.78558 ; [137]
G1 X73.645 Y85.099 E1.80486 ; [138]
G1 X73.43 Y85.583 E1.82248 ; [139]
G1 X73.206 Y86.055 E1.83985 ; [140]
G1 X72.998 Y86.469 E1.85526 ; [141]
G1 X72.734 Y86.963 E1.87389 ; [142]
G1 X72.483 Y87.405 E1.8908 ; [143]
G1 X72.176 Y87.914 E1.91057 ; [144]
G1 X71.868 Y88.394 E1.92954 ; [145]
G1 X71.566 Y88.84 E1.94745 ; [146]
G1 X71.29 Y89.227 E1.96326 ; [147]
G1 X70.983 Y89.637 E1.9803 ; [148]
G1 X70.726 Y89.964 E1.99413 ; [149]
G1 X70.392 Y90.368 E2.01157 ; [150]
G1 X70.017 Y90.801 E2.03062 ; [151]
G1 X69.602 Y91.254 E2.05105 ; [152]
G1 X69.259 Y91.608 E2.06744 ; [153]
G1 X68.897 Y91.965 E2.08436 ; [154]
G1 X68.541 Y92.3 E2.10061 ; [155]
G1 X68.1 Y92.694 E2.12028 ; [156]
G1 X67.708 Y93.025 E2.13735 ; [157]
G1 X67.273 Y93.373 E2.15588 ; [158]
G1 X66.867 Y93.682 E2.17285 ; [159]
G1 X66.375 Y94.036 E2.193 ; [160]
G1 X65.913 Y94.349 E2.21157 ; [161]
G1 X65.125 Y94.845 E2.24253 ; [162]
G1 X64.678 Y95.106 E2.25975 ; [163]
G1 X64.275 Y95.328 E2.27505 ; [164]
G1 X63.789 Y95.58 E2.29326 ; [165]
G1 X63.34 Y95.799 E2.30988 ; [166]
G1 X62.814 Y96.038 E2.32909 ; [167]
G1 X62.286 Y96.262 E2.34817 ; [168]
G1 X61.788 Y96.459 E2.36598 ; [169]
G1 X61.364 Y96.615 E2.38101 ; [170]
G1 X60.826 Y96.798 E2.39991 ; [171]
G1 X60.333 Y96.951 E2.41708 ; [172]
G1 X59.794 Y97.103 E2.4357 ; [173]
G1 X59.277 Y97.235 E2.45345 ; [174]
G1 X58.752 Y97.356 E2.47137 ; [175]
G1 X58.325 Y97.443 E2.48586 ; [176]
G1 X57.782 Y97.539 E2.50421 ; [177]
G1 X57.236 Y97.622 E2.52257 ; [178]
G1 X56.673 Y97.693 E2.54145 ; [179]
G1 X56.181 Y97.742 E2.55789 ; [180]
G1 X55.638 Y97.782 E2.576 ; [181]
G1 X55.136 Y97.807 E2.59272 ; [182]
G1 X54.567 Y97.821 E2.61165 ; [183]
G1 X54.069 Y97.82 E2.62821 ; [184]
G1 X53.503 Y97.804 E2.64705 ; [185]
G1 X52.961 Y97.775 E2.6651 ; [186]
G1 X52.418 Y97.733 E2.68321 ; [187]
G1 X51.973 Y97.687 E2.69809 ; [188]
G1 X51.406 Y97.613 E2.71711 ; [189]
G1 X50.862 Y97.528 E2.73542 ; [190]
G1 X50.345 Y97.435 E2.7529 ; [191]
G1 X49.878 Y97.339 E2.76875 ; [192]
G1 X49.333 Y97.212 E2.78737 ; [193]
G1 X48.843 Y97.085 E2.8042 ; [194]
G1 X48.326 Y96.937 E2.82209 ; [195]
G1 X47.855 Y96.79 E2.8385 ; [196]
G1 X47.319 Y96.608 E2.85733 ; [197]
G1 X46.813 Y96.421 E2.87527 ; [198]
G1 X46.277 Y96.207 E2.89446 ; [199]
G1 X45.817 Y96.009 E2.91112 ; [200]
G1 X45.305 Y95.773 E2.92987 ; [201]
G1 X44.901 Y95.574 E2.94485 ; [202]
G1 X44.448 Y95.337 E2.96185 ; [203]
G1 X43.975 Y95.076 E2.97982 ; [204]
G1 X43.546 Y94.827 E2.99632 ; [205]
G1 X43.136 Y94.576 E3.01231 ; [206]
G1 X42.611 Y94.233 E3.03317 ; [207]
G1 X42.2 Y93.948 E3.0498 ; [208]
G1 X41.766 Y93.632 E3.06766 ; [209]
G1 X41.369 Y93.327 E3.08431 ; [210]
G1 X40.923 Y92.965 E3.10341 ; [211]
G1 X40.523 Y92.623 E3.12092 ; [212]
G1 X40.125 Y92.266 E3.1387 ; [213]
G1 X39.758 Y91.92 E3.15548 ; [214]
G1 X39.331 Y91.495 E3.17551 ; [215]
G1 X38.985 Y91.131 E3.19222 ; [216]
G1 X38.625 Y90.732 E3.21009 ; [217]
G1 X38.295 Y90.349 E3.22691 ; [218]
G1 X37.95 Y89.928 E3.24501 ; [219]
G1 X37.619 Y89.503 E3.26293 ; [220]
G1 X37.282 Y89.047 E3.28179 ; [221]
G1 X37.017 Y88.668 E3.29717 ; [222]
G1 X36.735 Y88.245 E3.31408 ; [223]
G1 X36.482 Y87.845 E3.32982 ; [224]
G1 X36.192 Y87.358 E3.34867 ; [225]
G1 X35.931 Y86.894 E3.36638 ; [226]
G1 X35.675 Y86.411 E3.38456 ; [227]
G1 X35.455 Y85.97 E3.40095 ; [228]
G1 X35.214 Y85.455 E3.41986 ; [229]
G1 X35.017 Y85.003 E3.43626 ; [230]
G1 X34.818 Y84.514 E3.45382 ; [231]
G1 X34.633 Y84.027 E3.47115 ; [232]
G1 X34.454 Y83.518 E3.48909 ; [233]
G1 X34.316 Y83.093 E3.50396 ; [234]
G1 X34.161 Y82.573 E3.522 ; [235]
G1 X34.022 Y82.06 E3.53968 ; [236]
G1 X33.888 Y81.51 E3.55851 ; [237]
G1 X33.793 Y81.071 E3.57345 ; [238]
G1 X33.693 Y80.549 E3.59113 ; [239]
G1 X33.602 Y80.002 E3.60957 ; [240]
G1 X33.522 Y79.424 E3.62898 ; [241]
G1 X33.465 Y78.916 E3.64598 ; [242]
G1 X33.417 Y78.371 E3.66418 ; [243]
G1 X33.386 Y77.872 E3.6808 ; [244]
G1 X33.365 Y77.294 E3.70004 ; [245]
G1 X33.36 Y76.763 E3.7177 ; [246]
G1 X33.37 Y76.198 E3.7365 ; [247]
G1 X33.39 Y75.721 E3.75238 ; [248]
G1 X33.424 Y75.202 E3.76968 ; [249]
G1 X33.464 Y74.755 E3.7846 ; [250]
G1 X33.526 Y74.211 E3.80281 ; [251]
G1 X33.608 Y73.625 E3.82249 ; [252]
G1 X33.694 Y73.103 E3.84009 ; [253]
G1 X33.779 Y72.654 E3.85529 ; [254]
G1 X33.914 Y72.037 E3.8763 ; [255]
G1 X34.045 Y71.512 E3.89429 ; [256]
G1 X34.193 Y70.977 E3.91276 ; [257]
G1 X34.344 Y70.48 E3.93003 ; [258]
G1 X34.52 Y69.949 E3.94864 ; [259]
G1 X34.68 Y69.505 E3.96434 ; [260]
G1 X34.871 Y69.012 E3.98192 ; [261]
G1 X35.068 Y68.538 E3.99899 ; [262]
G1 X35.297 Y68.026 E4.01765 ; [263]
G1 X35.523 Y67.552 E4.03511 ; [264]
G1 X35.771 Y67.064 E4.05332 ; [265]
G1 X35.99 Y66.658 E4.06866 ; [266]
G1 X36.257 Y66.19 E4.08658 ; [267]
G1 X36.503 Y65.783 E4.1024 ; [268]
G1 X36.784 Y65.342 E4.11979 ; [269]
G1 X37.078 Y64.904 E4.13734 ; [270]
G1 X37.446 Y64.388 E4.15842 ; [271]
G1 X37.785 Y63.941 E4.17708 ; [272]
G1 X38.1 Y63.546 E4.19388 ; [273]
G1 X38.39 Y63.198 E4.20895 ; [274]
G1 X38.742 Y62.795 E4.22674 ; [275]
G1 X39.061 Y62.448 E4.24242 ; [276]
G1 X39.462 Y62.034 E4.26159 ; [277]
G1 X39.849 Y61.655 E4.27961 ; [278]
G1 X40.261 Y61.272 E4.29832 ; [279]
G1 X40.623 Y60.952 E4.31439 ; [280]
G1 X41.013 Y60.624 E4.33134 ; [281]
G1 X41.407 Y60.307 E4.34816 ; [282]
G1 X41.891 Y59.938 E4.3684 ; [283]
G1 X42.333 Y59.621 E4.38649 ; [284]
G0 F6000 X42.566 Y59.946 ; [285]
G1 F1200 X42.986 Y59.661 E4.40337 ; [286]
G1 X43.343 Y59.43 E4.41751 ; [287]
G1 X43.785 Y59.159 E4.43476 ; [288]
G1 X44.268 Y58.879 E4.45333 ; [289]
G1 X44.716 Y58.633 E4.47033 ; [290]
G1 X45.128 Y58.42 E4.48575 ; [291]
G1 X45.636 Y58.174 E4.50453 ; [292]
G1 X46.108 Y57.961 E4.52175 ; [293]
G1 X46.593 Y57.756 E4.53926 ; [294]
G1 X47.031 Y57.584 E4.55491 ; [295]
G1 X47.518 Y57.407 E4.57215 ; [296]
G1 X48.025 Y57.236 E4.58994 ; [297]
G1 X48.554 Y57.073 E4.60835 ; [298]
G1 X49.036 Y56.938 E4.625 ; [299]
G1 X49.529 Y56.812 E4.64193 ; [300]
G1 X50.005 Y56.703 E4.65817 ; [301]
G1 X50.529 Y56.597 E4.67595 ; [302]
G1 X51.022 Y56.51 E4.6926 ; [303]
G1 X51.554 Y56.43 E4.71049 ; [304]
G1 X52.052 Y56.368 E4.72719 ; [305]
G1 X52.614 Y56.313 E4.74597 ; [306]
G1 X53.165 Y56.274 E4.76434 ; [307]
G1 X53.713 Y56.25 E4.78258 ; [308]
G1 X54.191 Y56.241 E4.79848 ; [309]
G1 X54.705 Y56.244 E4.81558 ; [310]
G1 X55.211 Y56.259 E4.83242 ; [311]
G1 X55.712 Y56.285 E4.8491 ; [312]
G1 X56.192 Y56.322 E4.86512 ; [313]
G1 X56.769 Y56.383 E4.88441 ; [314]
G1 X57.305 Y56.454 E4.9024 ; [315]
G1 X57.821 Y56.535 E4.91977 ; [316]
G1 X58.302 Y56.623 E4.93603 ; [317]
G1 X58.793 Y56.725 E4.95271 ; [318]
G1 X59.275 Y56.837 E4.96917 ; [319]
G1 X59.788 Y56.97 E4.9868 ; [320]
G1 X60.229 Y57.096 E5.00205 ; [321]
G1 X60.746 Y57.258 E5.02007 ; [322]
G1 X61.255 Y57.432 E5.03796 ; [323]
G1 X61.736 Y57.61 E5.05502 ; [324]
G1 X62.187 Y57.789 E5.07116 ; [325]
G1 X62.675 Y57.997 E5.0888 ; [326]
G1 X63.039 Y58.163 E5.10211 ; [327]
G1 X63.485 Y58.379 E5.11859 ; [328]
G1 X64.028 Y58.658 E5.1389 ; [329]
G1 X64.556 Y58.948 E5.15893 ; [330]
G1 X65.017 Y59.219 E5.17672 ; [331]
G1 X65.456 Y59.492 E5.19391 ; [332]
G1 X65.845 Y59.747 E5.20938 ; [333]
G1 X66.285 Y60.051 E5.22717 ; [334]
G1 X66.663 Y60.327 E5.24274 ; [335]
G1 X67.056 Y60.629 E5.25922 ; [336]
G1 X67.506 Y60.991 E5.27843 ; [337]
G1 X67.965 Y61.382 E5.29849 ; [338]
G1 X68.315 Y61.698 E5.31417 ; [339]
G1 X68.684 Y62.048 E5.33109 ; [340]
G1 X69.01 Y62.372 E5.34637 ; [341]
G1 X69.346 Y62.721 E5.36249 ; [342]
G1 X69.705 Y63.112 E5.38014 ; [343]
G1 X70.123 Y63.595 E5.40139 ; [344]
G1 X70.505 Y64.065 E5.42153 ; [345]
G1 X70.807 Y64.455 E5.43794 ; [346]
G1 X71.058 Y64.795 E5.45199 ; [347]
G1 X71.339 Y65.195 E5.46825 ; [348]
G1 X71.598 Y65.582 E5.48374 ; [349]
G1 X71.914 Y66.084 E5.50347 ; [350]
G1 X72.206 Y66.578 E5.52255 ; [351]
G1 X72.45 Y67.013 E5.53914 ; [352]
G1 X72.667 Y67.423 E5.55457 ; [353]
G1 X72.9 Y67.891 E5.57196 ; [354]
G1 X73.103 Y68.325 E5.5879 ; [355]
G1 X73.31 Y68.797 E5.60504 ; [356]
G1 X73.512 Y69.29 E5.62276 ; [357]
G1 X73.705 Y69.798 E5.64083 ; [358]
G1 X73.857 Y70.231 E5.6561 ; [359]
G1 X74.022 Y70.743 E5.67399 ; [360]
G1 X74.163 Y71.221 E5.69056 ; [361]
G1 X74.301 Y71.737 E5.70833 ; [362]
G1 X74.427 Y72.26 E5.72622 ; [363]
G1 X74.538 Y72.775 E5.74374 ; [364]
G1 X74.634 Y73.283 E5.76094 ; [365]
G1 X74.722 Y73.831 E5.7794 ; [366]
G1 X74.785 Y74.297 E5.79504 ; [367]
G1 X74.842 Y74.807 E5.81211 ; [368]
G1 X74.887 Y75.329 E5.82953 ; [369]
G1 X74.919 Y75.852 E5.84696 ; [370]
G1 X74.936 Y76.317 E5.86244 ; [371]
G1 X74.942 Y76.879 E5.88113 ; [372]
G1 X74.933 Y77.425 E5.89929 ; [373]
G1 X74.912 Y77.939 E5.9164 ; [374]
G1 X74.88 Y78.43 E5.93277 ; [375]
G1 X74.831 Y78.967 E5.9507 ; [376]
G1 X74.773 Y79.465 E5.96738 ; [377]
G1 X74.694 Y80.019 E5.98599 ; [378]
G1 X74.608 Y80.524 E6.00303 ; [379]
G1 X74.51 Y81.023 E6.01994 ; [380]
G1 X74.403 Y81.509 E6.0365 ; [381]
G1 X74.28 Y82.012 E6.05372 ; [382]
G1 X74.153 Y82.479 E6.06981 ; [383]
G1 X73.992 Y83.012 E6.08833 ; [384]
G1 X73.831 Y83.501 E6.10546 ; [385]
G1 X73.663 Y83.973 E6.12212 ; [386]
G1 X73.492 Y84.42 E6.13804 ; [387]
G1 X73.279 Y84.936 E6.15661 ; [388]
G1 X73.064 Y85.42 E6.17422 ; [389]
G1 X72.849 Y85.876 E6.19099 ; [390]
G1 X72.641 Y86.29 E6.2064 ; [391]
G1 X72.386 Y86.765 E6.22433 ; [392]
G1 X72.135 Y87.207 E6.24123 ; [393]
G1 X71.839 Y87.698 E6.2603 ; [394]
G1 X71.531 Y88.178 E6.27927 ; [395]
G1 X71.24 Y88.608 E6.29654 ; [396]
G1 X70.964 Y88.995 E6.31235 ; [397]
G1 X70.668 Y89.39 E6.32877 ; [398]
G1 X70.411 Y89.717 E6.3426 ; [399]
G1 X70.09 Y90.106 E6.35938 ; [400]
G1 X69.715 Y90.539 E6.37843 ; [401]
G1 X69.315 Y90.976 E6.39813 ; [402]
G1 X68.972 Y91.33 E6.41453 ; [403]
G1 X68.623 Y91.674 E6.43083 ; [404]
G1 X68.267 Y92.009 E6.44708 ; [405]
G1 X67.842 Y92.388 E6.46602 ; [406]
G1 X67.45 Y92.719 E6.48309 ; [407]
G1 X67.031 Y93.055 E6.50095 ; [408]
G1 X66.625 Y93.364 E6.51792 ; [409]
G1 X66.15 Y93.705 E6.53737 ; [410]
G1 X65.688 Y94.018 E6.55593 ; [411]
G1 X64.916 Y94.504 E6.58627 ; [412]
G1 X64.485 Y94.755 E6.60286 ; [413]
G1 X64.082 Y94.977 E6.61816 ; [414]
G1 X63.614 Y95.22 E6.6357 ; [415]
G1 X63.165 Y95.439 E6.65232 ; [416]
G1 X62.658 Y95.67 E6.67085 ; [417]
G1 X62.13 Y95.894 E6.68992 ; [418]
G1 X61.65 Y96.084 E6.70709 ; [419]
G1 X61.226 Y96.24 E6.72212 ; [420]
G1 X60.708 Y96.416 E6.74032 ; [421]
G1 X60.215 Y96.569 E6.75749 ; [422]
G1 X59.695 Y96.716 E6.77546 ; [423]
G1 X59.178 Y96.848 E6.79321 ; [424]
G1 X58.672 Y96.964 E6.81047 ; [425]
G1 X58.245 Y97.051 E6.82497 ; [426]
G1 X57.722 Y97.144 E6.84263 ; [427]
G1 X57.176 Y97.227 E6.861 ; [428]
G1 X56.633 Y97.295 E6.8792 ; [429]
G1 X56.141 Y97.344 E6.89565 ; [430]
G1 X55.618 Y97.383 E6.91309 ; [431]
G1 X55.116 Y97.408 E6.92981 ; [432]
G1 X54.568 Y97.421 E6.94804 ; [433]
G1 X54.07 Y97.42 E6.9646 ; [434]
G1 X53.525 Y97.405 E6.98274 ; [435]
G1 X52.983 Y97.376 E7.00079 ; [436]
G1 X52.459 Y97.335 E7.01827 ; [437]
G1 X52.014 Y97.289 E7.03315 ; [438]
G1 X51.468 Y97.218 E7.05147 ; [439]
G1 X50.924 Y97.133 E7.06978 ; [440]
G1 X50.426 Y97.043 E7.08661 ; [441]
G1 X49.959 Y96.947 E7.10247 ; [442]
G1 X49.434 Y96.825 E7.12039 ; [443]
G1 X48.944 Y96.698 E7.13723 ; [444]
G1 X48.445 Y96.556 E7.15449 ; [445]
G1 X47.974 Y96.409 E7.1709 ; [446]
G1 X47.458 Y96.233 E7.18903 ; [447]
G1 X46.952 Y96.046 E7.20697 ; [448]
G1 X46.435 Y95.839 E7.22549 ; [449]
G1 X45.975 Y95.641 E7.24215 ; [450]
G1 X45.482 Y95.414 E7.2602 ; [451]
G1 X45.078 Y95.215 E7.27518 ; [452]
G1 X44.641 Y94.987 E7.29158 ; [453]
G1 X44.168 Y94.726 E7.30954 ; [454]
G1 X43.754 Y94.485 E7.32548 ; [455]
G1 X43.344 Y94.234 E7.34147 ; [456]
G1 X42.839 Y93.905 E7.36151 ; [457]
G1 X42.428 Y93.62 E7.37815 ; [458]
G1 X42.01 Y93.315 E7.39536 ; [459]
G1 X41.613 Y93.01 E7.41201 ; [460]
G1 X41.183 Y92.661 E7.43043 ; [461]
G1 X40.783 Y92.319 E7.44793 ; [462]
G1 X40.4 Y91.975 E7.46506 ; [463]
G1 X40.033 Y91.629 E7.48183 ; [464]
G1 X39.621 Y91.219 E7.50116 ; [465]
G1 X39.275 Y90.855 E7.51787 ; [466]
G1 X38.928 Y90.471 E7.53508 ; [467]
G1 X38.598 Y90.088 E7.5519 ; [468]
G1 X38.265 Y89.682 E7.56936 ; [469]
G1 X37.934 Y89.257 E7.58728 ; [470]
G1 X37.61 Y88.818 E7.60542 ; [471]
G1 X37.345 Y88.439 E7.62081 ; [472]
G1 X37.074 Y88.031 E7.6371 ; [473]
G1 X36.821 Y87.631 E7.65284 ; [474]
G1 X36.54 Y87.162 E7.67102 ; [475]
G1 X36.279 Y86.698 E7.68873 ; [476]
G1 X36.033 Y86.233 E7.70623 ; [477]
G1 X35.813 Y85.792 E7.72262 ; [478]
G1 X35.581 Y85.295 E7.74086 ; [479]
G1 X35.384 Y84.843 E7.75726 ; [480]
G1 X35.192 Y84.372 E7.77418 ; [481]
G1 X35.007 Y83.885 E7.7915 ; [482]
G1 X34.834 Y83.395 E7.80879 ; [483]
G1 X34.696 Y82.97 E7.82365 ; [484]
G1 X34.547 Y82.468 E7.84107 ; [485]
G1 X34.408 Y81.955 E7.85874 ; [486]
G1 X34.279 Y81.425 E7.87689 ; [487]
G1 X34.184 Y80.986 E7.89183 ; [488]
G1 X34.088 Y80.484 E7.90883 ; [489]
G1 X33.997 Y79.937 E7.92727 ; [490]
G1 X33.919 Y79.379 E7.94601 ; [491]
G1 X33.862 Y78.871 E7.96301 ; [492]
G1 X33.816 Y78.346 E7.98054 ; [493]
G1 X33.785 Y77.847 E7.99717 ; [494]
G1 X33.765 Y77.29 E8.01571 ; [495]
G1 X33.76 Y76.759 E8.03337 ; [496]
G1 X33.769 Y76.215 E8.05146 ; [497]
G1 X33.789 Y75.738 E8.06734 ; [498]
G1 X33.822 Y75.237 E8.08404 ; [499]
G1 X33.862 Y74.79 E8.09897 ; [500]
G1 X33.922 Y74.266 E8.11651 ; [501]
G1 X34.004 Y73.68 E8.13619 ; [502]
G1 X34.087 Y73.177 E8.15315 ; [503]
G1 X34.172 Y72.728 E8.16835 ; [504]
G1 X34.302 Y72.134 E8.18857 ; [505]
G1 X34.433 Y71.609 E8.20657 ; [506]
G1 X34.576 Y71.094 E8.22434 ; [507]
G1 X34.727 Y70.597 E8.24162 ; [508]
G1 X34.897 Y70.084 E8.2596 ; [509]
G1 X35.057 Y69.64 E8.27529 ; [510]
G1 X35.241 Y69.166 E8.2922 ; [511]
G1 X35.438 Y68.692 E8.30928 ; [512]
G1 X35.658 Y68.198 E8.32726 ; [513]
G1 X35.884 Y67.724 E8.34473 ; [514]
G1 X36.123 Y67.254 E8.36227 ; [515]
G1 X36.342 Y66.848 E8.37761 ; [516]
G1 X36.599 Y66.397 E8.39487 ; [517]
G1 X36.845 Y65.99 E8.41069 ; [518]
G1 X37.116 Y65.565 E8.42746 ; [519]
G1 X37.41 Y65.127 E8.445 ; [520]
G1 X37.765 Y64.63 E8.46532 ; [521]
G1 X38.104 Y64.183 E8.48397 ; [522]
G1 X38.407 Y63.802 E8.50017 ; [523]
G1 X38.697 Y63.454 E8.51523 ; [524]
G1 X39.036 Y63.066 E8.53237 ; [525]
G1 X39.355 Y62.719 E8.54805 ; [526]
G1 X39.742 Y62.32 E8.56653 ; [527]
G1 X40.129 Y61.941 E8.58455 ; [528]
G1 X40.526 Y61.572 E8.60258 ; [529]
G1 X40.888 Y61.252 E8.61865 ; [530]
G1 X41.263 Y60.935 E8.63498 ; [531]
G1 X41.657 Y60.618 E8.6518 ; [532]
G1 X42.124 Y60.263 E8.67131 ; [533]
G1 X42.566 Y59.946 E8.6894 ; [534]
G0 F6000 X42.799 Y60.271 ; [535]
G1 F1200 X43.203 Y59.996 E8.70565 ; [536]
G1 X43.56 Y59.765 E8.7198 ; [537]
G1 X43.985 Y59.505 E8.73637 ; [538]
G1 X44.468 Y59.225 E8.75494 ; [539]
G1 X44.9 Y58.988 E8.77133 ; [540]
G1 X45.312 Y58.775 E8.78675 ; [541]
G1 X45.8 Y58.539 E8.80478 ; [542]
G1 X46.272 Y58.326 E8.822 ; [543]
G1 X46.74 Y58.129 E8.83889 ; [544]
G1 X47.178 Y57.957 E8.85454 ; [545]
G1 X47.646 Y57.786 E8.87112 ; [546]
G1 X48.153 Y57.615 E8.88891 ; [547]
G1 X48.662 Y57.458 E8.90663 ; [548]
G1 X49.144 Y57.323 E8.92328 ; [549]
G1 X49.618 Y57.202 E8.93955 ; [550]
G1 X50.094 Y57.093 E8.95579 ; [551]
G1 X50.598 Y56.991 E8.97289 ; [552]
G1 X51.091 Y56.904 E8.98954 ; [553]
G1 X51.604 Y56.827 E9.0068 ; [554]
G1 X52.102 Y56.765 E9.02349 ; [555]
G1 X52.642 Y56.712 E9.04154 ; [556]
G1 X53.193 Y56.673 E9.05991 ; [557]
G1 X53.721 Y56.65 E9.07749 ; [558]
G1 X54.199 Y56.641 E9.09339 ; [559]
G1 X54.693 Y56.643 E9.10982 ; [560]
G1 X55.199 Y56.658 E9.12665 ; [561]
G1 X55.681 Y56.684 E9.14271 ; [562]
G1 X56.161 Y56.721 E9.15872 ; [563]
G1 X56.716 Y56.779 E9.17728 ; [564]
G1 X57.252 Y56.85 E9.19526 ; [565]
G1 X57.749 Y56.929 E9.212 ; [566]
G1 X58.23 Y57.017 E9.22827 ; [567]
G1 X58.703 Y57.115 E9.24433 ; [568]
G1 X59.185 Y57.227 E9.26079 ; [569]
G1 X59.678 Y57.354 E9.27772 ; [570]
G1 X60.119 Y57.48 E9.29298 ; [571]
G1 X60.616 Y57.636 E9.3103 ; [572]
G1 X61.125 Y57.81 E9.32819 ; [573]
G1 X61.589 Y57.981 E9.34464 ; [574]
G1 X62.04 Y58.16 E9.36078 ; [575]
G1 X62.509 Y58.361 E9.37775 ; [576]
G1 X63.303 Y58.735 E9.40694 ; [577]
G1 X63.846 Y59.014 E9.42725 ; [578]
G1 X64.353 Y59.293 E9.4465 ; [579]
G1 X64.814 Y59.564 E9.46428 ; [580]
G1 X65.237 Y59.826 E9.48083 ; [581]
G1 X65.626 Y60.081 E9.4963 ; [582]
G1 X66.049 Y60.374 E9.51342 ; [583]
G1 X66.427 Y60.65 E9.52898 ; [584]
G1 X66.805 Y60.94 E9.54483 ; [585]
G1 X67.255 Y61.302 E9.56404 ; [586]
G1 X67.697 Y61.679 E9.58336 ; [587]
G1 X68.047 Y61.995 E9.59904 ; [588]
G1 X68.402 Y62.331 E9.6153 ; [589]
G1 X68.728 Y62.655 E9.63059 ; [590]
G1 X69.051 Y62.992 E9.64611 ; [591]
G1 X69.41 Y63.383 E9.66377 ; [592]
G1 X69.812 Y63.848 E9.68421 ; [593]
G1 X70.194 Y64.318 E9.70436 ; [594]
G1 X70.485 Y64.693 E9.72014 ; [595]
G1 X70.736 Y65.033 E9.7342 ; [596]
G1 X71.007 Y65.418 E9.74986 ; [597]
G1 X71.266 Y65.805 E9.76535 ; [598]
G1 X71.57 Y66.288 E9.78433 ; [599]
G1 X71.862 Y66.782 E9.80342 ; [600]
G1 X72.096 Y67.201 E9.81938 ; [601]
G1 X72.313 Y67.611 E9.83481 ; [602]
G1 X72.537 Y68.06 E9.8515 ; [603]
G1 X72.74 Y68.494 E9.86743 ; [604]
G1 X72.939 Y68.949 E9.88395 ; [605]
G1 X73.141 Y69.442 E9.90167 ; [606]
G1 X73.327 Y69.931 E9.91907 ; [607]
G1 X73.479 Y70.364 E9.93433 ; [608]
G1 X73.638 Y70.856 E9.95153 ; [609]
G1 X73.779 Y71.334 E9.96811 ; [610]
G1 X73.912 Y71.831 E9.98522 ; [611]
G1 X74.038 Y72.354 E10.00311 ; [612]
G1 X74.145 Y72.849 E10.01996 ; [613]
G1 X74.241 Y73.357 E10.03715 ; [614]
G1 X74.326 Y73.884 E10.05491 ; [615]
G1 X74.389 Y74.35 E10.07055 ; [616]
G1 X74.443 Y74.841 E10.08697 ; [617]
G1 X74.488 Y75.363 E10.1044 ; [618]
G1 X74.519 Y75.866 E10.12116 ; [619]
G1 X74.536 Y76.331 E10.13664 ; [620]
G1 X74.542 Y76.872 E10.15463 ; [621]
G1 X74.533 Y77.418 E10.1728 ; [622]
G1 X74.512 Y77.913 E10.18927 ; [623]
G1 X74.48 Y78.404 E10.20564 ; [624]
G1 X74.434 Y78.921 E10.2229 ; [625]
G1 X74.376 Y79.419 E10.23958 ; [626]
G1 X74.299 Y79.951 E10.25746 ; [627]
G1 X74.213 Y80.456 E10.2745 ; [628]
G1 X74.119 Y80.937 E10.2908 ; [629]
G1 X74.012 Y81.423 E10.30735 ; [630]
G1 X73.894 Y81.907 E10.32392 ; [631]
G1 X73.767 Y82.374 E10.34001 ; [632]
G1 X73.612 Y82.887 E10.35784 ; [633]
G1 X73.451 Y83.376 E10.37496 ; [634]
G1 X73.29 Y83.83 E10.39098 ; [635]
G1 X73.119 Y84.277 E10.4069 ; [636]
G1 X72.914 Y84.774 E10.42478 ; [637]
G1 X72.699 Y85.258 E10.4424 ; [638]
G1 X72.491 Y85.696 E10.45852 ; [639]
G1 X72.283 Y86.11 E10.47393 ; [640]
G1 X72.039 Y86.568 E10.49119 ; [641]
G1 X71.788 Y87.01 E10.5081 ; [642]
G1 X71.503 Y87.481 E10.52641 ; [643]
G1 X71.195 Y87.961 E10.54538 ; [644]
G1 X70.914 Y88.376 E10.56205 ; [645]
G1 X70.638 Y88.763 E10.57786 ; [646]
G1 X70.354 Y89.143 E10.59364 ; [647]
G1 X70.097 Y89.47 E10.60747 ; [648]
G1 X69.787 Y89.845 E10.62365 ; [649]
G1 X69.412 Y90.278 E10.6427 ; [650]
G1 X69.027 Y90.698 E10.66165 ; [651]
G1 X68.684 Y91.052 E10.67805 ; [652]
G1 X68.349 Y91.382 E10.69369 ; [653]
G1 X67.993 Y91.717 E10.70995 ; [654]
G1 X67.584 Y92.082 E10.72818 ; [655]
G1 X67.192 Y92.413 E10.74524 ; [656]
G1 X66.788 Y92.737 E10.76247 ; [657]
G1 X66.382 Y93.046 E10.77944 ; [658]
G1 X65.926 Y93.373 E10.7981 ; [659]
G1 X65.464 Y93.686 E10.81666 ; [660]
G1 X65.08 Y93.935 E10.83189 ; [661]
G1 X64.707 Y94.164 E10.84644 ; [662]
G1 X64.292 Y94.405 E10.8624 ; [663]
G1 X63.889 Y94.627 E10.87771 ; [664]
G1 X63.439 Y94.861 E10.89458 ; [665]
G1 X62.99 Y95.08 E10.91119 ; [666]
G1 X62.502 Y95.302 E10.92902 ; [667]
G1 X61.974 Y95.526 E10.9481 ; [668]
G1 X61.512 Y95.709 E10.96463 ; [669]
G1 X61.088 Y95.865 E10.97965 ; [670]
G1 X60.589 Y96.034 E10.99718 ; [671]
G1 X60.096 Y96.187 E11.01435 ; [672]
G1 X59.596 Y96.328 E11.03162 ; [673]
G1 X59.079 Y96.46 E11.04937 ; [674]
G1 X58.592 Y96.572 E11.06599 ; [675]
G1 X58.165 Y96.659 E11.08049 ; [676]
G1 X57.662 Y96.748 E11.09748 ; [677]
G1 X57.116 Y96.831 E11.11584 ; [678]
G1 X56.594 Y96.897 E11.13334 ; [679]
G1 X56.102 Y96.946 E11.14979 ; [680]
G1 X55.598 Y96.983 E11.1666 ; [681]
G1 X55.096 Y97.008 E11.18332 ; [682]
G1 X54.569 Y97.021 E11.20085 ; [683]
G1 X54.071 Y97.02 E11.21741 ; [684]
G1 X53.546 Y97.005 E11.23488 ; [685]
G1 X53.004 Y96.976 E11.25293 ; [686]
G1 X52.5 Y96.937 E11.26975 ; [687]
G1 X52.055 Y96.891 E11.28463 ; [688]
G1 X51.529 Y96.823 E11.30227 ; [689]
G1 X50.985 Y96.738 E11.32058 ; [690]
G1 X50.506 Y96.651 E11.33677 ; [691]
G1 X50.039 Y96.555 E11.35263 ; [692]
G1 X49.534 Y96.438 E11.36987 ; [693]
G1 X49.044 Y96.311 E11.38671 ; [694]
G1 X48.564 Y96.174 E11.40331 ; [695]
G1 X48.093 Y96.027 E11.41972 ; [696]
G1 X47.596 Y95.858 E11.43718 ; [697]
G1 X47.09 Y95.671 E11.45512 ; [698]
G1 X46.593 Y95.472 E11.47293 ; [699]
G1 X46.133 Y95.274 E11.48958 ; [700]
G1 X45.659 Y95.055 E11.50695 ; [701]
G1 X45.255 Y94.856 E11.52193 ; [702]
G1 X44.834 Y94.637 E11.53771 ; [703]
G1 X44.361 Y94.376 E11.55568 ; [704]
G1 X43.963 Y94.144 E11.571 ; [705]
G1 X43.553 Y93.893 E11.58699 ; [706]
G1 X43.067 Y93.576 E11.60629 ; [707]
G1 X42.656 Y93.291 E11.62293 ; [708]
G1 X42.254 Y92.998 E11.63947 ; [709]
G1 X41.857 Y92.693 E11.65612 ; [710]
G1 X41.443 Y92.357 E11.67386 ; [711]
G1 X41.043 Y92.015 E11.69136 ; [712]
G1 X40.674 Y91.684 E11.70785 ; [713]
G1 X40.307 Y91.338 E11.72462 ; [714]
G1 X39.911 Y90.943 E11.74323 ; [715]
G1 X39.565 Y90.579 E11.75993 ; [716]
G1 X39.231 Y90.21 E11.77649 ; [717]
G1 X38.901 Y89.827 E11.7933 ; [718]
G1 X38.581 Y89.436 E11.81011 ; [719]
G1 X38.25 Y89.011 E11.82802 ; [720]
G1 X37.938 Y88.589 E11.84548 ; [721]
G1 X37.673 Y88.21 E11.86086 ; [722]
G1 X37.412 Y87.817 E11.87655 ; [723]
G1 X37.159 Y87.417 E11.89229 ; [724]
G1 X36.889 Y86.966 E11.90977 ; [725]
G1 X36.628 Y86.502 E11.92748 ; [726]
G1 X36.391 Y86.054 E11.94434 ; [727]
G1 X36.171 Y85.613 E11.96073 ; [728]
G1 X35.948 Y85.135 E11.97827 ; [729]
G1 X35.751 Y84.683 E11.99467 ; [730]
G1 X35.566 Y84.23 E12.01095 ; [731]
G1 X35.381 Y83.743 E12.02827 ; [732]
G1 X35.215 Y83.271 E12.04492 ; [733]
G1 X35.077 Y82.846 E12.05978 ; [734]
G1 X34.933 Y82.364 E12.07651 ; [735]
G1 X34.794 Y81.851 E12.09419 ; [736]
G1 X34.67 Y81.34 E12.11168 ; [737]
G1 X34.575 Y80.901 E12.12662 ; [738]
G1 X34.482 Y80.418 E12.14298 ; [739]
G1 X34.391 Y79.871 E12.16142 ; [740]
G1 X34.317 Y79.334 E12.17945 ; [741]
G1 X34.26 Y78.826 E12.19645 ; [742]
G1 X34.216 Y78.321 E12.21331 ; [743]
G1 X34.185 Y77.822 E12.22994 ; [744]
G1 X34.165 Y77.286 E12.24778 ; [745]
G1 X34.16 Y76.755 E12.26544 ; [746]
G1 X34.169 Y76.232 E12.28284 ; [747]
G1 X34.189 Y75.755 E12.29872 ; [748]
G1 X34.221 Y75.273 E12.31478 ; [749]
G1 X34.261 Y74.826 E12.32971 ; [750]
G1 X34.318 Y74.321 E12.34661 ; [751]
G1 X34.4 Y73.735 E12.36629 ; [752]
G1 X34.48 Y73.252 E12.38258 ; [753]
G1 X34.565 Y72.803 E12.39778 ; [754]
G1 X34.69 Y72.231 E12.41725 ; [755]
G1 X34.821 Y71.706 E12.43525 ; [756]
G1 X34.959 Y71.21 E12.45237 ; [757]
G1 X35.11 Y70.713 E12.46965 ; [758]
G1 X35.273 Y70.22 E12.48692 ; [759]
G1 X35.433 Y69.776 E12.50262 ; [760]
G1 X35.61 Y69.319 E12.51892 ; [761]
G1 X35.807 Y68.845 E12.53599 ; [762]
G1 X36.019 Y68.37 E12.55329 ; [763]
G1 X36.245 Y67.896 E12.57075 ; [764]
G1 X36.475 Y67.444 E12.58762 ; [765]
G1 X36.694 Y67.038 E12.60297 ; [766]
G1 X36.942 Y66.604 E12.61959 ; [767]
G1 X37.188 Y66.197 E12.63541 ; [768]
G1 X37.448 Y65.788 E12.65153 ; [769]
G1 X37.742 Y65.35 E12.66907 ; [770]
G1 X38.084 Y64.871 E12.68865 ; [771]
G1 X38.423 Y64.424 E12.70731 ; [772]
G1 X38.714 Y64.058 E12.72286 ; [773]
G1 X39.004 Y63.71 E12.73793 ; [774]
G1 X39.331 Y63.337 E12.75442 ; [775]
G1 X39.65 Y62.99 E12.7701 ; [776]
G1 X40.022 Y62.606 E12.78788 ; [777]
G1 X40.409 Y62.227 E12.8059 ; [778]
G1 X40.79 Y61.872 E12.82322 ; [779]
G1 X41.152 Y61.552 E12.83929 ; [780]
G1 X41.514 Y61.247 E12.85503 ; [781]
G1 X41.908 Y60.93 E12.87185 ; [782]
G1 X42.357 Y60.588 E12.89063 ; [783]
G1 X42.799 Y60.271 E12.90872 ; [784]
G1 F1500 E6.40872 ; [785]
; [786] MESH:Router test 2.3mf
G0 F6000 X52.969 Y75.26 ; [787]
G0 X54.694 Y78.707 ; [788]
; [789] TYPE:WALL-INNER
G1 F1500 E12.90872 ; [790]
G1 F1200 X55.144 Y78.554 E12.92453 ; [791]
G1 X55.374 Y78.437 E12.93311 ; [792]
G1 X55.591 Y78.266 E12.9423 ; [793]
G1 X55.865 Y77.974 E12.95562 ; [794]
G1 X56.061 Y77.651 E12.96818 ; [795]
G1 X56.191 Y77.297 E12.98072 ; [796]
G1 X56.247 Y77.026 E12.98993 ; [797]
G1 X56.247 Y76.749 E12.99914 ; [798]
G1 X56.188 Y76.363 E13.01213 ; [799]
G1 X56.029 Y75.923 E13.02769 ; [800]
G1 X55.698 Y75.482 E13.04603 ; [801]
G1 X55.468 Y75.299 E13.05581 ; [802]
G1 X55.143 Y75.107 E13.06836 ; [803]
G1 X54.771 Y74.98 E13.08143 ; [804]
G1 X54.489 Y74.93 E13.09096 ; [805]
G1 X54.226 Y74.937 E13.09971 ; [806]
G1 X53.843 Y75.004 E13.11264 ; [807]
G1 X53.561 Y75.095 E13.1225 ; [808]
G1 X53.085 Y75.4 E13.1413 ; [809]
G1 X52.779 Y75.766 E13.15717 ; [810]
G1 X52.636 Y75.998 E13.16623 ; [811]
G1 X52.543 Y76.255 E13.17532 ; [812]
G1 X52.447 Y76.723 E13.19121 ; [813]
G1 X52.465 Y77.099 E13.20373 ; [814]
G1 X52.562 Y77.494 E13.21726 ; [815]
G1 X52.827 Y77.98 E13.23567 ; [816]
G1 X53.181 Y78.324 E13.25209 ; [817]
G1 X53.39 Y78.474 E13.26065 ; [818]
G1 X53.645 Y78.592 E13.26999 ; [819]
G1 X54.025 Y78.699 E13.28312 ; [820]
G1 X54.403 Y78.728 E13.29573 ; [821]
G1 X54.694 Y78.707 E13.30544 ; [822]
G0 F6000 X53.955 Y79.095 ; [823]
; [824] TYPE:WALL-OUTER
G1 F1200 X54.402 Y79.129 E13.32035 ; [825]
G1 X54.774 Y79.102 E13.33275 ; [826]
G1 X55.3 Y78.924 E13.35122 ; [827]
G1 X55.59 Y78.776 E13.36205 ; [828]
G1 X55.863 Y78.562 E13.37359 ; [829]
G1 X56.185 Y78.217 E13.38928 ; [830]
G1 X56.423 Y77.825 E13.40454 ; [831]
G1 X56.577 Y77.407 E13.41935 ; [832]
G1 X56.647 Y77.067 E13.4309 ; [833]
G1 X56.647 Y76.719 E13.44247 ; [834]
G1 X56.578 Y76.263 E13.45781 ; [835]
G1 X56.384 Y75.73 E13.47668 ; [836]
G1 X55.987 Y75.201 E13.49868 ; [837]
G1 X55.696 Y74.969 E13.51105 ; [838]
G1 X55.311 Y74.741 E13.52594 ; [839]
G1 X54.871 Y74.592 E13.54139 ; [840]
G1 X54.519 Y74.529 E13.55328 ; [841]
G1 X54.186 Y74.538 E13.56436 ; [842]
G1 X53.747 Y74.614 E13.57918 ; [843]
G1 X53.389 Y74.73 E13.59169 ; [844]
G1 X52.818 Y75.096 E13.61425 ; [845]
G1 X52.453 Y75.531 E13.63314 ; [846]
G1 X52.274 Y75.824 E13.64456 ; [847]
G1 X52.157 Y76.147 E13.65599 ; [848]
G1 X52.045 Y76.692 E13.67449 ; [849]
G1 X52.067 Y77.157 E13.68997 ; [850]
G1 X52.186 Y77.64 E13.70652 ; [851]
G1 X52.505 Y78.224 E13.72865 ; [852]
G1 X52.923 Y78.632 E13.74808 ; [853]
G1 X53.188 Y78.822 E13.75892 ; [854]
G1 X53.506 Y78.968 E13.77056 ; [855]
G1 X53.955 Y79.095 E13.78608 ; [856]
G0 F6000 X54.55 Y78.377 ; [857]
; [858] TYPE:SKIN
G1 F1200 X55.114 Y78.182 E13.80593 ; [859]
G1 X55.348 Y77.998 E13.81583 ; [860]
G1 X55.578 Y77.752 E13.82703 ; [861]
G1 X55.736 Y77.492 E13.83715 ; [862]
G1 X55.842 Y77.2 E13.84748 ; [863]
G1 X55.905 Y76.895 E13.85784 ; [864]
G1 X55.836 Y76.451 E13.87279 ; [865]
G1 X55.707 Y76.093 E13.88544 ; [866]
G1 X55.387 Y75.67 E13.90309 ; [867]
G1 X54.99 Y75.436 E13.91841 ; [868]
G1 X54.682 Y75.331 E13.92924 ; [869]
G1 X54.377 Y75.278 E13.93953 ; [870]
G1 X53.786 Y75.378 E13.95947 ; [871]
G1 X53.323 Y75.675 E13.97776 ; [872]
G1 X53.072 Y75.977 E13.99082 ; [873]
G1 X52.916 Y76.232 E14.00077 ; [874]
G1 X52.81 Y76.754 E14.01848 ; [875]
G1 X52.817 Y76.918 E14.02394 ; [876]
G1 X52.823 Y77.044 E14.02814 ; [877]
G1 X52.902 Y77.365 E14.03913 ; [878]
G1 X53.116 Y77.756 E14.05396 ; [879]
G1 X53.493 Y78.124 E14.07148 ; [880]
G1 X53.769 Y78.252 E14.0816 ; [881]
G1 X54.09 Y78.343 E14.0927 ; [882]
G1 X54.55 Y78.377 E14.10804 ; [883]
G0 F6000 X54.565 Y78.616 ; [884]
G0 X53.701 Y78.44 ; [885]
G0 X53.299 Y78.183 ; [886]
G0 X52.833 Y77.782 ; [887]
G0 X53.239 Y77.563 ; [888]
G1 F1200 X53.652 Y77.976 E14.12746 ; [889]
G0 F6000 X54.406 Y78.164 ; [890]
G1 F1200 X53.011 Y76.769 E14.19308 ; [891]
G0 F6000 X53.107 Y76.3 ; [892]
G1 F1200 X54.863 Y78.056 E14.27568 ; [893]
G0 F6000 X55.217 Y77.844 ; [894]
G1 F1200 X53.339 Y75.966 E14.36401 ; [895]
G0 F6000 X53.644 Y75.706 ; [896]
G1 F1200 X55.474 Y77.536 E14.45009 ; [897]
G0 F6000 X55.649 Y77.145 ; [898]
G1 F1200 X54.042 Y75.538 E14.52568 ; [899]
G0 F6000 X54.585 Y75.516 ; [900]
G1 F1200 X55.654 Y76.584 E14.57594 ; [901]
G1 F1500 E8.07594 ; [902]
; [903] MESH:Router test 2.3mf(1)
G0 F6000 X56.11 Y76.513 ; [904]
G0 X56.036 Y77.252 ; [905]
G0 X55.766 Y77.813 ; [906]
G0 X54.729 Y78.886 ; [907]
G0 X54.807 Y79.966 ; [908]
G0 X53.867 Y83.649 ; [909]
G0 X53.285 Y84.861 ; [910]
; [911] TYPE:WALL-INNER
G1 F1500 E14.57594 ; [912]
G1 F1200 X52.841 Y84.789 E14.5909 ; [913]
G1 X52.406 Y84.696 E14.60569 ; [914]
G1 X51.919 Y84.557 E14.62254 ; [915]
G1 X51.495 Y84.41 E14.63746 ; [916]
G1 X51.062 Y84.235 E14.653 ; [917]
G1 X50.626 Y84.024 E14.66911 ; [918]
G1 X50.218 Y83.797 E14.68464 ; [919]
G1 X49.852 Y83.566 E14.69903 ; [920]
G1 X49.461 Y83.29 E14.71495 ; [921]
G1 X49.1 Y82.999 E14.73037 ; [922]
G1 X48.756 Y82.69 E14.74575 ; [923]
G1 X48.41 Y82.337 E14.76219 ; [924]
G1 X48.098 Y81.983 E14.77789 ; [925]
G1 X47.828 Y81.632 E14.79262 ; [926]
G1 X47.562 Y81.249 E14.80813 ; [927]
G1 X47.326 Y80.862 E14.8232 ; [928]
G1 X47.1 Y80.445 E14.83898 ; [929]
G1 X46.894 Y79.995 E14.85544 ; [930]
G1 X46.73 Y79.579 E14.87031 ; [931]
G1 X46.578 Y79.114 E14.88658 ; [932]
G1 X46.467 Y78.689 E14.90119 ; [933]
G1 X46.375 Y78.247 E14.91621 ; [934]
G1 X46.302 Y77.745 E14.93308 ; [935]
G1 X46.264 Y77.307 E14.9477 ; [936]
G1 X46.251 Y76.871 E14.96221 ; [937]
G1 X46.264 Y76.346 E14.97968 ; [938]
G1 X46.304 Y75.902 E14.9945 ; [939]
G1 X46.375 Y75.419 E15.01074 ; [940]
G1 X46.47 Y74.959 E15.02636 ; [941]
G1 X46.582 Y74.538 E15.04085 ; [942]
G1 X46.724 Y74.105 E15.05601 ; [943]
G1 X46.892 Y73.668 E15.07158 ; [944]
G1 X47.095 Y73.227 E15.08773 ; [945]
G1 X47.309 Y72.827 E15.10282 ; [946]
G1 X47.568 Y72.402 E15.11937 ; [947]
G1 X47.836 Y72.015 E15.13503 ; [948]
G1 X48.123 Y71.652 E15.15042 ; [949]
G1 X48.412 Y71.32 E15.16506 ; [950]
G1 X48.743 Y70.986 E15.1807 ; [951]
G1 X49.091 Y70.669 E15.19636 ; [952]
G1 X49.455 Y70.377 E15.21188 ; [953]
G1 X49.823 Y70.114 E15.22692 ; [954]
G1 X50.23 Y69.857 E15.24293 ; [955]
G1 X50.615 Y69.643 E15.25758 ; [956]
G1 X51.047 Y69.435 E15.27353 ; [957]
G1 X51.504 Y69.246 E15.28998 ; [958]
G1 X51.955 Y69.091 E15.30584 ; [959]
G1 X52.391 Y68.97 E15.32089 ; [960]
G1 X52.833 Y68.872 E15.33594 ; [961]
G1 X53.299 Y68.799 E15.35163 ; [962]
G1 X53.786 Y68.75 E15.36791 ; [963]
G1 X54.254 Y68.73 E15.38349 ; [964]
G1 X54.714 Y68.737 E15.39879 ; [965]
G1 X55.174 Y68.771 E15.41414 ; [966]
G1 X55.614 Y68.828 E15.42889 ; [967]
G1 X56.078 Y68.915 E15.44459 ; [968]
G1 X56.558 Y69.036 E15.46106 ; [969]
G1 X56.979 Y69.167 E15.47572 ; [970]
G1 X57.44 Y69.342 E15.49212 ; [971]
G1 X57.835 Y69.517 E15.50649 ; [972]
G1 X58.257 Y69.732 E15.52225 ; [973]
G1 X58.655 Y69.965 E15.53758 ; [974]
G1 X59.055 Y70.233 E15.5536 ; [975]
G1 X59.425 Y70.515 E15.56907 ; [976]
G1 X59.761 Y70.8 E15.58373 ; [977]
G1 X60.117 Y71.14 E15.6001 ; [978]
G1 X60.448 Y71.497 E15.61629 ; [979]
G1 X60.742 Y71.849 E15.63155 ; [980]
G1 X61.015 Y72.223 E15.64695 ; [981]
G1 X61.266 Y72.609 E15.66226 ; [982]
G1 X61.497 Y73.012 E15.67771 ; [983]
G1 X61.694 Y73.407 E15.69239 ; [984]
G1 X61.886 Y73.857 E15.70866 ; [985]
G1 X62.034 Y74.257 E15.72285 ; [986]
G1 X62.177 Y74.735 E15.73944 ; [987]
G1 X62.292 Y75.218 E15.75596 ; [988]
G1 X62.364 Y75.644 E15.77033 ; [989]
G1 X62.421 Y76.124 E15.7864 ; [990]
G1 X62.447 Y76.557 E15.80083 ; [991]
G1 X62.448 Y77.084 E15.81836 ; [992]
G1 X62.422 Y77.54 E15.83355 ; [993]
G1 X62.369 Y77.999 E15.84892 ; [994]
G1 X62.29 Y78.445 E15.86398 ; [995]
G1 X62.184 Y78.905 E15.87968 ; [996]
G1 X62.052 Y79.344 E15.89493 ; [997]
G1 X61.896 Y79.783 E15.91043 ; [998]
G1 X61.714 Y80.209 E15.92583 ; [999]
G1 X61.491 Y80.659 E15.94254 ; [1000]
G1 X61.267 Y81.053 E15.95761 ; [1001]
G1 X61.025 Y81.423 E15.97232 ; [1002]
G1 X60.755 Y81.795 E15.98761 ; [1003]
G1 X60.461 Y82.151 E16.00296 ; [1004]
G1 X60.132 Y82.508 E16.01911 ; [1005]
G1 X59.771 Y82.851 E16.03567 ; [1006]
G1 X59.424 Y83.149 E16.05088 ; [1007]
G1 X59.054 Y83.427 E16.06628 ; [1008]
G1 X58.671 Y83.685 E16.08164 ; [1009]
G1 X58.273 Y83.921 E16.09703 ; [1010]
G1 X57.863 Y84.13 E16.11233 ; [1011]
G1 X57.44 Y84.319 E16.12774 ; [1012]
G1 X56.991 Y84.489 E16.14371 ; [1013]
G1 X56.546 Y84.629 E16.15923 ; [1014]
G1 X56.098 Y84.743 E16.1746 ; [1015]
G1 X55.631 Y84.83 E16.1904 ; [1016]
G1 X55.149 Y84.893 E16.20657 ; [1017]
G1 X54.733 Y84.923 E16.22044 ; [1018]
G1 X54.24 Y84.93 E16.23684 ; [1019]
G1 X53.751 Y84.909 E16.25312 ; [1020]
G1 X53.285 Y84.861 E16.2687 ; [1021]
G0 F6000 X53.791 Y84.511 ; [1022]
; [1023] TYPE:WALL-OUTER
G1 F1200 X53.349 Y84.466 E16.28348 ; [1024]
G1 X52.925 Y84.397 E16.29777 ; [1025]
G1 X52.477 Y84.301 E16.313 ; [1026]
G1 X52.049 Y84.179 E16.32781 ; [1027]
G1 X51.619 Y84.029 E16.34295 ; [1028]
G1 X51.214 Y83.864 E16.3575 ; [1029]
G1 X50.82 Y83.674 E16.37205 ; [1030]
G1 X50.432 Y83.459 E16.3868 ; [1031]
G1 X50.057 Y83.222 E16.40156 ; [1032]
G1 X49.694 Y82.964 E16.41637 ; [1033]
G1 X49.35 Y82.685 E16.4311 ; [1034]
G1 X49.02 Y82.388 E16.44587 ; [1035]
G1 X48.71 Y82.071 E16.46061 ; [1036]
G1 X48.414 Y81.737 E16.47546 ; [1037]
G1 X48.156 Y81.404 E16.48947 ; [1038]
G1 X47.904 Y81.04 E16.50419 ; [1039]
G1 X47.669 Y80.655 E16.5192 ; [1040]
G1 X47.452 Y80.253 E16.53439 ; [1041]
G1 X47.266 Y79.848 E16.54921 ; [1042]
G1 X47.098 Y79.421 E16.56447 ; [1043]
G1 X46.965 Y79.012 E16.57878 ; [1044]
G1 X46.859 Y78.607 E16.5927 ; [1045]
G1 X46.769 Y78.177 E16.60731 ; [1046]
G1 X46.701 Y77.71 E16.62301 ; [1047]
G1 X46.663 Y77.279 E16.6374 ; [1048]
G1 X46.651 Y76.859 E16.65138 ; [1049]
G1 X46.663 Y76.381 E16.66728 ; [1050]
G1 X46.7 Y75.959 E16.68137 ; [1051]
G1 X46.766 Y75.504 E16.69666 ; [1052]
G1 X46.856 Y75.063 E16.71163 ; [1053]
G1 X46.97 Y74.638 E16.72627 ; [1054]
G1 X47.097 Y74.249 E16.73988 ; [1055]
G1 X47.271 Y73.801 E16.75586 ; [1056]
G1 X47.448 Y73.416 E16.76996 ; [1057]
G1 X47.668 Y73.006 E16.78543 ; [1058]
G1 X47.898 Y72.629 E16.80012 ; [1059]
G1 X48.15 Y72.263 E16.8149 ; [1060]
G1 X48.425 Y71.915 E16.82965 ; [1061]
G1 X48.71 Y71.587 E16.8441 ; [1062]
G1 X49.014 Y71.281 E16.85845 ; [1063]
G1 X49.342 Y70.981 E16.87323 ; [1064]
G1 X49.688 Y70.703 E16.888 ; [1065]
G1 X50.066 Y70.433 E16.90345 ; [1066]
G1 X50.425 Y70.207 E16.91756 ; [1067]
G1 X50.811 Y69.992 E16.93225 ; [1068]
G1 X51.217 Y69.797 E16.94723 ; [1069]
G1 X51.635 Y69.624 E16.96228 ; [1070]
G1 X52.051 Y69.48 E16.97692 ; [1071]
G1 X52.49 Y69.358 E16.99207 ; [1072]
G1 X52.915 Y69.264 E17.00655 ; [1073]
G1 X53.341 Y69.197 E17.02089 ; [1074]
G1 X53.792 Y69.15 E17.03598 ; [1075]
G1 X54.248 Y69.13 E17.05116 ; [1076]
G1 X54.679 Y69.138 E17.0655 ; [1077]
G1 X55.131 Y69.17 E17.08057 ; [1078]
G1 X55.551 Y69.225 E17.09466 ; [1079]
G1 X55.997 Y69.308 E17.10974 ; [1080]
G1 X56.438 Y69.418 E17.12486 ; [1081]
G1 X56.892 Y69.562 E17.1407 ; [1082]
G1 X57.278 Y69.708 E17.15443 ; [1083]
G1 X57.673 Y69.883 E17.1688 ; [1084]
G1 X58.051 Y70.078 E17.18294 ; [1085]
G1 X58.439 Y70.304 E17.19788 ; [1086]
G1 X58.83 Y70.565 E17.21351 ; [1087]
G1 X59.181 Y70.834 E17.22822 ; [1088]
G1 X59.503 Y71.108 E17.24229 ; [1089]
G1 X59.824 Y71.413 E17.25701 ; [1090]
G1 X60.14 Y71.753 E17.27245 ; [1091]
G1 X60.425 Y72.095 E17.28726 ; [1092]
G1 X60.687 Y72.455 E17.30207 ; [1093]
G1 X60.929 Y72.827 E17.31683 ; [1094]
G1 X61.149 Y73.212 E17.33158 ; [1095]
G1 X61.333 Y73.582 E17.34532 ; [1096]
G1 X61.51 Y73.996 E17.3603 ; [1097]
G1 X61.662 Y74.408 E17.3749 ; [1098]
G1 X61.79 Y74.838 E17.38982 ; [1099]
G1 X61.901 Y75.307 E17.40585 ; [1100]
G1 X61.969 Y75.71 E17.41945 ; [1101]
G1 X62.021 Y76.148 E17.43412 ; [1102]
G1 X62.047 Y76.581 E17.44854 ; [1103]
G1 X62.049 Y77.047 E17.46404 ; [1104]
G1 X62.022 Y77.501 E17.47917 ; [1105]
G1 X61.971 Y77.943 E17.49397 ; [1106]
G1 X61.898 Y78.363 E17.50815 ; [1107]
G1 X61.796 Y78.805 E17.52324 ; [1108]
G1 X61.665 Y79.238 E17.53828 ; [1109]
G1 X61.516 Y79.653 E17.55295 ; [1110]
G1 X61.341 Y80.062 E17.56774 ; [1111]
G1 X61.143 Y80.46 E17.58253 ; [1112]
G1 X60.922 Y80.846 E17.59732 ; [1113]
G1 X60.693 Y81.197 E17.61126 ; [1114]
G1 X60.432 Y81.557 E17.62605 ; [1115]
G1 X60.155 Y81.892 E17.64051 ; [1116]
G1 X59.831 Y82.241 E17.65635 ; [1117]
G1 X59.511 Y82.547 E17.67107 ; [1118]
G1 X59.173 Y82.835 E17.68584 ; [1119]
G1 X58.818 Y83.103 E17.70064 ; [1120]
G1 X58.457 Y83.346 E17.71511 ; [1121]
G1 X58.068 Y83.576 E17.73014 ; [1122]
G1 X57.681 Y83.774 E17.7446 ; [1123]
G1 X57.268 Y83.956 E17.75961 ; [1124]
G1 X56.871 Y84.107 E17.77374 ; [1125]
G1 X56.448 Y84.241 E17.7885 ; [1126]
G1 X56.006 Y84.352 E17.80365 ; [1127]
G1 X55.559 Y84.436 E17.81878 ; [1128]
G1 X55.12 Y84.493 E17.83351 ; [1129]
G1 X54.698 Y84.524 E17.84758 ; [1130]
G1 X54.256 Y84.53 E17.86228 ; [1131]
G1 X53.791 Y84.511 E17.87776 ; [1132]
G1 F1500 E11.37776 ; [1133]
G0 F6000 X53.742 Y85.009 ; [1134]
G0 X53.387 Y85.055 ; [1135]
G0 X53.251 Y85.982 ; [1136]
G0 X53.266 Y86.167 ; [1137]
; [1138] TYPE:WALL-INNER
G1 F1500 E17.87776 ; [1139]
G1 F1200 X53.779 Y86.212 E17.89489 ; [1140]
G1 X54.233 Y86.23 E17.91 ; [1141]
G1 X54.704 Y86.224 E17.92567 ; [1142]
G1 X55.192 Y86.192 E17.94193 ; [1143]
G1 X55.66 Y86.138 E17.9576 ; [1144]
G1 X56.112 Y86.064 E17.97284 ; [1145]
G1 X56.575 Y85.962 E17.9886 ; [1146]
G1 X57.047 Y85.835 E18.00486 ; [1147]
G1 X57.477 Y85.696 E18.01989 ; [1148]
G1 X57.911 Y85.528 E18.03537 ; [1149]
G1 X58.386 Y85.319 E18.05263 ; [1150]
G1 X58.775 Y85.123 E18.06712 ; [1151]
G1 X59.2 Y84.881 E18.08338 ; [1152]
G1 X59.599 Y84.628 E18.0991 ; [1153]
G1 X59.972 Y84.364 E18.1143 ; [1154]
G1 X60.354 Y84.063 E18.13047 ; [1155]
G1 X60.685 Y83.774 E18.14509 ; [1156]
G1 X61.049 Y83.423 E18.16191 ; [1157]
G1 X61.372 Y83.078 E18.17763 ; [1158]
G1 X61.667 Y82.73 E18.1928 ; [1159]
G1 X61.949 Y82.361 E18.20825 ; [1160]
G1 X62.232 Y81.951 E18.22482 ; [1161]
G1 X62.472 Y81.563 E18.23999 ; [1162]
G1 X62.691 Y81.164 E18.25513 ; [1163]
G1 X62.911 Y80.709 E18.27194 ; [1164]
G1 X63.09 Y80.29 E18.28709 ; [1165]
G1 X63.256 Y79.84 E18.30305 ; [1166]
G1 X63.385 Y79.42 E18.31766 ; [1167]
G1 X63.512 Y78.921 E18.33478 ; [1168]
G1 X63.606 Y78.475 E18.34994 ; [1169]
G1 X63.675 Y78.007 E18.36568 ; [1170]
G1 X63.722 Y77.545 E18.38112 ; [1171]
G1 X63.747 Y77.09 E18.39628 ; [1172]
G1 X63.746 Y76.559 E18.41394 ; [1173]
G1 X63.724 Y76.123 E18.42846 ; [1174]
G1 X63.674 Y75.639 E18.44464 ; [1175]
G1 X63.603 Y75.169 E18.46045 ; [1176]
G1 X63.507 Y74.711 E18.47602 ; [1177]
G1 X63.396 Y74.278 E18.49089 ; [1178]
G1 X63.248 Y73.798 E18.50759 ; [1179]
G1 X63.085 Y73.357 E18.52323 ; [1180]
G1 X62.899 Y72.924 E18.5389 ; [1181]
G1 X62.702 Y72.52 E18.55385 ; [1182]
G1 X62.463 Y72.083 E18.57042 ; [1183]
G1 X62.215 Y71.686 E18.58599 ; [1184]
G1 X61.968 Y71.326 E18.60051 ; [1185]
G1 X61.656 Y70.918 E18.61759 ; [1186]
G1 X61.351 Y70.562 E18.63318 ; [1187]
G1 X61.038 Y70.226 E18.64846 ; [1188]
G1 X60.705 Y69.905 E18.66384 ; [1189]
G1 X60.347 Y69.593 E18.67964 ; [1190]
G1 X59.977 Y69.302 E18.69529 ; [1191]
G1 X59.574 Y69.018 E18.71169 ; [1192]
G1 X59.193 Y68.776 E18.7267 ; [1193]
G1 X58.783 Y68.544 E18.74237 ; [1194]
G1 X58.353 Y68.325 E18.75842 ; [1195]
G1 X57.921 Y68.136 E18.7741 ; [1196]
G1 X57.479 Y67.967 E18.78984 ; [1197]
G1 X57.001 Y67.812 E18.80656 ; [1198]
G1 X56.613 Y67.708 E18.81992 ; [1199]
G1 X56.119 Y67.6 E18.83674 ; [1200]
G1 X55.646 Y67.521 E18.85269 ; [1201]
G1 X55.161 Y67.467 E18.86892 ; [1202]
G1 X54.73 Y67.439 E18.88328 ; [1203]
G1 X54.241 Y67.432 E18.89955 ; [1204]
G1 X53.747 Y67.451 E18.91599 ; [1205]
G1 X53.277 Y67.494 E18.93169 ; [1206]
G1 X52.825 Y67.557 E18.94687 ; [1207]
G1 X52.344 Y67.649 E18.96315 ; [1208]
G1 X51.899 Y67.758 E18.97839 ; [1209]
G1 X51.43 Y67.897 E18.99466 ; [1210]
G1 X50.976 Y68.058 E19.01068 ; [1211]
G1 X50.579 Y68.222 E19.02497 ; [1212]
G1 X50.123 Y68.436 E19.04172 ; [1213]
G1 X49.729 Y68.647 E19.05659 ; [1214]
G1 X49.324 Y68.889 E19.07228 ; [1215]
G1 X48.923 Y69.158 E19.08834 ; [1216]
G1 X48.536 Y69.448 E19.10443 ; [1217]
G1 X48.197 Y69.726 E19.11901 ; [1218]
G1 X47.847 Y70.045 E19.13476 ; [1219]
G1 X47.49 Y70.406 E19.15165 ; [1220]
G1 X47.2 Y70.73 E19.16611 ; [1221]
G1 X46.88 Y71.129 E19.18312 ; [1222]
G1 X46.599 Y71.517 E19.19905 ; [1223]
G1 X46.346 Y71.907 E19.21451 ; [1224]
G1 X46.12 Y72.296 E19.22948 ; [1225]
G1 X45.907 Y72.703 E19.24476 ; [1226]
G1 X45.692 Y73.178 E19.2621 ; [1227]
G1 X45.527 Y73.593 E19.27695 ; [1228]
G1 X45.37 Y74.055 E19.29318 ; [1229]
G1 X45.248 Y74.493 E19.3083 ; [1230]
G1 X45.143 Y74.949 E19.32387 ; [1231]
G1 X45.063 Y75.395 E19.33894 ; [1232]
G1 X45.016 Y75.747 E19.35075 ; [1233]
G1 X44.964 Y76.358 E19.37115 ; [1234]
G1 X44.952 Y76.823 E19.38662 ; [1235]
G1 X44.963 Y77.285 E19.40199 ; [1236]
G1 X45.002 Y77.786 E19.4187 ; [1237]
G1 X45.059 Y78.242 E19.43399 ; [1238]
G1 X45.145 Y78.722 E19.4502 ; [1239]
G1 X45.251 Y79.181 E19.46587 ; [1240]
G1 X45.378 Y79.623 E19.48117 ; [1241]
G1 X45.533 Y80.086 E19.49741 ; [1242]
G1 X45.708 Y80.52 E19.51297 ; [1243]
G1 X45.897 Y80.94 E19.52829 ; [1244]
G1 X46.106 Y81.343 E19.54339 ; [1245]
G1 X46.352 Y81.765 E19.55964 ; [1246]
G1 X46.597 Y82.141 E19.57456 ; [1247]
G1 X46.885 Y82.537 E19.59085 ; [1248]
G1 X47.18 Y82.904 E19.60651 ; [1249]
G1 X47.488 Y83.252 E19.62197 ; [1250]
G1 X47.832 Y83.602 E19.63829 ; [1251]
G1 X48.193 Y83.932 E19.65456 ; [1252]
G1 X48.542 Y84.221 E19.66963 ; [1253]
G1 X48.934 Y84.512 E19.68587 ; [1254]
G1 X49.326 Y84.773 E19.70153 ; [1255]
G1 X49.733 Y85.015 E19.71728 ; [1256]
G1 X50.152 Y85.239 E19.73308 ; [1257]
G1 X50.528 Y85.417 E19.74692 ; [1258]
G1 X50.992 Y85.61 E19.76363 ; [1259]
G1 X51.46 Y85.772 E19.7801 ; [1260]
G1 X51.901 Y85.903 E19.7954 ; [1261]
G1 X52.375 Y86.019 E19.81163 ; [1262]
G1 X52.8 Y86.101 E19.82603 ; [1263]
G1 X53.266 Y86.167 E19.84168 ; [1264]
G0 F6000 X53.22 Y86.565 ; [1265]
; [1266] TYPE:WALL-OUTER
G1 F1200 X53.737 Y86.611 E19.85895 ; [1267]
G1 X54.228 Y86.63 E19.87529 ; [1268]
G1 X54.719 Y86.624 E19.89162 ; [1269]
G1 X55.185 Y86.595 E19.90715 ; [1270]
G1 X55.675 Y86.54 E19.92355 ; [1271]
G1 X56.187 Y86.457 E19.9408 ; [1272]
G1 X56.677 Y86.349 E19.95749 ; [1273]
G1 X57.171 Y86.216 E19.97451 ; [1274]
G1 X57.611 Y86.073 E19.9899 ; [1275]
G1 X58.027 Y85.914 E20.00471 ; [1276]
G1 X58.565 Y85.677 E20.02426 ; [1277]
G1 X58.963 Y85.476 E20.03909 ; [1278]
G1 X59.393 Y85.233 E20.05552 ; [1279]
G1 X59.83 Y84.955 E20.07275 ; [1280]
G1 X60.211 Y84.685 E20.08828 ; [1281]
G1 X60.617 Y84.365 E20.10547 ; [1282]
G1 X60.949 Y84.075 E20.12013 ; [1283]
G1 X61.323 Y83.715 E20.1374 ; [1284]
G1 X61.677 Y83.337 E20.15462 ; [1285]
G1 X61.979 Y82.981 E20.17015 ; [1286]
G1 X62.264 Y82.609 E20.18574 ; [1287]
G1 X62.558 Y82.185 E20.2029 ; [1288]
G1 X62.818 Y81.765 E20.21933 ; [1289]
G1 X63.054 Y81.334 E20.23567 ; [1290]
G1 X63.279 Y80.867 E20.25291 ; [1291]
G1 X63.462 Y80.438 E20.26842 ; [1292]
G1 X63.63 Y79.984 E20.28452 ; [1293]
G1 X63.776 Y79.506 E20.30115 ; [1294]
G1 X63.904 Y79.003 E20.31841 ; [1295]
G1 X64 Y78.545 E20.33398 ; [1296]
G1 X64.073 Y78.057 E20.35039 ; [1297]
G1 X64.121 Y77.593 E20.3659 ; [1298]
G1 X64.147 Y77.1 E20.38232 ; [1299]
G1 X64.146 Y76.539 E20.40098 ; [1300]
G1 X64.123 Y76.093 E20.41583 ; [1301]
G1 X64.07 Y75.58 E20.43299 ; [1302]
G1 X63.995 Y75.088 E20.44954 ; [1303]
G1 X63.895 Y74.612 E20.46572 ; [1304]
G1 X63.774 Y74.147 E20.4817 ; [1305]
G1 X63.624 Y73.66 E20.49865 ; [1306]
G1 X63.463 Y73.223 E20.51414 ; [1307]
G1 X63.28 Y72.795 E20.52962 ; [1308]
G1 X63.054 Y72.328 E20.54688 ; [1309]
G1 X62.818 Y71.896 E20.56325 ; [1310]
G1 X62.571 Y71.498 E20.57883 ; [1311]
G1 X62.277 Y71.072 E20.59604 ; [1312]
G1 X61.979 Y70.68 E20.61242 ; [1313]
G1 X61.66 Y70.306 E20.62877 ; [1314]
G1 X61.323 Y69.946 E20.64517 ; [1315]
G1 X60.969 Y69.605 E20.66152 ; [1316]
G1 X60.615 Y69.295 E20.67717 ; [1317]
G1 X60.231 Y68.991 E20.69346 ; [1318]
G1 X59.79 Y68.681 E20.71139 ; [1319]
G1 X59.391 Y68.428 E20.7271 ; [1320]
G1 X58.985 Y68.198 E20.74262 ; [1321]
G1 X58.524 Y67.963 E20.75983 ; [1322]
G1 X58.051 Y67.757 E20.77699 ; [1323]
G1 X57.613 Y67.589 E20.7926 ; [1324]
G1 X57.131 Y67.433 E20.80945 ; [1325]
G1 X56.693 Y67.316 E20.82452 ; [1326]
G1 X56.21 Y67.21 E20.84097 ; [1327]
G1 X55.702 Y67.125 E20.8581 ; [1328]
G1 X55.212 Y67.069 E20.87451 ; [1329]
G1 X54.746 Y67.039 E20.89004 ; [1330]
G1 X54.226 Y67.032 E20.90733 ; [1331]
G1 X53.712 Y67.052 E20.92444 ; [1332]
G1 X53.246 Y67.094 E20.94 ; [1333]
G1 X52.735 Y67.166 E20.95717 ; [1334]
G1 X52.249 Y67.26 E20.97363 ; [1335]
G1 X51.787 Y67.374 E20.98946 ; [1336]
G1 X51.297 Y67.519 E21.00646 ; [1337]
G1 X50.861 Y67.673 E21.02183 ; [1338]
G1 X50.404 Y67.862 E21.03828 ; [1339]
G1 X49.957 Y68.071 E21.0547 ; [1340]
G1 X49.525 Y68.303 E21.071 ; [1341]
G1 X49.123 Y68.543 E21.08658 ; [1342]
G1 X48.692 Y68.831 E21.10382 ; [1343]
G1 X48.282 Y69.138 E21.12085 ; [1344]
G1 X47.935 Y69.423 E21.13579 ; [1345]
G1 X47.57 Y69.756 E21.15222 ; [1346]
G1 X47.206 Y70.123 E21.16941 ; [1347]
G1 X46.878 Y70.491 E21.18581 ; [1348]
G1 X46.588 Y70.851 E21.20119 ; [1349]
G1 X46.263 Y71.299 E21.21959 ; [1350]
G1 X46 Y71.705 E21.23568 ; [1351]
G1 X45.766 Y72.11 E21.25124 ; [1352]
G1 X45.548 Y72.526 E21.26686 ; [1353]
G1 X45.364 Y72.928 E21.28157 ; [1354]
G1 X45.151 Y73.454 E21.30044 ; [1355]
G1 X44.993 Y73.92 E21.31681 ; [1356]
G1 X44.86 Y74.394 E21.33318 ; [1357]
G1 X44.754 Y74.852 E21.34882 ; [1358]
G1 X44.667 Y75.334 E21.36511 ; [1359]
G1 X44.6 Y75.874 E21.3832 ; [1360]
G1 X44.564 Y76.338 E21.39868 ; [1361]
G1 X44.552 Y76.833 E21.41515 ; [1362]
G1 X44.564 Y77.321 E21.43139 ; [1363]
G1 X44.604 Y77.836 E21.44857 ; [1364]
G1 X44.663 Y78.302 E21.46419 ; [1365]
G1 X44.749 Y78.786 E21.48054 ; [1366]
G1 X44.866 Y79.289 E21.49772 ; [1367]
G1 X44.998 Y79.75 E21.51367 ; [1368]
G1 X45.151 Y80.208 E21.52973 ; [1369]
G1 X45.343 Y80.685 E21.54683 ; [1370]
G1 X45.549 Y81.138 E21.56338 ; [1371]
G1 X45.75 Y81.527 E21.57795 ; [1372]
G1 X46.025 Y81.997 E21.59606 ; [1373]
G1 X46.267 Y82.367 E21.61076 ; [1374]
G1 X46.556 Y82.767 E21.62717 ; [1375]
G1 X46.88 Y83.17 E21.64437 ; [1376]
G1 X47.208 Y83.538 E21.66077 ; [1377]
G1 X47.554 Y83.89 E21.67719 ; [1378]
G1 X47.917 Y84.223 E21.69357 ; [1379]
G1 X48.294 Y84.535 E21.70985 ; [1380]
G1 X48.69 Y84.83 E21.72627 ; [1381]
G1 X49.098 Y85.103 E21.7426 ; [1382]
G1 X49.522 Y85.356 E21.75902 ; [1383]
G1 X49.958 Y85.59 E21.77548 ; [1384]
G1 X50.356 Y85.779 E21.79013 ; [1385]
G1 X50.85 Y85.984 E21.80792 ; [1386]
G1 X51.322 Y86.149 E21.82455 ; [1387]
G1 X51.796 Y86.289 E21.84099 ; [1388]
G1 X52.273 Y86.407 E21.85733 ; [1389]
G1 X52.734 Y86.495 E21.87294 ; [1390]
G1 X53.22 Y86.565 E21.88927 ; [1391]
G0 F6000 X53.304 Y85.763 ; [1392]
; [1393] TYPE:SKIN
G1 F981.6 X53.803 Y85.808 E21.90965 ; [1394]
G1 X54.243 Y85.825 E21.92755 ; [1395]
G1 F979.6 X54.681 Y85.819 E21.9454 ; [1396]
G1 F981.6 X55.124 Y85.792 E21.96344 ; [1397]
G1 F979.6 X55.584 Y85.74 E21.9823 ; [1398]
G1 X56.029 Y85.667 E22.00068 ; [1399]
G1 F981.6 X56.458 Y85.573 E22.01854 ; [1400]
G1 X56.912 Y85.453 E22.03763 ; [1401]
G1 F977.6 X57.35 Y85.311 E22.05643 ; [1402]
G1 X57.759 Y85.151 E22.07436 ; [1403]
G1 X58.196 Y84.96 E22.09383 ; [1404]
G1 F979.6 X58.579 Y84.767 E22.1113 ; [1405]
G1 F981.6 X58.994 Y84.532 E22.13069 ; [1406]
G1 F979.6 X59.376 Y84.29 E22.14912 ; [1407]
G1 X59.725 Y84.042 E22.16656 ; [1408]
G1 X60.09 Y83.756 E22.18546 ; [1409]
G1 F981.6 X60.41 Y83.475 E22.20277 ; [1410]
G1 F983.6 X60.8 Y83.099 E22.22475 ; [1411]
G1 F981.6 X61.064 Y82.816 E22.24049 ; [1412]
G1 X61.348 Y82.48 E22.25838 ; [1413]
G1 F983.6 X61.609 Y82.139 E22.2758 ; [1414]
G1 X61.88 Y81.749 E22.29507 ; [1415]
G1 X62.124 Y81.355 E22.31388 ; [1416]
G1 X62.336 Y80.969 E22.33175 ; [1417]
G1 F985.6 X62.54 Y80.55 E22.35062 ; [1418]
G1 X62.719 Y80.129 E22.36915 ; [1419]
G1 F983.6 X62.87 Y79.718 E22.38691 ; [1420]
G1 F981.6 X62.994 Y79.311 E22.40421 ; [1421]
G1 F983.6 X63.113 Y78.851 E22.42349 ; [1422]
G1 F981.6 X63.208 Y78.395 E22.44243 ; [1423]
G1 X63.274 Y77.95 E22.46072 ; [1424]
G1 F983.6 X63.318 Y77.524 E22.4781 ; [1425]
G1 X63.341 Y77.087 E22.49586 ; [1426]
G1 X63.342 Y76.588 E22.51611 ; [1427]
G1 F981.6 X63.32 Y76.16 E22.53353 ; [1428]
G1 F979.6 X63.272 Y75.69 E22.55278 ; [1429]
G1 X63.208 Y75.264 E22.57033 ; [1430]
G1 F983.6 X63.117 Y74.824 E22.58856 ; [1431]
G1 X63.011 Y74.407 E22.60602 ; [1432]
G1 X62.875 Y73.959 E22.62502 ; [1433]
G1 X62.727 Y73.553 E22.64256 ; [1434]
G1 X62.539 Y73.112 E22.66201 ; [1435]
G1 X62.351 Y72.723 E22.67954 ; [1436]
G1 F979.6 X62.126 Y72.31 E22.6987 ; [1437]
G1 X61.875 Y71.905 E22.71812 ; [1438]
G1 F981.6 X61.644 Y71.57 E22.73466 ; [1439]
G1 F983.6 X61.348 Y71.179 E22.75456 ; [1440]
G1 F981.6 X61.05 Y70.831 E22.77319 ; [1441]
G1 F983.6 X60.738 Y70.499 E22.79168 ; [1442]
G1 F981.6 X60.445 Y70.218 E22.80818 ; [1443]
G1 F979.6 X60.105 Y69.917 E22.82669 ; [1444]
G1 F981.6 X59.734 Y69.625 E22.84588 ; [1445]
G1 X59.369 Y69.368 E22.86403 ; [1446]
G1 F983.6 X59.004 Y69.135 E22.8816 ; [1447]
G1 X58.608 Y68.91 E22.90009 ; [1448]
G1 F981.6 X58.161 Y68.683 E22.92047 ; [1449]
G1 X57.773 Y68.513 E22.93769 ; [1450]
G1 X57.343 Y68.348 E22.95642 ; [1451]
G1 X56.907 Y68.208 E22.97504 ; [1452]
G1 X56.502 Y68.098 E22.9921 ; [1453]
G1 X56.05 Y67.999 E23.01092 ; [1454]
G1 X55.583 Y67.921 E23.03017 ; [1455]
G1 F983.6 X55.148 Y67.872 E23.04793 ; [1456]
G1 F985.6 X54.722 Y67.844 E23.06522 ; [1457]
G1 F983.6 X54.253 Y67.836 E23.08425 ; [1458]
G1 X53.663 Y67.864 E23.10822 ; [1459]
G1 F981.6 X53.322 Y67.897 E23.12215 ; [1460]
G1 F979.6 X52.9 Y67.956 E23.13951 ; [1461]
G1 F981.6 X52.441 Y68.043 E23.15851 ; [1462]
G1 X52.016 Y68.146 E23.17629 ; [1463]
G1 X51.563 Y68.279 E23.19549 ; [1464]
G1 F979.6 X51.154 Y68.423 E23.21315 ; [1465]
G1 F981.6 X50.657 Y68.63 E23.23504 ; [1466]
G1 X50.325 Y68.787 E23.24998 ; [1467]
G1 F979.6 X49.948 Y68.99 E23.26742 ; [1468]
G1 X49.559 Y69.221 E23.28586 ; [1469]
G1 X49.164 Y69.485 E23.30521 ; [1470]
G1 X48.784 Y69.767 E23.32449 ; [1471]
G1 F981.6 X48.462 Y70.031 E23.34142 ; [1472]
G1 X48.117 Y70.348 E23.36047 ; [1473]
G1 X47.807 Y70.66 E23.37836 ; [1474]
G1 X47.497 Y71.007 E23.39728 ; [1475]
G1 X47.092 Y71.521 E23.42388 ; [1476]
G1 F983.6 X46.942 Y71.736 E23.43452 ; [1477]
G1 F981.6 X46.691 Y72.121 E23.45321 ; [1478]
G1 X46.473 Y72.494 E23.47078 ; [1479]
G1 X46.269 Y72.887 E23.48878 ; [1480]
G1 F983.6 X46.062 Y73.342 E23.50906 ; [1481]
G1 F981.6 X45.911 Y73.728 E23.52592 ; [1482]
G1 F977.6 X45.703 Y74.364 E23.55324 ; [1483]
G1 F975.6 X45.695 Y74.368 E23.5536 ; [1484]
G1 F977.6 X45.544 Y75.011 E23.58057 ; [1485]
G1 F981.6 X45.463 Y75.464 E23.59928 ; [1486]
G1 F983.6 X45.404 Y75.935 E23.61854 ; [1487]
G1 X45.368 Y76.385 E23.63686 ; [1488]
G1 F981.6 X45.358 Y76.794 E23.65349 ; [1489]
G1 X45.368 Y77.275 E23.67306 ; [1490]
G1 F979.6 X45.403 Y77.724 E23.69141 ; [1491]
G1 X45.459 Y78.173 E23.70984 ; [1492]
G1 X45.543 Y78.641 E23.72921 ; [1493]
G1 F981.6 X45.644 Y79.082 E23.74761 ; [1494]
G1 F983.6 X45.771 Y79.517 E23.766 ; [1495]
G1 X45.909 Y79.934 E23.78382 ; [1496]
G1 F981.6 X46.073 Y80.345 E23.80181 ; [1497]
G1 F983.6 X46.259 Y80.754 E23.82005 ; [1498]
G1 F979.6 X46.467 Y81.155 E23.83845 ; [1499]
G1 F977.6 X46.696 Y81.548 E23.85702 ; [1500]
G1 F979.6 X46.93 Y81.91 E23.87458 ; [1501]
G1 F981.6 X47.194 Y82.273 E23.89283 ; [1502]
G1 F983.6 X47.409 Y82.547 E23.90697 ; [1503]
G1 X47.785 Y82.974 E23.93005 ; [1504]
G1 X48.162 Y83.357 E23.95186 ; [1505]
G1 F981.6 X48.442 Y83.611 E23.96723 ; [1506]
G1 F977.6 X48.796 Y83.905 E23.98602 ; [1507]
G1 F979.6 X49.148 Y84.166 E24.00387 ; [1508]
G1 X49.544 Y84.431 E24.02329 ; [1509]
G1 F981.6 X49.912 Y84.65 E24.0407 ; [1510]
G1 X50.326 Y84.874 E24.05984 ; [1511]
G1 F983.6 X50.695 Y85.047 E24.07637 ; [1512]
G1 F981.6 X51.123 Y85.226 E24.09524 ; [1513]
G1 F979.6 X51.701 Y85.425 E24.12014 ; [1514]
G1 F983.6 X52.159 Y85.551 E24.13942 ; [1515]
G1 X52.451 Y85.62 E24.15159 ; [1516]
G1 F979.6 X52.873 Y85.701 E24.1691 ; [1517]
G1 F981.6 X53.304 Y85.763 E24.18681 ; [1518]
G0 F6000 X53.26 Y86.065 ; [1519]
G0 X54.193 Y86.047 ; [1520]
G0 X54.231 Y85.111 ; [1521]
G0 X54.236 Y85.335 ; [1522]
G1 F983.6 X53.72 Y85.312 E24.20777 ; [1523]
G1 F985.6 X53.231 Y85.262 E24.22767 ; [1524]
G1 X52.768 Y85.186 E24.24667 ; [1525]
G1 X52.276 Y85.081 E24.26704 ; [1526]
G1 X51.823 Y84.951 E24.28613 ; [1527]
G1 F981.6 X51.395 Y84.804 E24.30453 ; [1528]
G1 F983.6 X50.863 Y84.588 E24.32783 ; [1529]
G1 F985.6 X50.467 Y84.398 E24.34561 ; [1530]
G1 F983.6 X50.023 Y84.152 E24.36621 ; [1531]
G1 X49.625 Y83.901 E24.3853 ; [1532]
G1 F985.6 X49.226 Y83.619 E24.40509 ; [1533]
G1 F983.6 X48.843 Y83.311 E24.42503 ; [1534]
G1 X48.477 Y82.983 E24.44497 ; [1535]
G1 F985.6 X48.105 Y82.602 E24.46654 ; [1536]
G1 X47.808 Y82.266 E24.48469 ; [1537]
G1 F987.7 X47.494 Y81.859 E24.50547 ; [1538]
G1 F985.6 X47.242 Y81.497 E24.52333 ; [1539]
G1 X46.979 Y81.069 E24.54367 ; [1540]
G1 X46.742 Y80.632 E24.5638 ; [1541]
G1 X46.522 Y80.154 E24.58511 ; [1542]
G1 X46.343 Y79.699 E24.60491 ; [1543]
G1 F987.7 X46.19 Y79.229 E24.62488 ; [1544]
G1 X46.074 Y78.787 E24.64335 ; [1545]
G1 X45.976 Y78.316 E24.66279 ; [1546]
G1 X45.905 Y77.824 E24.68288 ; [1547]
G1 F985.6 X45.861 Y77.335 E24.70276 ; [1548]
G1 F983.6 X45.847 Y76.886 E24.72099 ; [1549]
G1 F985.6 X45.861 Y76.32 E24.74392 ; [1550]
G1 X45.899 Y75.889 E24.76144 ; [1551]
G1 F987.7 X45.972 Y75.37 E24.78262 ; [1552]
G1 F985.6 X46.076 Y74.861 E24.80365 ; [1553]
G1 X46.196 Y74.419 E24.8222 ; [1554]
G1 X46.342 Y73.974 E24.84117 ; [1555]
G1 F983.6 X46.535 Y73.474 E24.86291 ; [1556]
G1 X46.733 Y73.048 E24.88197 ; [1557]
G1 X46.959 Y72.627 E24.90136 ; [1558]
G1 F985.6 X47.212 Y72.209 E24.92115 ; [1559]
G1 X47.501 Y71.787 E24.94186 ; [1560]
G1 X47.794 Y71.416 E24.961 ; [1561]
G1 F983.6 X48.169 Y70.987 E24.98413 ; [1562]
G1 F981.6 X48.469 Y70.688 E25.00135 ; [1563]
G1 F983.6 X48.797 Y70.386 E25.01944 ; [1564]
G1 F985.6 X49.187 Y70.074 E25.03966 ; [1565]
G1 X49.597 Y69.779 E25.06012 ; [1566]
G1 X50.014 Y69.515 E25.0801 ; [1567]
G1 X50.462 Y69.266 E25.10086 ; [1568]
G1 F983.6 X50.878 Y69.068 E25.11955 ; [1569]
G1 F981.6 X51.33 Y68.88 E25.13946 ; [1570]
G1 X51.786 Y68.72 E25.15911 ; [1571]
G1 F985.6 X52.277 Y68.582 E25.17976 ; [1572]
G1 F987.7 X52.777 Y68.472 E25.20045 ; [1573]
G1 X53.217 Y68.403 E25.21845 ; [1574]
G1 F985.6 X53.725 Y68.349 E25.23913 ; [1575]
G1 F983.6 X54.273 Y68.325 E25.26139 ; [1576]
G1 F985.6 X54.737 Y68.333 E25.28018 ; [1577]
G1 X55.214 Y68.368 E25.29955 ; [1578]
G1 X55.69 Y68.431 E25.31899 ; [1579]
G1 F987.7 X56.17 Y68.522 E25.33874 ; [1580]
G1 F983.6 X56.645 Y68.639 E25.35859 ; [1581]
G1 F981.6 X57.177 Y68.81 E25.38131 ; [1582]
G1 X57.586 Y68.965 E25.39909 ; [1583]
G1 F985.6 X58.007 Y69.151 E25.41773 ; [1584]
G1 X58.455 Y69.381 E25.43812 ; [1585]
G1 F987.7 X58.872 Y69.625 E25.45765 ; [1586]
G1 X59.293 Y69.904 E25.47806 ; [1587]
G1 X59.681 Y70.202 E25.49783 ; [1588]
G1 F985.6 X60.033 Y70.502 E25.51656 ; [1589]
G1 F983.6 X60.407 Y70.857 E25.53748 ; [1590]
G1 X60.731 Y71.207 E25.55683 ; [1591]
G1 F985.6 X61.066 Y71.607 E25.57796 ; [1592]
G1 F989.7 X61.335 Y71.975 E25.59634 ; [1593]
G1 F987.7 X61.606 Y72.391 E25.61641 ; [1594]
G1 X61.85 Y72.815 E25.63618 ; [1595]
G1 X62.063 Y73.243 E25.6555 ; [1596]
G1 F983.6 X62.27 Y73.728 E25.67689 ; [1597]
G1 X62.412 Y74.112 E25.69351 ; [1598]
G1 F985.6 X62.57 Y74.639 E25.71579 ; [1599]
G1 F989.7 X62.689 Y75.141 E25.73659 ; [1600]
G1 F987.7 X62.764 Y75.583 E25.75471 ; [1601]
G1 F983.6 X62.822 Y76.063 E25.77433 ; [1602]
G1 X62.85 Y76.548 E25.79404 ; [1603]
G1 X62.853 Y77.089 E25.81599 ; [1604]
G1 F985.6 X62.826 Y77.571 E25.83554 ; [1605]
G1 F987.7 X62.77 Y78.063 E25.85555 ; [1606]
G1 X62.684 Y78.532 E25.87482 ; [1607]
G1 F989.7 X62.571 Y79.019 E25.89498 ; [1608]
G1 X62.439 Y79.463 E25.91366 ; [1609]
G1 F985.6 X62.267 Y79.944 E25.93435 ; [1610]
G1 F987.7 X62.079 Y80.387 E25.9538 ; [1611]
G1 X61.851 Y80.845 E25.97447 ; [1612]
G1 X61.607 Y81.27 E25.99427 ; [1613]
G1 X61.356 Y81.655 E26.01285 ; [1614]
G1 X61.08 Y82.038 E26.03192 ; [1615]
G1 X60.76 Y82.422 E26.05212 ; [1616]
G1 X60.415 Y82.797 E26.07272 ; [1617]
G1 F985.6 X60.041 Y83.151 E26.09357 ; [1618]
G1 X59.671 Y83.469 E26.11333 ; [1619]
G1 X59.279 Y83.764 E26.13319 ; [1620]
G1 F983.6 X58.889 Y84.027 E26.15228 ; [1621]
G1 F985.6 X58.467 Y84.274 E26.17208 ; [1622]
G1 X58.035 Y84.496 E26.19175 ; [1623]
G1 F981.6 X57.541 Y84.71 E26.21364 ; [1624]
G1 F979.6 X57.162 Y84.858 E26.23022 ; [1625]
G1 F983.6 X56.654 Y85.019 E26.25184 ; [1626]
G1 F987.7 X56.174 Y85.14 E26.27184 ; [1627]
G1 X55.673 Y85.234 E26.29244 ; [1628]
G1 X55.214 Y85.292 E26.31114 ; [1629]
G1 F985.6 X54.767 Y85.326 E26.32929 ; [1630]
M104 S200 ; [1631]
G1 F981.6 X54.236 Y85.335 E26.35089 ; [1632]
G1 F1500 E19.85089 ; [1633]
; [1634] MESH:NONMESH
; ::: End layer 0 postamble :::
; ====== End layer 0 ====
; ==== Start layer 1 ====
; ::: Layer 1 postamble :::
G0 F300 X54.236 Y85.335 Z0.4 ; [1635]
G0 F6000 X54.233 Y85.031 ; [1636]
G0 X53.329 Y84.665 ; [1637]
G0 X53.467 Y83.609 ; [1638]
G0 X53.907 Y79.958 ; [1639]
G0 X53.657 Y78.595 ; [1640]
; [1641] TIME_ELAPSED:49.063226
; [1642] LAYER:1
M106 S85 ; [1643]
; [1644] TYPE:WALL-INNER
; [1645] MESH:Router test 2.3mf
G1 F1500 E26.35089 ; [1646]
G1 F1350 X54.024 Y78.699 E26.36357 ; [1647]
G1 X54.398 Y78.727 E26.37605 ; [1648]
G1 X54.865 Y78.667 E26.39171 ; [1649]
G1 X55.3 Y78.472 E26.40756 ; [1650]
G1 X55.683 Y78.197 E26.42324 ; [1651]
G1 X55.97 Y77.817 E26.43908 ; [1652]
G1 X56.175 Y77.393 E26.45475 ; [1653]
G1 X56.26 Y76.831 E26.47365 ; [1654]
G1 X56.188 Y76.363 E26.4894 ; [1655]
G1 X56.059 Y76.006 E26.50203 ; [1656]
G1 X55.863 Y75.684 E26.51456 ; [1657]
G1 X55.609 Y75.41 E26.52699 ; [1658]
G1 X55.221 Y75.132 E26.54287 ; [1659]
G1 X54.775 Y74.982 E26.55852 ; [1660]
G1 X54.399 Y74.935 E26.57112 ; [1661]
G1 X54.024 Y74.963 E26.58363 ; [1662]
G1 X53.565 Y75.092 E26.59949 ; [1663]
G1 X53.085 Y75.401 E26.61847 ; [1664]
G1 X52.722 Y75.833 E26.63724 ; [1665]
G1 X52.54 Y76.269 E26.65295 ; [1666]
G1 X52.463 Y76.645 E26.66572 ; [1667]
G1 X52.463 Y77.021 E26.67822 ; [1668]
G1 X52.557 Y77.482 E26.69387 ; [1669]
G1 X52.827 Y77.979 E26.71269 ; [1670]
G1 X53.239 Y78.381 E26.73183 ; [1671]
G1 X53.657 Y78.595 E26.74745 ; [1672]
G0 F7500 X53.715 Y78.507 ; [1673]
G0 X54.807 Y78.574 ; [1674]
G0 X54.975 Y79.057 ; [1675]
; [1676] TYPE:WALL-OUTER
G1 F1350 X55.501 Y78.82 E26.76664 ; [1677]
G1 X55.965 Y78.487 E26.78563 ; [1678]
G1 X56.313 Y78.027 E26.80482 ; [1679]
G1 X56.561 Y77.512 E26.82383 ; [1680]
G1 X56.664 Y76.831 E26.84674 ; [1681]
G1 X56.578 Y76.263 E26.86585 ; [1682]
G1 X56.421 Y75.832 E26.8811 ; [1683]
G1 X56.183 Y75.442 E26.8963 ; [1684]
G1 X55.875 Y75.108 E26.91141 ; [1685]
G1 X55.405 Y74.772 E26.93062 ; [1686]
G1 X54.865 Y74.59 E26.94958 ; [1687]
G1 X54.409 Y74.533 E26.96486 ; [1688]
G1 X53.954 Y74.567 E26.98004 ; [1689]
G1 X53.399 Y74.723 E26.99921 ; [1690]
G1 X52.817 Y75.097 E27.02222 ; [1691]
G1 X52.376 Y75.623 E27.04505 ; [1692]
G1 X52.156 Y76.151 E27.06408 ; [1693]
G1 X52.063 Y76.605 E27.07949 ; [1694]
G1 X52.063 Y77.061 E27.09466 ; [1695]
G1 X52.177 Y77.62 E27.11363 ; [1696]
G1 X52.505 Y78.223 E27.13646 ; [1697]
G1 X53.004 Y78.71 E27.15965 ; [1698]
G1 X53.51 Y78.969 E27.17856 ; [1699]
G1 X53.954 Y79.095 E27.19391 ; [1700]
G1 X54.408 Y79.129 E27.20905 ; [1701]
G1 X54.975 Y79.057 E27.22806 ; [1702]
G0 F7500 X54.807 Y78.574 ; [1703]
G0 X53.668 Y78.488 ; [1704]
G0 X53.787 Y78.257 ; [1705]
; [1706] TYPE:SKIN
G1 F1350 X54.089 Y78.343 E27.23851 ; [1707]
G1 X54.389 Y78.365 E27.24851 ; [1708]
G1 X54.766 Y78.316 E27.26116 ; [1709]
G1 X55.12 Y78.157 E27.27406 ; [1710]
G1 X55.425 Y77.938 E27.28655 ; [1711]
G1 X55.662 Y77.626 E27.29958 ; [1712]
G1 X55.826 Y77.286 E27.31214 ; [1713]
G1 X55.894 Y76.832 E27.32741 ; [1714]
G1 X55.837 Y76.452 E27.34019 ; [1715]
G1 X55.732 Y76.162 E27.35045 ; [1716]
G1 X55.573 Y75.903 E27.36055 ; [1717]
G1 X55.371 Y75.683 E27.37049 ; [1718]
G1 X55.054 Y75.456 E27.38346 ; [1719]
G1 X54.697 Y75.336 E27.39598 ; [1720]
G1 X54.39 Y75.297 E27.40628 ; [1721]
G1 X54.09 Y75.32 E27.41628 ; [1722]
G1 X53.712 Y75.427 E27.42935 ; [1723]
G1 X53.322 Y75.676 E27.44474 ; [1724]
G1 X53.034 Y76.021 E27.45969 ; [1725]
G1 X52.888 Y76.374 E27.47239 ; [1726]
G1 X52.823 Y76.684 E27.48293 ; [1727]
G1 X52.823 Y76.986 E27.49297 ; [1728]
G1 X52.899 Y77.355 E27.5055 ; [1729]
G1 X53.116 Y77.755 E27.52064 ; [1730]
G1 X53.454 Y78.085 E27.53635 ; [1731]
G1 X53.787 Y78.257 E27.54882 ; [1732]
G0 F7500 X53.668 Y78.488 ; [1733]
G0 X54.393 Y78.533 ; [1734]
G0 X55.088 Y78.457 ; [1735]
G0 X54.899 Y78.036 ; [1736]
G1 F1350 X55.56 Y77.375 E27.57991 ; [1737]
G0 F7500 X55.671 Y76.699 ; [1738]
G1 F1350 X54.218 Y78.151 E27.64823 ; [1739]
G0 F7500 X53.777 Y78.027 ; [1740]
G1 F1350 X55.552 Y76.252 E27.73172 ; [1741]
G0 F7500 X55.317 Y75.921 ; [1742]
G1 F1350 X53.443 Y77.795 E27.81987 ; [1743]
G0 F7500 X53.194 Y77.479 ; [1744]
G1 F1350 X55.006 Y75.666 E27.90512 ; [1745]
G0 F7500 X54.585 Y75.522 ; [1746]
G1 F1350 X53.043 Y77.064 E27.97765 ; [1747]
G0 F7500 X53.071 Y76.47 ; [1748]
G1 F1350 X53.985 Y75.556 E28.02064 ; [1749]
G1 F1500 E21.52064 ; [1750]
; [1751] MESH:Router test 2.3mf(1)
G0 F7500 X53.895 Y75.103 ; [1752]
G0 X53.192 Y75.524 ; [1753]
G0 X52.861 Y75.919 ; [1754]
G0 X52.624 Y76.661 ; [1755]
G0 X52.71 Y77.426 ; [1756]
G0 X52.909 Y77.794 ; [1757]
G0 X53.99 Y78.878 ; [1758]
G0 X53.911 Y79.959 ; [1759]
G0 X53.227 Y83.569 ; [1760]
G0 X53.285 Y84.861 ; [1761]
; [1762] TYPE:WALL-INNER
G1 F1500 E28.02064 ; [1763]
G1 F1350 X52.841 Y84.789 E28.0356 ; [1764]
G1 X52.406 Y84.696 E28.0504 ; [1765]
G1 X51.919 Y84.557 E28.06724 ; [1766]
G1 X51.489 Y84.408 E28.08238 ; [1767]
G1 X51.072 Y84.239 E28.09734 ; [1768]
G1 X50.626 Y84.024 E28.11381 ; [1769]
G1 X50.218 Y83.797 E28.12934 ; [1770]
G1 X49.852 Y83.566 E28.14374 ; [1771]
G1 X49.461 Y83.29 E28.15965 ; [1772]
G1 X49.1 Y82.999 E28.17508 ; [1773]
G1 X48.756 Y82.69 E28.19046 ; [1774]
G1 X48.41 Y82.337 E28.2069 ; [1775]
G1 X48.123 Y82.013 E28.22129 ; [1776]
G1 X47.813 Y81.614 E28.2381 ; [1777]
G1 X47.55 Y81.231 E28.25355 ; [1778]
G1 X47.318 Y80.851 E28.26836 ; [1779]
G1 X47.1 Y80.445 E28.28369 ; [1780]
G1 X46.894 Y79.995 E28.30015 ; [1781]
G1 X46.73 Y79.579 E28.31502 ; [1782]
G1 X46.578 Y79.114 E28.33129 ; [1783]
G1 X46.465 Y78.682 E28.34614 ; [1784]
G1 X46.368 Y78.208 E28.36223 ; [1785]
G1 X46.302 Y77.745 E28.37779 ; [1786]
G1 X46.264 Y77.307 E28.39241 ; [1787]
G1 X46.251 Y76.849 E28.40765 ; [1788]
G1 X46.264 Y76.346 E28.42439 ; [1789]
G1 X46.302 Y75.914 E28.43881 ; [1790]
G1 X46.371 Y75.435 E28.45491 ; [1791]
G1 X46.47 Y74.959 E28.47108 ; [1792]
G1 X46.59 Y74.513 E28.48644 ; [1793]
G1 X46.722 Y74.108 E28.50061 ; [1794]
G1 X46.907 Y73.634 E28.51753 ; [1795]
G1 X47.105 Y73.207 E28.53319 ; [1796]
G1 X47.326 Y72.798 E28.54865 ; [1797]
G1 X47.568 Y72.402 E28.56408 ; [1798]
G1 X47.836 Y72.015 E28.57974 ; [1799]
G1 X48.123 Y71.652 E28.59513 ; [1800]
G1 X48.411 Y71.321 E28.60972 ; [1801]
G1 X48.76 Y70.97 E28.62619 ; [1802]
G1 X49.109 Y70.653 E28.64187 ; [1803]
G1 X49.473 Y70.364 E28.65733 ; [1804]
G1 X49.838 Y70.104 E28.67223 ; [1805]
G1 X50.231 Y69.856 E28.68769 ; [1806]
G1 X50.633 Y69.633 E28.70298 ; [1807]
G1 X51.049 Y69.434 E28.71832 ; [1808]
G1 X51.525 Y69.238 E28.73544 ; [1809]
G1 X51.955 Y69.091 E28.75055 ; [1810]
G1 X52.403 Y68.967 E28.76601 ; [1811]
G1 X52.874 Y68.864 E28.78205 ; [1812]
G1 X53.32 Y68.796 E28.79705 ; [1813]
G1 X53.786 Y68.75 E28.81263 ; [1814]
G1 X54.217 Y68.731 E28.82698 ; [1815]
G1 X54.713 Y68.737 E28.84348 ; [1816]
G1 X55.174 Y68.771 E28.85885 ; [1817]
G1 X55.634 Y68.831 E28.87428 ; [1818]
G1 X56.094 Y68.919 E28.88986 ; [1819]
G1 X56.533 Y69.028 E28.9049 ; [1820]
G1 X56.979 Y69.167 E28.92044 ; [1821]
G1 X57.44 Y69.342 E28.93684 ; [1822]
G1 X57.863 Y69.53 E28.95224 ; [1823]
G1 X58.274 Y69.742 E28.96762 ; [1824]
G1 X58.673 Y69.977 E28.98302 ; [1825]
G1 X59.055 Y70.232 E28.99829 ; [1826]
G1 X59.44 Y70.528 E29.01445 ; [1827]
G1 X59.777 Y70.812 E29.0291 ; [1828]
G1 X60.117 Y71.14 E29.04482 ; [1829]
G1 X60.448 Y71.497 E29.06101 ; [1830]
G1 X60.742 Y71.847 E29.07621 ; [1831]
G1 X61.015 Y72.223 E29.09167 ; [1832]
G1 X61.266 Y72.609 E29.10698 ; [1833]
G1 X61.491 Y73.002 E29.12204 ; [1834]
G1 X61.7 Y73.422 E29.13765 ; [1835]
G1 X61.886 Y73.857 E29.15338 ; [1836]
G1 X62.054 Y74.32 E29.16976 ; [1837]
G1 X62.186 Y74.768 E29.1853 ; [1838]
G1 X62.292 Y75.218 E29.20067 ; [1839]
G1 X62.368 Y75.665 E29.21575 ; [1840]
G1 X62.421 Y76.12 E29.23099 ; [1841]
G1 X62.448 Y76.615 E29.24748 ; [1842]
G1 X62.448 Y77.084 E29.26308 ; [1843]
G1 X62.422 Y77.539 E29.27824 ; [1844]
G1 X62.369 Y77.999 E29.29364 ; [1845]
G1 X62.29 Y78.445 E29.3087 ; [1846]
G1 X62.184 Y78.904 E29.32437 ; [1847]
G1 X62.052 Y79.344 E29.33965 ; [1848]
G1 X61.884 Y79.81 E29.35612 ; [1849]
G1 X61.714 Y80.209 E29.37055 ; [1850]
G1 X61.491 Y80.659 E29.38725 ; [1851]
G1 X61.267 Y81.053 E29.40233 ; [1852]
G1 X61.014 Y81.442 E29.41776 ; [1853]
G1 X60.741 Y81.811 E29.43303 ; [1854]
G1 X60.446 Y82.168 E29.44843 ; [1855]
G1 X60.134 Y82.504 E29.46368 ; [1856]
G1 X59.771 Y82.851 E29.48038 ; [1857]
G1 X59.424 Y83.149 E29.4956 ; [1858]
G1 X59.054 Y83.427 E29.51099 ; [1859]
G1 X58.671 Y83.685 E29.52635 ; [1860]
G1 X58.273 Y83.921 E29.54174 ; [1861]
G1 X57.863 Y84.13 E29.55705 ; [1862]
G1 X57.409 Y84.331 E29.57356 ; [1863]
G1 X56.977 Y84.495 E29.58893 ; [1864]
G1 X56.533 Y84.633 E29.60439 ; [1865]
G1 X56.077 Y84.748 E29.62003 ; [1866]
G1 X55.631 Y84.83 E29.63512 ; [1867]
G1 X55.148 Y84.893 E29.65132 ; [1868]
G1 X54.716 Y84.923 E29.66572 ; [1869]
G1 X54.217 Y84.93 E29.68232 ; [1870]
G1 X53.751 Y84.909 E29.69783 ; [1871]
G1 X53.285 Y84.861 E29.71342 ; [1872]
G0 F7500 X53.791 Y84.511 ; [1873]
; [1874] TYPE:WALL-OUTER
G1 F1350 X53.349 Y84.466 E29.72819 ; [1875]
G1 X52.925 Y84.397 E29.74248 ; [1876]
G1 X52.477 Y84.301 E29.75772 ; [1877]
G1 X52.049 Y84.179 E29.77252 ; [1878]
G1 X51.639 Y84.037 E29.78695 ; [1879]
G1 X51.214 Y83.864 E29.80221 ; [1880]
G1 X50.82 Y83.674 E29.81676 ; [1881]
G1 X50.432 Y83.459 E29.83152 ; [1882]
G1 X50.057 Y83.222 E29.84627 ; [1883]
G1 X49.694 Y82.964 E29.86108 ; [1884]
G1 X49.35 Y82.685 E29.87582 ; [1885]
G1 X49.02 Y82.388 E29.89058 ; [1886]
G1 X48.71 Y82.071 E29.90533 ; [1887]
G1 X48.414 Y81.737 E29.92017 ; [1888]
G1 X48.143 Y81.386 E29.93492 ; [1889]
G1 X47.892 Y81.022 E29.94963 ; [1890]
G1 X47.66 Y80.643 E29.96441 ; [1891]
G1 X47.452 Y80.253 E29.97911 ; [1892]
G1 X47.266 Y79.848 E29.99393 ; [1893]
G1 X47.098 Y79.421 E30.00919 ; [1894]
G1 X46.965 Y79.012 E30.0235 ; [1895]
G1 X46.854 Y78.586 E30.03814 ; [1896]
G1 X46.764 Y78.15 E30.05295 ; [1897]
G1 X46.701 Y77.71 E30.06773 ; [1898]
G1 X46.663 Y77.279 E30.08212 ; [1899]
G1 X46.651 Y76.838 E30.09679 ; [1900]
G1 X46.663 Y76.381 E30.112 ; [1901]
G1 X46.702 Y75.938 E30.12679 ; [1902]
G1 X46.765 Y75.505 E30.14134 ; [1903]
G1 X46.856 Y75.063 E30.15635 ; [1904]
G1 X46.97 Y74.637 E30.17102 ; [1905]
G1 X47.104 Y74.229 E30.1853 ; [1906]
G1 X47.271 Y73.801 E30.20058 ; [1907]
G1 X47.457 Y73.397 E30.21538 ; [1908]
G1 X47.668 Y73.006 E30.23015 ; [1909]
G1 X47.898 Y72.629 E30.24484 ; [1910]
G1 X48.15 Y72.263 E30.25962 ; [1911]
G1 X48.425 Y71.915 E30.27437 ; [1912]
G1 X48.71 Y71.587 E30.28883 ; [1913]
G1 X49.03 Y71.266 E30.3039 ; [1914]
G1 X49.359 Y70.966 E30.31871 ; [1915]
G1 X49.705 Y70.69 E30.33343 ; [1916]
G1 X50.066 Y70.433 E30.34817 ; [1917]
G1 X50.443 Y70.196 E30.36298 ; [1918]
G1 X50.829 Y69.982 E30.37766 ; [1919]
G1 X51.231 Y69.791 E30.39246 ; [1920]
G1 X51.655 Y69.616 E30.40772 ; [1921]
G1 X52.051 Y69.48 E30.42165 ; [1922]
G1 X52.49 Y69.358 E30.4368 ; [1923]
G1 X52.935 Y69.26 E30.45196 ; [1924]
G1 X53.361 Y69.194 E30.46629 ; [1925]
G1 X53.792 Y69.15 E30.4807 ; [1926]
G1 X54.248 Y69.131 E30.49588 ; [1927]
G1 X54.69 Y69.138 E30.51059 ; [1928]
G1 X55.131 Y69.17 E30.52529 ; [1929]
G1 X55.573 Y69.228 E30.54012 ; [1930]
G1 X55.997 Y69.308 E30.55447 ; [1931]
G1 X56.438 Y69.419 E30.5696 ; [1932]
G1 X56.892 Y69.562 E30.58543 ; [1933]
G1 X57.278 Y69.708 E30.59915 ; [1934]
G1 X57.683 Y69.889 E30.61391 ; [1935]
G1 X58.08 Y70.094 E30.62877 ; [1936]
G1 X58.461 Y70.318 E30.64347 ; [1937]
G1 X58.824 Y70.56 E30.65798 ; [1938]
G1 X59.181 Y70.834 E30.67295 ; [1939]
G1 X59.533 Y71.134 E30.68833 ; [1940]
G1 X59.839 Y71.429 E30.70247 ; [1941]
G1 X60.14 Y71.753 E30.71718 ; [1942]
G1 X60.423 Y72.091 E30.73184 ; [1943]
G1 X60.687 Y72.455 E30.74679 ; [1944]
G1 X60.929 Y72.827 E30.76155 ; [1945]
G1 X61.145 Y73.204 E30.77601 ; [1946]
G1 X61.348 Y73.618 E30.79134 ; [1947]
G1 X61.518 Y74.016 E30.80574 ; [1948]
G1 X61.67 Y74.434 E30.82053 ; [1949]
G1 X61.796 Y74.86 E30.83531 ; [1950]
G1 X61.901 Y75.307 E30.85058 ; [1951]
G1 X61.972 Y75.731 E30.86488 ; [1952]
G1 X62.023 Y76.161 E30.87928 ; [1953]
G1 X62.048 Y76.603 E30.894 ; [1954]
G1 X62.048 Y77.06 E30.9092 ; [1955]
G1 X62.022 Y77.501 E30.9239 ; [1956]
G1 X61.971 Y77.943 E30.93869 ; [1957]
G1 X61.898 Y78.363 E30.95287 ; [1958]
G1 X61.796 Y78.804 E30.96793 ; [1959]
G1 X61.665 Y79.238 E30.98301 ; [1960]
G1 X61.516 Y79.653 E30.99767 ; [1961]
G1 X61.341 Y80.062 E31.01247 ; [1962]
G1 X61.143 Y80.46 E31.02725 ; [1963]
G1 X60.925 Y80.842 E31.04188 ; [1964]
G1 X60.68 Y81.219 E31.05684 ; [1965]
G1 X60.417 Y81.574 E31.07153 ; [1966]
G1 X60.142 Y81.906 E31.08587 ; [1967]
G1 X59.831 Y82.241 E31.10107 ; [1968]
G1 X59.511 Y82.547 E31.1158 ; [1969]
G1 X59.173 Y82.835 E31.13057 ; [1970]
G1 X58.818 Y83.103 E31.14536 ; [1971]
G1 X58.457 Y83.346 E31.15984 ; [1972]
G1 X58.068 Y83.576 E31.17487 ; [1973]
G1 X57.681 Y83.774 E31.18932 ; [1974]
G1 X57.267 Y83.957 E31.20438 ; [1975]
G1 X56.853 Y84.114 E31.21911 ; [1976]
G1 X56.427 Y84.246 E31.23394 ; [1977]
G1 X55.984 Y84.357 E31.24913 ; [1978]
G1 X55.559 Y84.436 E31.26351 ; [1979]
G1 X55.12 Y84.493 E31.27823 ; [1980]
G1 X54.688 Y84.524 E31.29264 ; [1981]
G1 X54.235 Y84.53 E31.3077 ; [1982]
G1 X53.791 Y84.511 E31.32249 ; [1983]
G1 F1500 E24.82249 ; [1984]
G0 F7500 X53.74 Y85.009 ; [1985]
G0 X53.41 Y85.057 ; [1986]
G0 X53.269 Y85.984 ; [1987]
G0 X53.29 Y86.17 ; [1988]
; [1989] TYPE:WALL-INNER
G1 F1500 E31.32249 ; [1990]
G1 F1350 X53.762 Y86.211 E31.33824 ; [1991]
G1 X54.233 Y86.23 E31.35392 ; [1992]
G1 X54.704 Y86.224 E31.36959 ; [1993]
G1 X55.192 Y86.192 E31.38585 ; [1994]
G1 X55.66 Y86.138 E31.40152 ; [1995]
G1 X56.112 Y86.064 E31.41676 ; [1996]
G1 X56.575 Y85.962 E31.43253 ; [1997]
G1 X57.047 Y85.835 E31.44878 ; [1998]
G1 X57.477 Y85.696 E31.46381 ; [1999]
G1 X57.934 Y85.52 E31.4801 ; [2000]
G1 X58.352 Y85.336 E31.49529 ; [2001]
G1 X58.775 Y85.123 E31.51104 ; [2002]
G1 X59.2 Y84.881 E31.52731 ; [2003]
G1 X59.599 Y84.628 E31.54302 ; [2004]
G1 X59.972 Y84.364 E31.55822 ; [2005]
G1 X60.354 Y84.063 E31.5744 ; [2006]
G1 X60.685 Y83.774 E31.58901 ; [2007]
G1 X61.049 Y83.423 E31.60583 ; [2008]
G1 X61.373 Y83.077 E31.6216 ; [2009]
G1 X61.667 Y82.731 E31.6367 ; [2010]
G1 X61.962 Y82.341 E31.65296 ; [2011]
G1 X62.223 Y81.966 E31.66816 ; [2012]
G1 X62.472 Y81.563 E31.68392 ; [2013]
G1 X62.691 Y81.164 E31.69905 ; [2014]
G1 X62.911 Y80.709 E31.71586 ; [2015]
G1 X63.09 Y80.29 E31.73102 ; [2016]
G1 X63.258 Y79.834 E31.74718 ; [2017]
G1 X63.391 Y79.397 E31.76237 ; [2018]
G1 X63.512 Y78.922 E31.77868 ; [2019]
G1 X63.606 Y78.475 E31.79387 ; [2020]
G1 X63.675 Y78.007 E31.8096 ; [2021]
G1 X63.724 Y77.521 E31.82585 ; [2022]
G1 X63.748 Y77.066 E31.841 ; [2023]
G1 X63.747 Y76.581 E31.85714 ; [2024]
G1 X63.724 Y76.123 E31.87239 ; [2025]
G1 X63.674 Y75.639 E31.88857 ; [2026]
G1 X63.603 Y75.169 E31.90438 ; [2027]
G1 X63.507 Y74.711 E31.91995 ; [2028]
G1 X63.396 Y74.278 E31.93481 ; [2029]
G1 X63.247 Y73.797 E31.95156 ; [2030]
G1 X63.078 Y73.339 E31.9678 ; [2031]
G1 X62.895 Y72.915 E31.98316 ; [2032]
G1 X62.691 Y72.497 E31.99863 ; [2033]
G1 X62.463 Y72.083 E32.01435 ; [2034]
G1 X62.215 Y71.686 E32.02992 ; [2035]
G1 X61.964 Y71.32 E32.04468 ; [2036]
G1 X61.657 Y70.919 E32.06147 ; [2037]
G1 X61.351 Y70.562 E32.07711 ; [2038]
G1 X61.008 Y70.197 E32.09377 ; [2039]
G1 X60.686 Y69.888 E32.10862 ; [2040]
G1 X60.329 Y69.578 E32.12434 ; [2041]
G1 X59.958 Y69.287 E32.14002 ; [2042]
G1 X59.575 Y69.019 E32.15557 ; [2043]
G1 X59.172 Y68.763 E32.17145 ; [2044]
G1 X58.762 Y68.533 E32.18709 ; [2045]
G1 X58.353 Y68.325 E32.20235 ; [2046]
G1 X57.921 Y68.136 E32.21803 ; [2047]
G1 X57.479 Y67.967 E32.23377 ; [2048]
G1 X57.001 Y67.812 E32.25048 ; [2049]
G1 X56.575 Y67.699 E32.26514 ; [2050]
G1 X56.112 Y67.598 E32.2809 ; [2051]
G1 X55.631 Y67.52 E32.29711 ; [2052]
G1 X55.16 Y67.467 E32.31288 ; [2053]
G1 X54.691 Y67.438 E32.3285 ; [2054]
G1 X54.233 Y67.431 E32.34374 ; [2055]
G1 X53.749 Y67.45 E32.35985 ; [2056]
G1 X53.277 Y67.494 E32.37562 ; [2057]
G1 X52.81 Y67.559 E32.3913 ; [2058]
G1 X52.344 Y67.649 E32.40708 ; [2059]
G1 X51.899 Y67.758 E32.42232 ; [2060]
G1 X51.43 Y67.896 E32.43858 ; [2061]
G1 X50.988 Y68.053 E32.45418 ; [2062]
G1 X50.552 Y68.234 E32.46989 ; [2063]
G1 X50.123 Y68.436 E32.48566 ; [2064]
G1 X49.708 Y68.659 E32.50133 ; [2065]
G1 X49.317 Y68.893 E32.51648 ; [2066]
G1 X48.911 Y69.168 E32.53279 ; [2067]
G1 X48.547 Y69.439 E32.54789 ; [2068]
G1 X48.166 Y69.753 E32.56431 ; [2069]
G1 X47.829 Y70.062 E32.57951 ; [2070]
G1 X47.488 Y70.407 E32.59565 ; [2071]
G1 X47.195 Y70.736 E32.6103 ; [2072]
G1 X46.89 Y71.115 E32.62648 ; [2073]
G1 X46.599 Y71.517 E32.64299 ; [2074]
G1 X46.346 Y71.907 E32.65845 ; [2075]
G1 X46.108 Y72.317 E32.67422 ; [2076]
G1 X45.897 Y72.722 E32.68941 ; [2077]
G1 X45.69 Y73.18 E32.70612 ; [2078]
G1 X45.521 Y73.608 E32.72143 ; [2079]
G1 X45.37 Y74.055 E32.73712 ; [2080]
G1 X45.245 Y74.506 E32.75269 ; [2081]
G1 X45.141 Y74.954 E32.76798 ; [2082]
G1 X45.057 Y75.432 E32.78412 ; [2083]
G1 X45 Y75.904 E32.79994 ; [2084]
G1 X44.964 Y76.358 E32.81508 ; [2085]
G1 X44.951 Y76.831 E32.83082 ; [2086]
G1 X44.965 Y77.316 E32.84696 ; [2087]
G1 X45.002 Y77.786 E32.86264 ; [2088]
G1 X45.061 Y78.257 E32.87843 ; [2089]
G1 X45.141 Y78.706 E32.8936 ; [2090]
G1 X45.252 Y79.181 E32.90982 ; [2091]
G1 X45.378 Y79.623 E32.92511 ; [2092]
G1 X45.533 Y80.086 E32.94135 ; [2093]
G1 X45.708 Y80.52 E32.95691 ; [2094]
G1 X45.897 Y80.94 E32.97223 ; [2095]
G1 X46.114 Y81.358 E32.9879 ; [2096]
G1 X46.361 Y81.779 E33.00413 ; [2097]
G1 X46.618 Y82.17 E33.01969 ; [2098]
G1 X46.899 Y82.556 E33.03557 ; [2099]
G1 X47.195 Y82.922 E33.05123 ; [2100]
G1 X47.51 Y83.276 E33.06699 ; [2101]
G1 X47.832 Y83.602 E33.08223 ; [2102]
G1 X48.193 Y83.932 E33.0985 ; [2103]
G1 X48.542 Y84.221 E33.11357 ; [2104]
G1 X48.934 Y84.512 E33.12981 ; [2105]
G1 X49.326 Y84.773 E33.14547 ; [2106]
G1 X49.733 Y85.015 E33.16122 ; [2107]
G1 X50.152 Y85.239 E33.17702 ; [2108]
G1 X50.584 Y85.442 E33.1929 ; [2109]
G1 X51.039 Y85.628 E33.20925 ; [2110]
G1 X51.444 Y85.768 E33.2235 ; [2111]
G1 X51.901 Y85.903 E33.23935 ; [2112]
G1 X52.376 Y86.019 E33.25561 ; [2113]
G1 X52.838 Y86.106 E33.27125 ; [2114]
G1 X53.29 Y86.17 E33.28643 ; [2115]
G0 F7500 X53.244 Y86.568 ; [2116]
; [2117] TYPE:WALL-OUTER
G1 F1350 X53.737 Y86.611 E33.30289 ; [2118]
G1 X54.228 Y86.63 E33.31923 ; [2119]
G1 X54.719 Y86.624 E33.33556 ; [2120]
G1 X55.185 Y86.595 E33.35109 ; [2121]
G1 X55.675 Y86.54 E33.36749 ; [2122]
G1 X56.187 Y86.457 E33.38474 ; [2123]
G1 X56.677 Y86.349 E33.40143 ; [2124]
G1 X57.171 Y86.216 E33.41845 ; [2125]
G1 X57.611 Y86.073 E33.43384 ; [2126]
G1 X58.072 Y85.896 E33.45026 ; [2127]
G1 X58.545 Y85.687 E33.46746 ; [2128]
G1 X58.963 Y85.476 E33.48303 ; [2129]
G1 X59.393 Y85.233 E33.49946 ; [2130]
G1 X59.83 Y84.955 E33.51669 ; [2131]
G1 X60.211 Y84.685 E33.53222 ; [2132]
G1 X60.617 Y84.365 E33.54941 ; [2133]
G1 X60.949 Y84.075 E33.56407 ; [2134]
G1 X61.323 Y83.715 E33.58134 ; [2135]
G1 X61.677 Y83.337 E33.59857 ; [2136]
G1 X61.979 Y82.982 E33.61407 ; [2137]
G1 X62.278 Y82.589 E33.63049 ; [2138]
G1 X62.558 Y82.185 E33.64684 ; [2139]
G1 X62.818 Y81.765 E33.66327 ; [2140]
G1 X63.054 Y81.334 E33.67961 ; [2141]
G1 X63.279 Y80.867 E33.69685 ; [2142]
G1 X63.462 Y80.438 E33.71237 ; [2143]
G1 X63.638 Y79.962 E33.72925 ; [2144]
G1 X63.777 Y79.505 E33.74513 ; [2145]
G1 X63.894 Y79.05 E33.76076 ; [2146]
G1 X64 Y78.545 E33.77792 ; [2147]
G1 X64.073 Y78.057 E33.79433 ; [2148]
G1 X64.123 Y77.568 E33.81068 ; [2149]
G1 X64.148 Y77.076 E33.82707 ; [2150]
G1 X64.147 Y76.56 E33.84423 ; [2151]
G1 X64.123 Y76.093 E33.85978 ; [2152]
G1 X64.07 Y75.58 E33.87694 ; [2153]
G1 X63.995 Y75.088 E33.89349 ; [2154]
G1 X63.895 Y74.612 E33.90967 ; [2155]
G1 X63.774 Y74.147 E33.92565 ; [2156]
G1 X63.633 Y73.686 E33.94168 ; [2157]
G1 X63.463 Y73.223 E33.95809 ; [2158]
G1 X63.28 Y72.795 E33.97357 ; [2159]
G1 X63.054 Y72.327 E33.99085 ; [2160]
G1 X62.818 Y71.896 E34.0072 ; [2161]
G1 X62.545 Y71.46 E34.02431 ; [2162]
G1 X62.278 Y71.072 E34.03997 ; [2163]
G1 X61.979 Y70.68 E34.05637 ; [2164]
G1 X61.66 Y70.306 E34.07272 ; [2165]
G1 X61.323 Y69.946 E34.08912 ; [2166]
G1 X60.949 Y69.586 E34.10639 ; [2167]
G1 X60.577 Y69.264 E34.12275 ; [2168]
G1 X60.189 Y68.96 E34.13914 ; [2169]
G1 X59.79 Y68.681 E34.15534 ; [2170]
G1 X59.393 Y68.428 E34.171 ; [2171]
G1 X58.963 Y68.186 E34.18741 ; [2172]
G1 X58.524 Y67.963 E34.20378 ; [2173]
G1 X58.051 Y67.757 E34.22094 ; [2174]
G1 X57.613 Y67.589 E34.23655 ; [2175]
G1 X57.131 Y67.433 E34.2534 ; [2176]
G1 X56.669 Y67.31 E34.2693 ; [2177]
G1 X56.187 Y67.205 E34.28571 ; [2178]
G1 X55.702 Y67.125 E34.30205 ; [2179]
G1 X55.212 Y67.069 E34.31846 ; [2180]
G1 X54.721 Y67.038 E34.33482 ; [2181]
G1 X54.228 Y67.031 E34.35122 ; [2182]
G1 X53.714 Y67.052 E34.36833 ; [2183]
G1 X53.246 Y67.094 E34.38396 ; [2184]
G1 X52.736 Y67.166 E34.40109 ; [2185]
G1 X52.249 Y67.26 E34.41759 ; [2186]
G1 X51.787 Y67.374 E34.43341 ; [2187]
G1 X51.351 Y67.501 E34.44852 ; [2188]
G1 X50.861 Y67.673 E34.46579 ; [2189]
G1 X50.382 Y67.872 E34.48304 ; [2190]
G1 X49.957 Y68.071 E34.49865 ; [2191]
G1 X49.502 Y68.315 E34.51582 ; [2192]
G1 X49.103 Y68.555 E34.53131 ; [2193]
G1 X48.692 Y68.831 E34.54777 ; [2194]
G1 X48.282 Y69.138 E34.56481 ; [2195]
G1 X47.896 Y69.458 E34.58149 ; [2196]
G1 X47.552 Y69.773 E34.597 ; [2197]
G1 X47.207 Y70.121 E34.6133 ; [2198]
G1 X46.879 Y70.49 E34.62972 ; [2199]
G1 X46.557 Y70.892 E34.64685 ; [2200]
G1 X46.263 Y71.299 E34.66355 ; [2201]
G1 X46 Y71.705 E34.67964 ; [2202]
G1 X45.754 Y72.132 E34.69603 ; [2203]
G1 X45.537 Y72.547 E34.71161 ; [2204]
G1 X45.315 Y73.044 E34.72971 ; [2205]
G1 X45.151 Y73.454 E34.7444 ; [2206]
G1 X44.993 Y73.921 E34.76079 ; [2207]
G1 X44.86 Y74.393 E34.7771 ; [2208]
G1 X44.749 Y74.874 E34.79352 ; [2209]
G1 X44.663 Y75.357 E34.80984 ; [2210]
G1 X44.602 Y75.848 E34.8263 ; [2211]
G1 X44.564 Y76.338 E34.84264 ; [2212]
G1 X44.551 Y76.831 E34.85905 ; [2213]
G1 X44.564 Y77.321 E34.87535 ; [2214]
G1 X44.604 Y77.836 E34.89253 ; [2215]
G1 X44.667 Y78.326 E34.90896 ; [2216]
G1 X44.749 Y78.786 E34.9245 ; [2217]
G1 X44.866 Y79.289 E34.94168 ; [2218]
G1 X44.998 Y79.75 E34.95763 ; [2219]
G1 X45.151 Y80.208 E34.97369 ; [2220]
G1 X45.343 Y80.685 E34.99079 ; [2221]
G1 X45.549 Y81.138 E35.00734 ; [2222]
G1 X45.763 Y81.55 E35.02278 ; [2223]
G1 X46.011 Y81.976 E35.03918 ; [2224]
G1 X46.281 Y82.387 E35.05553 ; [2225]
G1 X46.587 Y82.807 E35.07282 ; [2226]
G1 X46.879 Y83.169 E35.08829 ; [2227]
G1 X47.207 Y83.538 E35.10471 ; [2228]
G1 X47.554 Y83.89 E35.12115 ; [2229]
G1 X47.917 Y84.223 E35.13753 ; [2230]
G1 X48.294 Y84.535 E35.15381 ; [2231]
G1 X48.69 Y84.83 E35.17023 ; [2232]
G1 X49.098 Y85.103 E35.18656 ; [2233]
G1 X49.522 Y85.356 E35.20298 ; [2234]
G1 X49.957 Y85.59 E35.21941 ; [2235]
G1 X50.432 Y85.812 E35.23685 ; [2236]
G1 X50.873 Y85.993 E35.2527 ; [2237]
G1 X51.322 Y86.149 E35.26851 ; [2238]
G1 X51.796 Y86.289 E35.28495 ; [2239]
G1 X52.273 Y86.407 E35.3013 ; [2240]
G1 X52.758 Y86.499 E35.31771 ; [2241]
G1 X53.244 Y86.568 E35.33404 ; [2242]
G0 F7500 X53.342 Y85.768 ; [2243]
; [2244] TYPE:SKIN
G1 F1104.3 X53.794 Y85.806 E35.35248 ; [2245]
G1 X54.244 Y85.825 E35.3708 ; [2246]
G1 F1102 X54.68 Y85.819 E35.38856 ; [2247]
G1 F1104.3 X55.124 Y85.792 E35.40665 ; [2248]
G1 F1102 X55.584 Y85.74 E35.42551 ; [2249]
G1 X56.027 Y85.667 E35.4438 ; [2250]
G1 F1106.6 X56.459 Y85.573 E35.46174 ; [2251]
G1 F1104.3 X56.92 Y85.45 E35.48114 ; [2252]
G1 F1102 X57.349 Y85.312 E35.49951 ; [2253]
G1 F1104.3 X57.76 Y85.154 E35.51741 ; [2254]
G1 F1102 X58.184 Y84.967 E35.53629 ; [2255]
G1 X58.578 Y84.768 E35.55427 ; [2256]
G1 F1104.3 X58.994 Y84.533 E35.5737 ; [2257]
G1 X59.376 Y84.29 E35.59211 ; [2258]
G1 F1102 X59.725 Y84.042 E35.60955 ; [2259]
G1 X60.09 Y83.756 E35.62845 ; [2260]
G1 F1104.3 X60.41 Y83.475 E35.64576 ; [2261]
G1 F1106.6 X60.768 Y83.131 E35.66591 ; [2262]
G1 X61.064 Y82.815 E35.68348 ; [2263]
G1 X61.363 Y82.463 E35.70222 ; [2264]
G1 F1108.8 X61.622 Y82.122 E35.71956 ; [2265]
G1 F1106.6 X61.879 Y81.749 E35.73794 ; [2266]
G1 F1104.3 X62.124 Y81.355 E35.7568 ; [2267]
G1 F1106.6 X62.335 Y80.969 E35.77465 ; [2268]
G1 F1108.8 X62.533 Y80.561 E35.79302 ; [2269]
G1 X62.704 Y80.164 E35.81052 ; [2270]
G1 F1106.6 X62.877 Y79.695 E35.83081 ; [2271]
G1 X62.999 Y79.289 E35.84801 ; [2272]
G1 F1108.8 X63.114 Y78.849 E35.86642 ; [2273]
G1 F1104.3 X63.208 Y78.395 E35.88528 ; [2274]
G1 X63.274 Y77.95 E35.90357 ; [2275]
G1 F1106.6 X63.32 Y77.501 E35.92188 ; [2276]
G1 F1108.8 X63.342 Y77.094 E35.93839 ; [2277]
G1 F1106.6 X63.343 Y76.602 E35.95835 ; [2278]
G1 F1104.3 X63.32 Y76.16 E35.97635 ; [2279]
G1 F1102 X63.272 Y75.69 E35.9956 ; [2280]
G1 X63.207 Y75.264 E36.01316 ; [2281]
G1 F1104.3 X63.117 Y74.824 E36.03142 ; [2282]
G1 F1106.6 X63.006 Y74.385 E36.04979 ; [2283]
G1 X62.871 Y73.949 E36.06831 ; [2284]
G1 F1104.3 X62.735 Y73.573 E36.08457 ; [2285]
G1 X62.53 Y73.092 E36.10583 ; [2286]
G1 X62.34 Y72.701 E36.1235 ; [2287]
G1 F1102 X62.124 Y72.306 E36.14185 ; [2288]
G1 F1104.3 X61.887 Y71.923 E36.16016 ; [2289]
G1 F1106.6 X61.63 Y71.549 E36.17857 ; [2290]
G1 F1104.3 X61.341 Y71.171 E36.19792 ; [2291]
G1 F1106.6 X61.121 Y70.912 E36.21171 ; [2292]
G1 F1108.8 X60.784 Y70.548 E36.2318 ; [2293]
G1 X60.428 Y70.2 E36.25196 ; [2294]
G1 F1106.6 X60.069 Y69.888 E36.27126 ; [2295]
G1 F1104.3 X59.737 Y69.628 E36.2884 ; [2296]
G1 F1106.6 X59.371 Y69.37 E36.30657 ; [2297]
G1 X58.983 Y69.122 E36.32526 ; [2298]
G1 X58.586 Y68.898 E36.34376 ; [2299]
G1 F1104.3 X58.173 Y68.689 E36.36258 ; [2300]
G1 F1102 X57.722 Y68.493 E36.38261 ; [2301]
G1 F1104.3 X57.319 Y68.34 E36.40014 ; [2302]
G1 F1102 X56.89 Y68.2 E36.41852 ; [2303]
G1 F1104.3 X56.476 Y68.093 E36.43591 ; [2304]
G1 F1106.6 X56.031 Y67.996 E36.45439 ; [2305]
G1 F1104.3 X55.584 Y67.922 E36.47282 ; [2306]
G1 X55.146 Y67.872 E36.49074 ; [2307]
G1 F1106.6 X54.684 Y67.843 E36.50952 ; [2308]
G1 X54.232 Y67.836 E36.52787 ; [2309]
G1 F1102 X53.809 Y67.852 E36.54511 ; [2310]
G1 X53.343 Y67.894 E36.56418 ; [2311]
G1 X52.876 Y67.958 E36.58338 ; [2312]
G1 X52.443 Y68.042 E36.60135 ; [2313]
G1 F1104.3 X52.017 Y68.146 E36.61918 ; [2314]
G1 F1102 X51.552 Y68.282 E36.63892 ; [2315]
G1 X51.164 Y68.419 E36.65569 ; [2316]
G1 X50.727 Y68.598 E36.67493 ; [2317]
G1 X50.335 Y68.783 E36.69259 ; [2318]
G1 F1104.3 X49.907 Y69.012 E36.71233 ; [2319]
G1 F1102 X49.531 Y69.238 E36.7302 ; [2320]
G1 X49.166 Y69.484 E36.74813 ; [2321]
G1 F1104.3 X48.803 Y69.754 E36.76653 ; [2322]
G1 F1106.6 X48.52 Y69.983 E36.7813 ; [2323]
G1 F1104.3 X48.121 Y70.343 E36.80315 ; [2324]
G1 F1102 X47.79 Y70.678 E36.82234 ; [2325]
G1 X47.482 Y71.024 E36.84121 ; [2326]
G1 F1104.3 X47.103 Y71.505 E36.86611 ; [2327]
G1 X46.74 Y72.035 E36.89223 ; [2328]
G1 F1102 X46.465 Y72.507 E36.91449 ; [2329]
G1 F1104.3 X46.261 Y72.9 E36.93249 ; [2330]
G1 F1106.6 X46.064 Y73.336 E36.95191 ; [2331]
G1 X45.886 Y73.794 E36.97185 ; [2332]
G1 F1102 X45.766 Y74.147 E36.98704 ; [2333]
G1 X45.638 Y74.605 E37.00641 ; [2334]
G1 F1104.3 X45.539 Y75.04 E37.02455 ; [2335]
G1 X45.457 Y75.495 E37.04335 ; [2336]
G1 X45.405 Y75.923 E37.06088 ; [2337]
G1 F1106.6 X45.368 Y76.384 E37.07965 ; [2338]
G1 F1104.3 X45.356 Y76.83 E37.09779 ; [2339]
G1 F1102 X45.368 Y77.274 E37.11589 ; [2340]
G1 X45.403 Y77.723 E37.13424 ; [2341]
G1 X45.461 Y78.195 E37.15361 ; [2342]
G1 X45.539 Y78.629 E37.17158 ; [2343]
G1 F1104.3 X45.643 Y79.069 E37.18996 ; [2344]
G1 F1108.8 X45.728 Y79.384 E37.20317 ; [2345]
G1 X45.909 Y79.934 E37.22662 ; [2346]
G1 F1106.6 X46.084 Y80.369 E37.24565 ; [2347]
G1 X46.259 Y80.754 E37.26281 ; [2348]
G1 F1104.3 X46.468 Y81.159 E37.28134 ; [2349]
G1 F1102 X46.699 Y81.555 E37.30002 ; [2350]
G1 X46.94 Y81.922 E37.31791 ; [2351]
G1 F1104.3 X47.215 Y82.303 E37.33701 ; [2352]
G1 F1106.6 X47.448 Y82.595 E37.35217 ; [2353]
G1 X47.781 Y82.97 E37.37252 ; [2354]
G1 X48.162 Y83.357 E37.39456 ; [2355]
G1 F1104.3 X48.442 Y83.611 E37.40993 ; [2356]
G1 F1102 X48.786 Y83.896 E37.42813 ; [2357]
G1 X49.148 Y84.167 E37.44655 ; [2358]
G1 F1099.8 X49.544 Y84.432 E37.46601 ; [2359]
G1 F1104.3 X49.911 Y84.649 E37.48334 ; [2360]
G1 F1106.6 X50.314 Y84.867 E37.50193 ; [2361]
G1 F1104.3 X50.721 Y85.059 E37.52023 ; [2362]
G1 X51.187 Y85.251 E37.54072 ; [2363]
G1 X51.7 Y85.425 E37.56275 ; [2364]
G1 F1106.6 X52 Y85.509 E37.57539 ; [2365]
G1 X52.451 Y85.62 E37.59424 ; [2366]
G1 F1104.3 X52.884 Y85.702 E37.61216 ; [2367]
G1 X53.342 Y85.768 E37.63097 ; [2368]
G0 F7500 X53.218 Y85.26 ; [2369]
G1 F1106.6 X52.773 Y85.188 E37.64926 ; [2370]
G1 X52.314 Y85.09 E37.66831 ; [2371]
G1 X51.833 Y84.955 E37.68858 ; [2372]
G1 F1104.3 X51.332 Y84.783 E37.71012 ; [2373]
G1 F1106.6 X50.862 Y84.588 E37.73077 ; [2374]
G1 F1108.8 X50.479 Y84.404 E37.74797 ; [2375]
G1 F1106.6 X50.047 Y84.166 E37.76799 ; [2376]
G1 X49.624 Y83.901 E37.78824 ; [2377]
G1 F1108.8 X49.225 Y83.619 E37.80803 ; [2378]
G1 F1106.6 X48.84 Y83.308 E37.82811 ; [2379]
G1 X48.477 Y82.983 E37.84788 ; [2380]
G1 F1108.8 X48.106 Y82.602 E37.86941 ; [2381]
G1 X47.813 Y82.273 E37.88725 ; [2382]
G1 X47.506 Y81.878 E37.90751 ; [2383]
G1 X47.219 Y81.462 E37.92798 ; [2384]
G1 X46.95 Y81.022 E37.94886 ; [2385]
G1 X46.741 Y80.63 E37.96685 ; [2386]
G1 F1106.6 X46.521 Y80.151 E37.98824 ; [2387]
G1 X46.348 Y79.714 E38.00731 ; [2388]
G1 F1108.8 X46.188 Y79.221 E38.0283 ; [2389]
G1 X46.075 Y78.788 E38.04642 ; [2390]
G1 F1111.1 X45.968 Y78.273 E38.06768 ; [2391]
G1 X45.905 Y77.823 E38.08604 ; [2392]
G1 F1108.8 X45.861 Y77.335 E38.10588 ; [2393]
G1 F1104.3 X45.846 Y76.864 E38.12504 ; [2394]
G1 F1106.6 X45.861 Y76.32 E38.14712 ; [2395]
G1 F1108.8 X45.905 Y75.827 E38.16717 ; [2396]
G1 X45.97 Y75.384 E38.1853 ; [2397]
G1 X46.076 Y74.862 E38.20687 ; [2398]
G1 F1106.6 X46.193 Y74.428 E38.22511 ; [2399]
G1 F1104.3 X46.361 Y73.919 E38.2469 ; [2400]
G1 F1106.6 X46.527 Y73.494 E38.26541 ; [2401]
G1 X46.744 Y73.024 E38.28642 ; [2402]
G1 X46.984 Y72.578 E38.30697 ; [2403]
G1 F1108.8 X47.235 Y72.174 E38.32623 ; [2404]
G1 X47.501 Y71.787 E38.34525 ; [2405]
G1 X47.793 Y71.417 E38.36433 ; [2406]
G1 F1106.6 X48.111 Y71.049 E38.38407 ; [2407]
G1 X48.46 Y70.697 E38.40418 ; [2408]
G1 X48.838 Y70.352 E38.42495 ; [2409]
G1 F1108.8 X49.205 Y70.06 E38.44394 ; [2410]
G1 X49.632 Y69.755 E38.46519 ; [2411]
G1 F1106.6 X50.026 Y69.506 E38.4841 ; [2412]
G1 F1108.8 X50.44 Y69.278 E38.50324 ; [2413]
G1 F1106.6 X50.887 Y69.063 E38.52337 ; [2414]
G1 F1104.3 X51.394 Y68.855 E38.54565 ; [2415]
G1 X51.79 Y68.719 E38.56268 ; [2416]
G1 F1108.8 X52.301 Y68.576 E38.58416 ; [2417]
G1 F1111.1 X52.814 Y68.463 E38.60539 ; [2418]
G1 F1108.8 X53.241 Y68.399 E38.62287 ; [2419]
G1 F1106.6 X53.723 Y68.349 E38.64254 ; [2420]
G1 X54.238 Y68.326 E38.66346 ; [2421]
G1 X54.739 Y68.333 E38.68379 ; [2422]
G1 F1108.8 X55.229 Y68.37 E38.70369 ; [2423]
G1 X55.704 Y68.432 E38.72308 ; [2424]
G1 F1106.6 X56.164 Y68.519 E38.74208 ; [2425]
G1 X56.648 Y68.64 E38.76232 ; [2426]
G1 F1104.3 X57.187 Y68.813 E38.78534 ; [2427]
G1 F1102 X57.561 Y68.955 E38.80164 ; [2428]
G1 F1106.6 X58.043 Y69.168 E38.82302 ; [2429]
G1 F1108.8 X58.48 Y69.394 E38.84295 ; [2430]
G1 F1111.1 X58.892 Y69.638 E38.8623 ; [2431]
G1 F1113.4 X59.292 Y69.903 E38.88165 ; [2432]
G1 F1111.1 X59.673 Y70.196 E38.90107 ; [2433]
G1 X60.055 Y70.519 E38.92128 ; [2434]
G1 X60.409 Y70.86 E38.94115 ; [2435]
G1 F1108.8 X60.765 Y71.246 E38.96241 ; [2436]
G1 F1111.1 X61.064 Y71.603 E38.98123 ; [2437]
G1 X61.349 Y71.991 E39.00068 ; [2438]
G1 X61.614 Y72.404 E39.02051 ; [2439]
G1 X61.849 Y72.815 E39.03965 ; [2440]
G1 F1108.8 X62.094 Y73.311 E39.06205 ; [2441]
G1 F1106.6 X62.262 Y73.71 E39.07962 ; [2442]
G1 X62.435 Y74.185 E39.10013 ; [2443]
G1 F1108.8 X62.576 Y74.66 E39.12019 ; [2444]
G1 F1111.1 X62.684 Y75.118 E39.13921 ; [2445]
G1 F1108.8 X62.768 Y75.602 E39.1591 ; [2446]
G1 X62.824 Y76.087 E39.17887 ; [2447]
G1 F1106.6 X62.851 Y76.564 E39.19826 ; [2448]
G1 F1108.8 X62.854 Y77.1 E39.21996 ; [2449]
G1 F1111.1 X62.826 Y77.566 E39.23883 ; [2450]
G1 F1113.4 X62.769 Y78.062 E39.25896 ; [2451]
G1 X62.684 Y78.533 E39.27826 ; [2452]
G1 F1115.7 X62.571 Y79.021 E39.29842 ; [2453]
G1 F1113.4 X62.439 Y79.464 E39.31706 ; [2454]
G1 F1108.8 X62.273 Y79.926 E39.33694 ; [2455]
G1 F1111.1 X62.079 Y80.387 E39.35716 ; [2456]
G1 X61.851 Y80.845 E39.37783 ; [2457]
G1 X61.607 Y81.27 E39.39763 ; [2458]
G1 F1113.4 X61.343 Y81.675 E39.41713 ; [2459]
G1 X61.054 Y82.069 E39.43684 ; [2460]
G1 F1111.1 X60.748 Y82.437 E39.45618 ; [2461]
G1 F1108.8 X60.417 Y82.793 E39.47586 ; [2462]
G1 X60.051 Y83.143 E39.49637 ; [2463]
G1 X59.671 Y83.469 E39.51664 ; [2464]
G1 X59.279 Y83.764 E39.53651 ; [2465]
G1 X58.882 Y84.029 E39.55584 ; [2466]
G1 F1111.1 X58.476 Y84.272 E39.57496 ; [2467]
G1 F1108.8 X58.036 Y84.496 E39.59495 ; [2468]
G1 F1104.3 X57.569 Y84.703 E39.61572 ; [2469]
G1 F1106.6 X57.105 Y84.879 E39.63586 ; [2470]
G1 F1108.8 X56.633 Y85.024 E39.65585 ; [2471]
G1 X56.168 Y85.142 E39.67528 ; [2472]
G1 X55.704 Y85.228 E39.69439 ; [2473]
G1 X55.21 Y85.293 E39.71457 ; [2474]
G1 F1106.6 X54.73 Y85.327 E39.73409 ; [2475]
G1 F1104.3 X54.213 Y85.335 E39.75512 ; [2476]
G1 X53.751 Y85.314 E39.77392 ; [2477]
G1 F1108.8 X53.218 Y85.26 E39.79562 ; [2478]
G1 F1500 E33.29562 ; [2479]
; [2480] MESH:NONMESH
; ::: End layer 1 postamble :::
; ====== End layer 1 ====
; ==== Start layer 2 ====
; ::: Layer 2 postamble :::
G0 F300 X53.218 Y85.26 Z0.6 ; [2481]
G0 F7500 X53.267 Y84.961 ; [2482]
G0 X52.435 Y84.495 ; [2483]
G0 X52.692 Y83.462 ; [2484]
G0 X53.697 Y79.922 ; [2485]
G0 X53.657 Y78.595 ; [2486]
; [2487] TIME_ELAPSED:71.022194
; [2488] LAYER:2
M106 S170 ; [2489]
; [2490] TYPE:WALL-INNER
; [2491] MESH:Router test 2.3mf
G1 F1500 E39.79562 ; [2492]
G1 X54.024 Y78.699 E39.8083 ; [2493]
G1 X54.398 Y78.727 E39.82078 ; [2494]
G1 X54.865 Y78.667 E39.83644 ; [2495]
G1 X55.3 Y78.472 E39.85229 ; [2496]
G1 X55.683 Y78.197 E39.86797 ; [2497]
G1 X55.97 Y77.817 E39.88381 ; [2498]
G1 X56.175 Y77.393 E39.89948 ; [2499]
G1 X56.26 Y76.831 E39.91838 ; [2500]
G1 X56.188 Y76.363 E39.93413 ; [2501]
G1 X56.059 Y76.006 E39.94676 ; [2502]
G1 X55.863 Y75.684 E39.95929 ; [2503]
G1 X55.609 Y75.41 E39.97172 ; [2504]
G1 X55.221 Y75.132 E39.9876 ; [2505]
G1 X54.775 Y74.982 E40.00325 ; [2506]
G1 X54.399 Y74.935 E40.01585 ; [2507]
G1 X54.024 Y74.963 E40.02836 ; [2508]
G1 X53.565 Y75.092 E40.04421 ; [2509]
G1 X53.085 Y75.401 E40.0632 ; [2510]
G1 X52.722 Y75.833 E40.08197 ; [2511]
G1 X52.54 Y76.269 E40.09768 ; [2512]
G1 X52.463 Y76.645 E40.11045 ; [2513]
G1 X52.463 Y77.021 E40.12295 ; [2514]
G1 X52.557 Y77.482 E40.1386 ; [2515]
G1 X52.827 Y77.979 E40.15741 ; [2516]
G1 X53.239 Y78.381 E40.17656 ; [2517]
G1 X53.657 Y78.595 E40.19218 ; [2518]
G0 F9000 X53.715 Y78.507 ; [2519]
G0 X54.807 Y78.574 ; [2520]
G0 X54.975 Y79.057 ; [2521]
; [2522] TYPE:WALL-OUTER
G1 F1500 X55.501 Y78.82 E40.21137 ; [2523]
G1 X55.965 Y78.487 E40.23036 ; [2524]
G1 X56.313 Y78.027 E40.24955 ; [2525]
G1 X56.561 Y77.512 E40.26856 ; [2526]
G1 X56.664 Y76.831 E40.29147 ; [2527]
G1 X56.578 Y76.263 E40.31057 ; [2528]
G1 X56.421 Y75.832 E40.32583 ; [2529]
G1 X56.183 Y75.442 E40.34103 ; [2530]
G1 X55.875 Y75.108 E40.35614 ; [2531]
G1 X55.405 Y74.772 E40.37535 ; [2532]
G1 X54.865 Y74.59 E40.39431 ; [2533]
G1 X54.409 Y74.533 E40.40959 ; [2534]
G1 X53.954 Y74.567 E40.42477 ; [2535]
G1 X53.399 Y74.723 E40.44394 ; [2536]
G1 X52.817 Y75.097 E40.46695 ; [2537]
G1 X52.376 Y75.623 E40.48978 ; [2538]
G1 X52.156 Y76.151 E40.50881 ; [2539]
G1 X52.063 Y76.605 E40.52422 ; [2540]
G1 X52.063 Y77.061 E40.53939 ; [2541]
G1 X52.177 Y77.62 E40.55836 ; [2542]
G1 X52.505 Y78.223 E40.58119 ; [2543]
G1 X53.004 Y78.71 E40.60438 ; [2544]
G1 X53.51 Y78.969 E40.62329 ; [2545]
G1 X53.954 Y79.095 E40.63864 ; [2546]
G1 X54.408 Y79.129 E40.65378 ; [2547]
G1 X54.975 Y79.057 E40.67279 ; [2548]
G0 F9000 X54.807 Y78.574 ; [2549]
G0 X53.668 Y78.488 ; [2550]
G0 X53.787 Y78.257 ; [2551]
; [2552] TYPE:SKIN
G1 F1500 X54.089 Y78.343 E40.68324 ; [2553]
G1 X54.389 Y78.365 E40.69324 ; [2554]
G1 X54.766 Y78.316 E40.70589 ; [2555]
G1 X55.12 Y78.157 E40.71879 ; [2556]
G1 X55.425 Y77.938 E40.73128 ; [2557]
G1 X55.662 Y77.626 E40.74431 ; [2558]
G1 X55.826 Y77.286 E40.75687 ; [2559]
G1 X55.894 Y76.832 E40.77214 ; [2560]
G1 X55.837 Y76.452 E40.78492 ; [2561]
G1 X55.732 Y76.162 E40.79518 ; [2562]
G1 X55.573 Y75.903 E40.80528 ; [2563]
G1 X55.371 Y75.683 E40.81522 ; [2564]
G1 X55.054 Y75.456 E40.82819 ; [2565]
G1 X54.697 Y75.336 E40.84071 ; [2566]
G1 X54.39 Y75.297 E40.85101 ; [2567]
G1 X54.09 Y75.32 E40.86101 ; [2568]
G1 X53.712 Y75.427 E40.87408 ; [2569]
G1 X53.322 Y75.676 E40.88947 ; [2570]
G1 X53.034 Y76.021 E40.90442 ; [2571]
G1 X52.888 Y76.374 E40.91712 ; [2572]
G1 X52.823 Y76.684 E40.92766 ; [2573]
G1 X52.823 Y76.986 E40.9377 ; [2574]
G1 X52.899 Y77.355 E40.95023 ; [2575]
G1 X53.116 Y77.755 E40.96537 ; [2576]
G1 X53.454 Y78.085 E40.98108 ; [2577]
G1 X53.787 Y78.257 E40.99355 ; [2578]
G0 F9000 X53.24 Y77.564 ; [2579]
G1 F1500 X53.621 Y77.945 E41.01147 ; [2580]
G0 F9000 X54.401 Y78.16 ; [2581]
G1 F1500 X53.023 Y76.781 E41.07631 ; [2582]
G0 F9000 X53.126 Y76.319 ; [2583]
G1 F1500 X54.86 Y78.053 E41.15787 ; [2584]
G0 F9000 X55.214 Y77.841 ; [2585]
G1 F1500 X53.339 Y75.966 E41.24606 ; [2586]
G0 F9000 X53.644 Y75.706 ; [2587]
G1 F1500 X55.477 Y77.539 E41.33228 ; [2588]
G0 F9000 X55.645 Y77.141 ; [2589]
G1 F1500 X54.044 Y75.54 E41.40759 ; [2590]
G0 F9000 X54.593 Y75.523 ; [2591]
G1 F1500 X55.654 Y76.584 E41.45749 ; [2592]
G1 F1500 E34.95749 ; [2593]
; [2594] MESH:Router test 2.3mf(1)
G0 F9000 X56.111 Y76.513 ; [2595]
G0 X56.02 Y77.344 ; [2596]
G0 X55.78 Y77.775 ; [2597]
G0 X54.916 Y78.844 ; [2598]
G0 X55.05 Y79.92 ; [2599]
G0 X53.867 Y83.649 ; [2600]
G0 X53.285 Y84.861 ; [2601]
; [2602] TYPE:WALL-INNER
G1 F1500 E41.45749 ; [2603]
G1 X52.841 Y84.789 E41.47245 ; [2604]
G1 X52.406 Y84.696 E41.48725 ; [2605]
G1 X51.919 Y84.557 E41.50409 ; [2606]
G1 X51.489 Y84.408 E41.51923 ; [2607]
G1 X51.072 Y84.239 E41.5342 ; [2608]
G1 X50.626 Y84.024 E41.55066 ; [2609]
G1 X50.218 Y83.797 E41.56619 ; [2610]
G1 X49.852 Y83.566 E41.58059 ; [2611]
G1 X49.461 Y83.29 E41.59651 ; [2612]
G1 X49.1 Y82.999 E41.61193 ; [2613]
G1 X48.756 Y82.69 E41.62731 ; [2614]
G1 X48.41 Y82.337 E41.64375 ; [2615]
G1 X48.123 Y82.013 E41.65814 ; [2616]
G1 X47.813 Y81.614 E41.67495 ; [2617]
G1 X47.55 Y81.231 E41.6904 ; [2618]
G1 X47.318 Y80.851 E41.70521 ; [2619]
G1 X47.1 Y80.445 E41.72054 ; [2620]
G1 X46.894 Y79.995 E41.737 ; [2621]
G1 X46.73 Y79.579 E41.75187 ; [2622]
G1 X46.578 Y79.114 E41.76814 ; [2623]
G1 X46.465 Y78.682 E41.78299 ; [2624]
G1 X46.368 Y78.208 E41.79909 ; [2625]
G1 X46.302 Y77.745 E41.81464 ; [2626]
G1 X46.264 Y77.307 E41.82926 ; [2627]
G1 X46.251 Y76.849 E41.8445 ; [2628]
G1 X46.264 Y76.346 E41.86124 ; [2629]
G1 X46.302 Y75.914 E41.87566 ; [2630]
G1 X46.371 Y75.435 E41.89176 ; [2631]
G1 X46.47 Y74.959 E41.90793 ; [2632]
G1 X46.59 Y74.513 E41.92329 ; [2633]
G1 X46.722 Y74.108 E41.93746 ; [2634]
G1 X46.907 Y73.634 E41.95438 ; [2635]
G1 X47.105 Y73.207 E41.97004 ; [2636]
G1 X47.326 Y72.798 E41.9855 ; [2637]
G1 X47.568 Y72.402 E42.00093 ; [2638]
G1 X47.836 Y72.015 E42.01659 ; [2639]
G1 X48.123 Y71.652 E42.03198 ; [2640]
G1 X48.411 Y71.321 E42.04657 ; [2641]
G1 X48.76 Y70.97 E42.06304 ; [2642]
G1 X49.109 Y70.653 E42.07872 ; [2643]
G1 X49.473 Y70.364 E42.09418 ; [2644]
G1 X49.838 Y70.104 E42.10908 ; [2645]
G1 X50.231 Y69.856 E42.12454 ; [2646]
G1 X50.633 Y69.633 E42.13983 ; [2647]
G1 X51.049 Y69.434 E42.15517 ; [2648]
G1 X51.525 Y69.238 E42.17229 ; [2649]
G1 X51.955 Y69.091 E42.1874 ; [2650]
G1 X52.403 Y68.967 E42.20286 ; [2651]
G1 X52.874 Y68.864 E42.2189 ; [2652]
G1 X53.32 Y68.796 E42.2339 ; [2653]
G1 X53.786 Y68.75 E42.24948 ; [2654]
G1 X54.217 Y68.731 E42.26383 ; [2655]
G1 X54.713 Y68.737 E42.28033 ; [2656]
G1 X55.174 Y68.771 E42.2957 ; [2657]
G1 X55.634 Y68.831 E42.31113 ; [2658]
G1 X56.094 Y68.919 E42.32671 ; [2659]
G1 X56.533 Y69.028 E42.34175 ; [2660]
G1 X56.979 Y69.167 E42.35729 ; [2661]
G1 X57.44 Y69.342 E42.37369 ; [2662]
G1 X57.863 Y69.53 E42.38909 ; [2663]
G1 X58.274 Y69.742 E42.40447 ; [2664]
G1 X58.673 Y69.977 E42.41987 ; [2665]
